P3
400 200
255
12 12 30
12 12 30
12 12 30
12 12 30
12 12 30
12 12 30
12 12 30
12 12 30
12 12 30
12 12 30
12 12 30
12 12 30
12 12 30
12 12 30
12 12 30
12 12 30
12 12 30
12 12 30
12 12 30
12 12 30
12 12 30
12 12 30
12 12 30
12 12 30
12 12 30
12 12 30
12 12 30
12 12 30
12 12 30
12 12 30
12 12 30
12 12 30
12 12 30
12 12 30
12 12 30
12 12 30
12 12 30
12 12 30
12 12 30
12 12 30
12 12 30
12 12 30
12 12 30
12 12 30
12 12 30
12 12 30
12 12 30
12 12 30
12 12 30
12 12 30
12 12 30
12 12 30
12 12 30
12 12 30
12 12 30
12 12 30
12 12 30
12 12 30
12 12 30
12 12 30
12 12 30
12 12 30
12 12 30
12 12 30
12 12 30
12 12 30
12 12 30
12 12 30
12 12 30
12 12 30
12 12 30
12 12 30
12 12 30
12 12 30
12 12 30
12 12 30
12 12 30
12 12 30
12 12 30
12 12 30
12 12 30
12 12 30
12 12 30
12 12 30
12 12 30
12 12 30
12 12 30
12 12 30
12 12 30
12 12 30
12 12 30
12 12 30
12 12 30
12 12 30
12 12 30
12 12 30
12 12 30
12 12 30
12 12 30
12 12 30
12 12 30
12 12 30
12 12 30
12 12 30
12 12 30
12 12 30
12 12 30
12 12 30
12 12 30
12 12 30
12 12 30
12 12 30
12 12 30
12 12 30
12 12 30
12 12 30
12 12 30
12 12 30
12 12 30
12 12 30
12 12 30
12 12 30
12 12 30
12 12 30
12 12 30
12 12 30
12 12 30
12 12 30
12 12 30
12 12 30
12 12 30
12 12 30
12 12 30
12 12 30
12 12 30
12 12 30
12 12 30
12 12 30
12 12 30
12 12 30
12 12 30
12 12 30
12 12 30
12 12 30
12 12 30
12 12 30
12 12 30
12 12 30
12 12 30
12 12 30
12 12 30
12 12 30
12 12 30
12 12 30
12 12 30
12 12 30
12 12 30
12 12 30
12 12 30
12 12 30
12 12 30
12 12 30
12 12 30
12 12 30
12 12 30
12 12 30
12 12 30
12 12 30
12 12 30
12 12 30
12 12 30
12 12 30
12 12 30
12 12 30
12 12 30
12 12 30
12 12 30
12 12 30
12 12 30
12 12 30
12 12 30
12 12 30
12 12 30
12 12 30
12 12 30
12 12 30
12 12 30
12 12 30
12 12 30
12 12 30
12 12 30
12 12 30
12 12 30
12 12 30
12 12 30
12 12 30
12 12 30
12 12 30
12 12 30
12 12 30
12 12 30
12 12 30
12 12 30
12 12 30
12 12 30
12 12 30
12 12 30
12 12 30
12 12 30
12 12 30
12 12 30
12 12 30
12 12 30
12 12 30
12 12 30
12 12 30
12 12 30
12 12 30
12 12 30
12 12 30
12 12 30
12 12 30
12 12 30
12 12 30
12 12 30
12 12 30
12 12 30
12 12 30
12 12 30
12 12 30
12 12 30
12 12 30
12 12 30
12 12 30
12 12 30
12 12 30
12 12 30
12 12 30
12 12 30
12 12 30
12 12 30
12 12 30
12 12 30
12 12 30
12 12 30
12 12 30
12 12 30
12 12 30
12 12 30
12 12 30
12 12 30
12 12 30
12 12 30
12 12 30
12 12 30
12 12 30
12 12 30
12 12 30
12 12 30
12 12 30
12 12 30
12 12 30
12 12 30
12 12 30
12 12 30
12 12 30
12 12 30
12 12 30
12 12 30
12 12 30
12 12 30
12 12 30
12 12 30
12 12 30
12 12 30
12 12 30
12 12 30
12 12 30
12 12 30
12 12 30
12 12 30
12 12 30
12 12 30
12 12 30
12 12 30
12 12 30
12 12 30
12 12 30
12 12 30
12 12 30
12 12 30
12 12 30
12 12 30
12 12 30
12 12 30
12 12 30
12 12 30
12 12 30
12 12 30
12 12 30
12 12 30
12 12 30
12 12 30
12 12 30
12 12 30
12 12 30
12 12 30
12 12 30
12 12 30
12 12 30
12 12 30
12 12 30
12 12 30
12 12 30
12 12 30
12 12 30
12 12 30
12 12 30
12 12 30
12 12 30
12 12 30
12 12 30
12 12 30
12 12 30
12 12 30
12 12 30
12 12 30
12 12 30
12 12 30
12 12 30
12 12 30
12 12 30
12 12 30
12 12 30
12 12 30
12 12 30
12 12 30
12 12 30
12 12 30
12 12 30
12 12 30
12 12 30
12 12 30
12 12 30
12 12 30
12 12 30
12 12 30
12 12 30
12 12 30
12 12 30
12 12 30
12 12 30
12 12 30
12 12 30
12 12 30
12 12 30
12 12 30
12 12 30
12 12 30
12 12 30
12 12 30
12 12 30
12 12 30
12 12 30
12 12 30
12 12 30
12 12 30
12 12 30
12 12 30
12 12 30
12 12 30
12 12 30
12 12 30
12 12 30
12 12 30
12 12 30
12 12 30
12 12 30
12 12 30
12 12 30
12 12 30
12 12 30
12 12 30
12 12 30
12 12 30
12 12 30
12 12 30
12 12 30
12 12 30
12 12 30
12 12 30
12 12 30
12 12 30
12 12 30
12 12 30
12 12 30
12 12 30
12 12 30
12 12 30
12 12 30
12 12 30
12 12 30
12 12 30
12 12 30
12 12 30
12 12 30
12 12 30
12 12 30
12 12 30
12 12 30
12 12 30
12 12 30
12 12 30
12 12 30
12 12 30
12 12 30
12 12 30
12 12 30
12 12 30
12 12 30
12 12 30
12 12 30
12 12 30
12 12 30
12 12 30
12 12 30
12 12 30
12 12 30
12 12 30
12 12 30
12 12 30
12 12 30
12 12 30
12 12 30
12 12 30
12 12 30
12 12 30
12 12 30
12 12 30
12 12 30
12 12 30
12 12 30
12 12 30
12 12 30
12 12 30
12 12 30
12 12 30
12 12 30
12 12 30
12 12 30
12 12 30
12 12 30
12 12 30
12 12 30
12 12 30
12 12 30
12 12 30
12 12 30
12 12 30
12 12 30
12 12 30
12 12 30
12 12 30
12 12 30
12 12 30
12 12 30
12 12 30
12 12 30
12 12 30
12 12 30
12 12 30
12 12 30
12 12 30
12 12 30
12 12 30
12 12 30
12 12 30
12 12 30
12 12 30
12 12 30
12 12 30
12 12 30
12 12 30
12 12 30
12 12 30
12 12 30
12 12 30
12 12 30
12 12 30
12 12 30
12 12 30
12 12 30
12 12 30
12 12 30
12 12 30
12 12 30
12 12 30
12 12 30
12 12 30
12 12 30
12 12 30
12 12 30
12 12 30
12 12 30
12 12 30
12 12 30
12 12 30
12 12 30
12 12 30
12 12 30
12 12 30
12 12 30
12 12 30
12 12 30
12 12 30
12 12 30
12 12 30
12 12 30
12 12 30
12 12 30
12 12 30
12 12 30
12 12 30
12 12 30
12 12 30
12 12 30
12 12 30
12 12 30
12 12 30
12 12 30
12 12 30
12 12 30
12 12 30
12 12 30
12 12 30
12 12 30
12 12 30
12 12 30
12 12 30
12 12 30
12 12 30
12 12 30
12 12 30
12 12 30
12 12 30
12 12 30
12 12 30
12 12 30
12 12 30
12 12 30
12 12 30
12 12 30
12 12 30
12 12 30
12 12 30
12 12 30
12 12 30
12 12 30
12 12 30
12 12 30
12 12 30
12 12 30
12 12 30
12 12 30
12 12 30
12 12 30
12 12 30
12 12 30
12 12 30
12 12 30
12 12 30
12 12 30
12 12 30
12 12 30
12 12 30
12 12 30
12 12 30
12 12 30
12 12 30
12 12 30
12 12 30
12 12 30
12 12 30
12 12 30
12 12 30
12 12 30
12 12 30
12 12 30
12 12 30
12 12 30
12 12 30
12 12 30
12 12 30
12 12 30
12 12 30
12 12 30
12 12 30
12 12 30
12 12 30
12 12 30
12 12 30
12 12 30
12 12 30
12 12 30
12 12 30
12 12 30
12 12 30
12 12 30
12 12 30
12 12 30
12 12 30
12 12 30
12 12 30
12 12 30
12 12 30
12 12 30
12 12 30
12 12 30
12 12 30
12 12 30
12 12 30
12 12 30
12 12 30
12 12 30
12 12 30
12 12 30
12 12 30
12 12 30
12 12 30
12 12 30
12 12 30
12 12 30
12 12 30
12 12 30
12 12 30
12 12 30
12 12 30
12 12 30
12 12 30
12 12 30
12 12 30
12 12 30
12 12 30
12 12 30
12 12 30
12 12 30
12 12 30
12 12 30
12 12 30
12 12 30
12 12 30
12 12 30
12 12 30
12 12 30
12 12 30
12 12 30
12 12 30
12 12 30
12 12 30
12 12 30
12 12 30
12 12 30
12 12 30
12 12 30
12 12 30
12 12 30
12 12 30
12 12 30
12 12 30
12 12 30
12 12 30
12 12 30
12 12 30
12 12 30
12 12 30
12 12 30
12 12 30
12 12 30
12 12 30
12 12 30
12 12 30
12 12 30
12 12 30
12 12 30
12 12 30
12 12 30
12 12 30
12 12 30
12 12 30
12 12 30
12 12 30
12 12 30
12 12 30
12 12 30
12 12 30
12 12 30
12 12 30
12 12 30
12 12 30
12 12 30
12 12 30
12 12 30
12 12 30
12 12 30
12 12 30
12 12 30
12 12 30
12 12 30
12 12 30
12 12 30
12 12 30
12 12 30
12 12 30
12 12 30
12 12 30
12 12 30
12 12 30
12 12 30
12 12 30
12 12 30
12 12 30
12 12 30
12 12 30
12 12 30
12 12 30
12 12 30
12 12 30
12 12 30
12 12 30
12 12 30
12 12 30
12 12 30
12 12 30
12 12 30
12 12 30
12 12 30
12 12 30
12 12 30
12 12 30
12 12 30
12 12 30
12 12 30
12 12 30
12 12 30
12 12 30
12 12 30
12 12 30
12 12 30
12 12 30
12 12 30
12 12 30
12 12 30
12 12 30
12 12 30
12 12 30
12 12 30
12 12 30
12 12 30
12 12 30
12 12 30
12 12 30
12 12 30
12 12 30
12 12 30
12 12 30
12 12 30
12 12 30
12 12 30
12 12 30
12 12 30
12 12 30
12 12 30
12 12 30
12 12 30
12 12 30
12 12 30
12 12 30
12 12 30
12 12 30
12 12 30
12 12 30
12 12 30
12 12 30
12 12 30
12 12 30
12 12 30
12 12 30
12 12 30
12 12 30
12 12 30
12 12 30
12 12 30
12 12 30
12 12 30
12 12 30
12 12 30
12 12 30
12 12 30
12 12 30
12 12 30
12 12 30
12 12 30
12 12 30
12 12 30
12 12 30
12 12 30
12 12 30
12 12 30
12 12 30
12 12 30
12 12 30
12 12 30
12 12 30
12 12 30
12 12 30
12 12 30
12 12 30
12 12 30
12 12 30
12 12 30
12 12 30
12 12 30
12 12 30
12 12 30
12 12 30
12 12 30
12 12 30
12 12 30
12 12 30
12 12 30
12 12 30
12 12 30
12 12 30
12 12 30
12 12 30
12 12 30
12 12 30
12 12 30
12 12 30
12 12 30
12 12 30
12 12 30
12 12 30
12 12 30
12 12 30
12 12 30
12 12 30
12 12 30
12 12 30
12 12 30
12 12 30
12 12 30
12 12 30
12 12 30
12 12 30
12 12 30
12 12 30
12 12 30
12 12 30
12 12 30
12 12 30
12 12 30
12 12 30
12 12 30
12 12 30
12 12 30
12 12 30
12 12 30
12 12 30
12 12 30
12 12 30
12 12 30
12 12 30
12 12 30
12 12 30
12 12 30
12 12 30
12 12 30
12 12 30
12 12 30
12 12 30
12 12 30
12 12 30
12 12 30
12 12 30
12 12 30
12 12 30
12 12 30
12 12 30
12 12 30
12 12 30
12 12 30
12 12 30
12 12 30
12 12 30
12 12 30
12 12 30
12 12 30
12 12 30
12 12 30
12 12 30
12 12 30
12 12 30
12 12 30
12 12 30
12 12 30
12 12 30
12 12 30
12 12 30
12 12 30
12 12 30
12 12 30
12 12 30
12 12 30
12 12 30
12 12 30
12 12 30
12 12 30
12 12 30
12 12 30
12 12 30
12 12 30
12 12 30
12 12 30
12 12 30
12 12 30
12 12 30
12 12 30
12 12 30
12 12 30
12 12 30
12 12 30
12 12 30
12 12 30
12 12 30
12 12 30
12 12 30
12 12 30
12 12 30
12 12 30
12 12 30
12 12 30
12 12 30
12 12 30
12 12 30
12 12 30
12 12 30
12 12 30
12 12 30
12 12 30
12 12 30
12 12 30
12 12 30
12 12 30
12 12 30
12 12 30
12 12 30
12 12 30
12 12 30
12 12 30
12 12 30
12 12 30
12 12 30
12 12 30
12 12 30
12 12 30
12 12 30
12 12 30
12 12 30
12 12 30
12 12 30
12 12 30
12 12 30
12 12 30
12 12 30
12 12 30
12 12 30
12 12 30
12 12 30
12 12 30
12 12 30
12 12 30
12 12 30
12 12 30
12 12 30
12 12 30
12 12 30
12 12 30
12 12 30
12 12 30
12 12 30
12 12 30
12 12 30
12 12 30
12 12 30
12 12 30
12 12 30
12 12 30
12 12 30
12 12 30
12 12 30
12 12 30
12 12 30
12 12 30
12 12 30
12 12 30
12 12 30
12 12 30
12 12 30
12 12 30
12 12 30
12 12 30
12 12 30
12 12 30
12 12 30
12 12 30
12 12 30
12 12 30
12 12 30
12 12 30
12 12 30
12 12 30
12 12 30
12 12 30
12 12 30
12 12 30
12 12 30
12 12 30
12 12 30
12 12 30
12 12 30
12 12 30
12 12 30
12 12 30
12 12 30
12 12 30
12 12 30
12 12 30
12 12 30
12 12 30
12 12 30
12 12 30
12 12 30
12 12 30
12 12 30
12 12 30
12 12 30
12 12 30
12 12 30
12 12 30
12 12 30
12 12 30
12 12 30
12 12 30
12 12 30
12 12 30
12 12 30
12 12 30
12 12 30
12 12 30
12 12 30
12 12 30
12 12 30
12 12 30
12 12 30
12 12 30
12 12 30
12 12 30
12 12 30
12 12 30
12 12 30
12 12 30
12 12 30
12 12 30
12 12 30
12 12 30
12 12 30
12 12 30
12 12 30
12 12 30
12 12 30
12 12 30
12 12 30
12 12 30
12 12 30
12 12 30
12 12 30
12 12 30
12 12 30
12 12 30
12 12 30
12 12 30
12 12 30
12 12 30
12 12 30
12 12 30
12 12 30
12 12 30
12 12 30
12 12 30
12 12 30
12 12 30
12 12 30
12 12 30
12 12 30
12 12 30
12 12 30
12 12 30
12 12 30
12 12 30
12 12 30
12 12 30
12 12 30
12 12 30
12 12 30
12 12 30
12 12 30
12 12 30
12 12 30
12 12 30
12 12 30
12 12 30
12 12 30
12 12 30
12 12 30
12 12 30
12 12 30
12 12 30
12 12 30
12 12 30
12 12 30
12 12 30
12 12 30
12 12 30
12 12 30
12 12 30
12 12 30
12 12 30
12 12 30
12 12 30
12 12 30
12 12 30
12 12 30
12 12 30
12 12 30
12 12 30
12 12 30
12 12 30
12 12 30
12 12 30
12 12 30
12 12 30
12 12 30
12 12 30
12 12 30
12 12 30
12 12 30
12 12 30
12 12 30
12 12 30
12 12 30
12 12 30
12 12 30
12 12 30
12 12 30
12 12 30
12 12 30
12 12 30
12 12 30
12 12 30
12 12 30
12 12 30
12 12 30
12 12 30
12 12 30
12 12 30
12 12 30
12 12 30
12 12 30
12 12 30
12 12 30
12 12 30
12 12 30
12 12 30
12 12 30
12 12 30
12 12 30
12 12 30
12 12 30
12 12 30
12 12 30
12 12 30
12 12 30
12 12 30
12 12 30
12 12 30
12 12 30
12 12 30
12 12 30
12 12 30
12 12 30
12 12 30
12 12 30
12 12 30
12 12 30
12 12 30
12 12 30
12 12 30
12 12 30
12 12 30
12 12 30
12 12 30
12 12 30
12 12 30
12 12 30
12 12 30
12 12 30
12 12 30
12 12 30
12 12 30
12 12 30
12 12 30
12 12 30
12 12 30
12 12 30
12 12 30
12 12 30
12 12 30
12 12 30
12 12 30
12 12 30
12 12 30
12 12 30
12 12 30
12 12 30
12 12 30
12 12 30
12 12 30
12 12 30
12 12 30
12 12 30
12 12 30
12 12 30
12 12 30
12 12 30
12 12 30
12 12 30
12 12 30
12 12 30
12 12 30
12 12 30
12 12 30
12 12 30
12 12 30
12 12 30
12 12 30
12 12 30
12 12 30
12 12 30
12 12 30
12 12 30
12 12 30
12 12 30
12 12 30
12 12 30
12 12 30
12 12 30
12 12 30
12 12 30
12 12 30
12 12 30
12 12 30
12 12 30
12 12 30
12 12 30
12 12 30
12 12 30
12 12 30
12 12 30
12 12 30
12 12 30
12 12 30
12 12 30
12 12 30
12 12 30
12 12 30
12 12 30
12 12 30
12 12 30
12 12 30
12 12 30
12 12 30
12 12 30
12 12 30
12 12 30
12 12 30
12 12 30
12 12 30
12 12 30
12 12 30
12 12 30
12 12 30
12 12 30
12 12 30
12 12 30
12 12 30
12 12 30
12 12 30
12 12 30
12 12 30
12 12 30
12 12 30
12 12 30
12 12 30
12 12 30
12 12 30
12 12 30
12 12 30
12 12 30
12 12 30
12 12 30
12 12 30
12 12 30
12 12 30
12 12 30
12 12 30
12 12 30
12 12 30
12 12 30
12 12 30
12 12 30
12 12 30
12 12 30
12 12 30
12 12 30
12 12 30
12 12 30
12 12 30
12 12 30
12 12 30
12 12 30
12 12 30
12 12 30
12 12 30
12 12 30
12 12 30
12 12 30
12 12 30
12 12 30
12 12 30
12 12 30
12 12 30
12 12 30
12 12 30
12 12 30
12 12 30
12 12 30
12 12 30
12 12 30
12 12 30
12 12 30
12 12 30
12 12 30
12 12 30
12 12 30
12 12 30
12 12 30
12 12 30
12 12 30
12 12 30
12 12 30
12 12 30
12 12 30
12 12 30
12 12 30
12 12 30
12 12 30
12 12 30
12 12 30
12 12 30
12 12 30
12 12 30
12 12 30
12 12 30
12 12 30
12 12 30
12 12 30
12 12 30
12 12 30
12 12 30
12 12 30
12 12 30
12 12 30
12 12 30
12 12 30
12 12 30
12 12 30
12 12 30
12 12 30
12 12 30
12 12 30
12 12 30
12 12 30
12 12 30
12 12 30
12 12 30
12 12 30
12 12 30
12 12 30
12 12 30
12 12 30
12 12 30
12 12 30
12 12 30
12 12 30
12 12 30
12 12 30
12 12 30
12 12 30
12 12 30
12 12 30
12 12 30
12 12 30
12 12 30
12 12 30
12 12 30
12 12 30
12 12 30
12 12 30
12 12 30
12 12 30
12 12 30
12 12 30
12 12 30
12 12 30
12 12 30
12 12 30
12 12 30
12 12 30
12 12 30
12 12 30
12 12 30
12 12 30
12 12 30
12 12 30
12 12 30
12 12 30
12 12 30
12 12 30
12 12 30
12 12 30
12 12 30
12 12 30
12 12 30
12 12 30
12 12 30
12 12 30
12 12 30
12 12 30
12 12 30
12 12 30
12 12 30
12 12 30
12 12 30
12 12 30
12 12 30
12 12 30
12 12 30
12 12 30
12 12 30
12 12 30
12 12 30
12 12 30
12 12 30
12 12 30
12 12 30
12 12 30
12 12 30
12 12 30
12 12 30
12 12 30
12 12 30
12 12 30
12 12 30
12 12 30
12 12 30
12 12 30
12 12 30
12 12 30
12 12 30
12 12 30
12 12 30
12 12 30
12 12 30
12 12 30
12 12 30
12 12 30
12 12 30
12 12 30
12 12 30
12 12 30
12 12 30
12 12 30
12 12 30
12 12 30
12 12 30
12 12 30
12 12 30
12 12 30
12 12 30
12 12 30
12 12 30
12 12 30
12 12 30
12 12 30
12 12 30
12 12 30
12 12 30
12 12 30
12 12 30
12 12 30
12 12 30
12 12 30
12 12 30
12 12 30
12 12 30
12 12 30
12 12 30
12 12 30
12 12 30
12 12 30
12 12 30
12 12 30
12 12 30
12 12 30
12 12 30
12 12 30
12 12 30
12 12 30
12 12 30
12 12 30
12 12 30
12 12 30
12 12 30
12 12 30
12 12 30
12 12 30
12 12 30
12 12 30
12 12 30
12 12 30
12 12 30
12 12 30
12 12 30
12 12 30
12 12 30
12 12 30
12 12 30
12 12 30
12 12 30
12 12 30
12 12 30
12 12 30
12 12 30
12 12 30
12 12 30
12 12 30
12 12 30
12 12 30
12 12 30
12 12 30
12 12 30
12 12 30
12 12 30
12 12 30
12 12 30
12 12 30
12 12 30
12 12 30
12 12 30
12 12 30
12 12 30
12 12 30
12 12 30
12 12 30
12 12 30
12 12 30
12 12 30
12 12 30
12 12 30
12 12 30
12 12 30
12 12 30
12 12 30
12 12 30
12 12 30
12 12 30
12 12 30
12 12 30
12 12 30
12 12 30
12 12 30
12 12 30
12 12 30
12 12 30
12 12 30
12 12 30
12 12 30
12 12 30
12 12 30
12 12 30
12 12 30
12 12 30
12 12 30
12 12 30
12 12 30
12 12 30
12 12 30
12 12 30
12 12 30
12 12 30
12 12 30
12 12 30
12 12 30
12 12 30
12 12 30
12 12 30
12 12 30
12 12 30
12 12 30
12 12 30
12 12 30
12 12 30
12 12 30
12 12 30
12 12 30
12 12 30
12 12 30
12 12 30
12 12 30
12 12 30
12 12 30
12 12 30
12 12 30
12 12 30
12 12 30
12 12 30
12 12 30
12 12 30
12 12 30
12 12 30
12 12 30
12 12 30
12 12 30
12 12 30
12 12 30
12 12 30
12 12 30
12 12 30
12 12 30
12 12 30
12 12 30
12 12 30
12 12 30
12 12 30
12 12 30
12 12 30
12 12 30
12 12 30
12 12 30
12 12 30
12 12 30
12 12 30
12 12 30
12 12 30
12 12 30
12 12 30
12 12 30
12 12 30
12 12 30
12 12 30
12 12 30
12 12 30
12 12 30
12 12 30
12 12 30
12 12 30
12 12 30
12 12 30
12 12 30
12 12 30
12 12 30
12 12 30
12 12 30
12 12 30
12 12 30
12 12 30
12 12 30
12 12 30
12 12 30
12 12 30
12 12 30
12 12 30
12 12 30
12 12 30
12 12 30
12 12 30
12 12 30
12 12 30
12 12 30
12 12 30
12 12 30
12 12 30
12 12 30
12 12 30
12 12 30
12 12 30
12 12 30
12 12 30
12 12 30
12 12 30
12 12 30
12 12 30
12 12 30
12 12 30
12 12 30
12 12 30
12 12 30
12 12 30
12 12 30
12 12 30
12 12 30
12 12 30
12 12 30
12 12 30
12 12 30
12 12 30
12 12 30
12 12 30
12 12 30
12 12 30
12 12 30
12 12 30
12 12 30
12 12 30
12 12 30
12 12 30
12 12 30
12 12 30
12 12 30
12 12 30
12 12 30
12 12 30
12 12 30
12 12 30
12 12 30
12 12 30
12 12 30
12 12 30
12 12 30
12 12 30
12 12 30
12 12 30
12 12 30
12 12 30
12 12 30
12 12 30
12 12 30
12 12 30
12 12 30
12 12 30
12 12 30
12 12 30
12 12 30
12 12 30
12 12 30
12 12 30
12 12 30
12 12 30
12 12 30
12 12 30
12 12 30
12 12 30
12 12 30
12 12 30
12 12 30
12 12 30
12 12 30
12 12 30
12 12 30
12 12 30
12 12 30
12 12 30
12 12 30
12 12 30
12 12 30
12 12 30
12 12 30
12 12 30
12 12 30
12 12 30
12 12 30
12 12 30
12 12 30
12 12 30
12 12 30
12 12 30
12 12 30
12 12 30
12 12 30
12 12 30
12 12 30
12 12 30
12 12 30
12 12 30
12 12 30
12 12 30
12 12 30
12 12 30
12 12 30
12 12 30
12 12 30
12 12 30
12 12 30
12 12 30
12 12 30
12 12 30
12 12 30
12 12 30
12 12 30
12 12 30
12 12 30
12 12 30
12 12 30
12 12 30
12 12 30
12 12 30
12 12 30
12 12 30
12 12 30
12 12 30
12 12 30
12 12 30
12 12 30
12 12 30
12 12 30
12 12 30
12 12 30
12 12 30
12 12 30
12 12 30
12 12 30
12 12 30
12 12 30
12 12 30
12 12 30
12 12 30
12 12 30
12 12 30
12 12 30
12 12 30
12 12 30
12 12 30
12 12 30
12 12 30
12 12 30
12 12 30
12 12 30
12 12 30
12 12 30
12 12 30
12 12 30
12 12 30
12 12 30
12 12 30
12 12 30
12 12 30
12 12 30
12 12 30
12 12 30
12 12 30
12 12 30
12 12 30
12 12 30
12 12 30
12 12 30
12 12 30
12 12 30
12 12 30
12 12 30
12 12 30
12 12 30
12 12 30
12 12 30
12 12 30
12 12 30
12 12 30
12 12 30
12 12 30
12 12 30
12 12 30
12 12 30
12 12 30
12 12 30
12 12 30
12 12 30
12 12 30
12 12 30
12 12 30
12 12 30
12 12 30
12 12 30
12 12 30
12 12 30
12 12 30
12 12 30
12 12 30
12 12 30
12 12 30
12 12 30
12 12 30
12 12 30
12 12 30
12 12 30
12 12 30
12 12 30
12 12 30
12 12 30
12 12 30
12 12 30
12 12 30
12 12 30
12 12 30
12 12 30
12 12 30
12 12 30
12 12 30
12 12 30
12 12 30
12 12 30
12 12 30
12 12 30
12 12 30
12 12 30
12 12 30
12 12 30
12 12 30
12 12 30
12 12 30
12 12 30
12 12 30
12 12 30
12 12 30
12 12 30
12 12 30
12 12 30
12 12 30
12 12 30
12 12 30
12 12 30
12 12 30
12 12 30
12 12 30
12 12 30
12 12 30
12 12 30
12 12 30
12 12 30
12 12 30
12 12 30
12 12 30
12 12 30
12 12 30
12 12 30
12 12 30
12 12 30
12 12 30
12 12 30
12 12 30
12 12 30
12 12 30
12 12 30
12 12 30
12 12 30
12 12 30
12 12 30
12 12 30
12 12 30
12 12 30
12 12 30
12 12 30
12 12 30
12 12 30
12 12 30
12 12 30
12 12 30
12 12 30
12 12 30
12 12 30
12 12 30
12 12 30
12 12 30
12 12 30
12 12 30
12 12 30
12 12 30
12 12 30
12 12 30
12 12 30
12 12 30
12 12 30
12 12 30
12 12 30
12 12 30
12 12 30
12 12 30
12 12 30
12 12 30
12 12 30
12 12 30
12 12 30
12 12 30
12 12 30
12 12 30
12 12 30
12 12 30
12 12 30
12 12 30
12 12 30
12 12 30
12 12 30
12 12 30
12 12 30
12 12 30
12 12 30
12 12 30
12 12 30
12 12 30
12 12 30
12 12 30
12 12 30
12 12 30
12 12 30
12 12 30
12 12 30
12 12 30
12 12 30
12 12 30
12 12 30
12 12 30
12 12 30
12 12 30
12 12 30
12 12 30
12 12 30
12 12 30
12 12 30
12 12 30
12 12 30
12 12 30
12 12 30
12 12 30
12 12 30
12 12 30
12 12 30
12 12 30
12 12 30
12 12 30
12 12 30
12 12 30
12 12 30
12 12 30
12 12 30
12 12 30
12 12 30
12 12 30
12 12 30
12 12 30
12 12 30
12 12 30
12 12 30
12 12 30
12 12 30
12 12 30
12 12 30
12 12 30
12 12 30
12 12 30
12 12 30
12 12 30
12 12 30
12 12 30
12 12 30
12 12 30
12 12 30
12 12 30
12 12 30
12 12 30
12 12 30
12 12 30
12 12 30
12 12 30
12 12 30
12 12 30
12 12 30
12 12 30
12 12 30
12 12 30
12 12 30
12 12 30
12 12 30
12 12 30
12 12 30
12 12 30
12 12 30
12 12 30
12 12 30
12 12 30
12 12 30
12 12 30
12 12 30
12 12 30
12 12 30
12 12 30
12 12 30
12 12 30
12 12 30
12 12 30
12 12 30
12 12 30
12 12 30
12 12 30
12 12 30
12 12 30
12 12 30
12 12 30
12 12 30
12 12 30
12 12 30
12 12 30
12 12 30
12 12 30
12 12 30
12 12 30
12 12 30
12 12 30
12 12 30
12 12 30
12 12 30
12 12 30
12 12 30
12 12 30
12 12 30
12 12 30
12 12 30
12 12 30
12 12 30
12 12 30
12 12 30
12 12 30
12 12 30
12 12 30
12 12 30
12 12 30
12 12 30
12 12 30
12 12 30
12 12 30
12 12 30
12 12 30
12 12 30
12 12 30
12 12 30
12 12 30
12 12 30
12 12 30
12 12 30
12 12 30
12 12 30
12 12 30
12 12 30
12 12 30
12 12 30
12 12 30
12 12 30
12 12 30
12 12 30
12 12 30
12 12 30
12 12 30
12 12 30
12 12 30
12 12 30
12 12 30
12 12 30
12 12 30
12 12 30
12 12 30
12 12 30
12 12 30
12 12 30
12 12 30
12 12 30
12 12 30
12 12 30
12 12 30
12 12 30
12 12 30
12 12 30
12 12 30
12 12 30
12 12 30
12 12 30
12 12 30
12 12 30
12 12 30
12 12 30
12 12 30
12 12 30
12 12 30
12 12 30
12 12 30
12 12 30
12 12 30
12 12 30
12 12 30
12 12 30
12 12 30
12 12 30
12 12 30
12 12 30
12 12 30
12 12 30
12 12 30
12 12 30
12 12 30
12 12 30
12 12 30
12 12 30
12 12 30
12 12 30
12 12 30
12 12 30
12 12 30
12 12 30
12 12 30
12 12 30
12 12 30
12 12 30
12 12 30
12 12 30
12 12 30
12 12 30
12 12 30
12 12 30
12 12 30
12 12 30
12 12 30
12 12 30
12 12 30
12 12 30
12 12 30
12 12 30
12 12 30
12 12 30
12 12 30
12 12 30
12 12 30
12 12 30
12 12 30
12 12 30
12 12 30
12 12 30
12 12 30
12 12 30
12 12 30
12 12 30
12 12 30
12 12 30
12 12 30
12 12 30
12 12 30
12 12 30
12 12 30
12 12 30
12 12 30
12 12 30
12 12 30
12 12 30
12 12 30
12 12 30
12 12 30
12 12 30
12 12 30
12 12 30
12 12 30
12 12 30
12 12 30
12 12 30
12 12 30
12 12 30
12 12 30
12 12 30
12 12 30
12 12 30
12 12 30
12 12 30
12 12 30
12 12 30
12 12 30
12 12 30
12 12 30
12 12 30
12 12 30
12 12 30
12 12 30
12 12 30
12 12 30
12 12 30
12 12 30
12 12 30
12 12 30
12 12 30
12 12 30
12 12 30
12 12 30
12 12 30
12 12 30
12 12 30
12 12 30
12 12 30
12 12 30
12 12 30
12 12 30
12 12 30
12 12 30
12 12 30
12 12 30
12 12 30
12 12 30
12 12 30
12 12 30
12 12 30
12 12 30
12 12 30
12 12 30
12 12 30
12 12 30
12 12 30
12 12 30
12 12 30
12 12 30
12 12 30
12 12 30
12 12 30
12 12 30
12 12 30
12 12 30
12 12 30
12 12 30
12 12 30
12 12 30
12 12 30
12 12 30
12 12 30
12 12 30
12 12 30
12 12 30
12 12 30
12 12 30
12 12 30
12 12 30
12 12 30
12 12 30
12 12 30
12 12 30
12 12 30
12 12 30
12 12 30
12 12 30
12 12 30
12 12 30
12 12 30
12 12 30
12 12 30
12 12 30
12 12 30
12 12 30
12 12 30
12 12 30
12 12 30
12 12 30
12 12 30
12 12 30
12 12 30
12 12 30
12 12 30
12 12 30
12 12 30
12 12 30
12 12 30
12 12 30
12 12 30
12 12 30
12 12 30
12 12 30
12 12 30
12 12 30
12 12 30
12 12 30
12 12 30
12 12 30
12 12 30
12 12 30
12 12 30
12 12 30
12 12 30
12 12 30
12 12 30
12 12 30
12 12 30
12 12 30
12 12 30
12 12 30
12 12 30
12 12 30
12 12 30
12 12 30
12 12 30
12 12 30
12 12 30
12 12 30
12 12 30
12 12 30
12 12 30
12 12 30
12 12 30
12 12 30
12 12 30
12 12 30
12 12 30
12 12 30
12 12 30
12 12 30
12 12 30
12 12 30
12 12 30
12 12 30
12 12 30
12 12 30
12 12 30
12 12 30
12 12 30
12 12 30
12 12 30
12 12 30
12 12 30
12 12 30
12 12 30
12 12 30
12 12 30
12 12 30
12 12 30
12 12 30
12 12 30
12 12 30
12 12 30
12 12 30
12 12 30
12 12 30
12 12 30
12 12 30
12 12 30
12 12 30
12 12 30
12 12 30
12 12 30
12 12 30
12 12 30
12 12 30
12 12 30
12 12 30
12 12 30
12 12 30
12 12 30
12 12 30
12 12 30
12 12 30
12 12 30
12 12 30
12 12 30
12 12 30
12 12 30
12 12 30
12 12 30
12 12 30
12 12 30
12 12 30
12 12 30
12 12 30
12 12 30
12 12 30
12 12 30
12 12 30
12 12 30
12 12 30
12 12 30
12 12 30
12 12 30
12 12 30
12 12 30
12 12 30
12 12 30
12 12 30
12 12 30
12 12 30
12 12 30
12 12 30
12 12 30
12 12 30
12 12 30
12 12 30
12 12 30
12 12 30
12 12 30
12 12 30
12 12 30
12 12 30
12 12 30
12 12 30
12 12 30
12 12 30
12 12 30
12 12 30
12 12 30
12 12 30
12 12 30
12 12 30
12 12 30
12 12 30
12 12 30
12 12 30
12 12 30
12 12 30
12 12 30
12 12 30
12 12 30
12 12 30
12 12 30
12 12 30
12 12 30
12 12 30
12 12 30
12 12 30
12 12 30
12 12 30
12 12 30
12 12 30
12 12 30
12 12 30
12 12 30
12 12 30
12 12 30
12 12 30
12 12 30
12 12 30
12 12 30
12 12 30
12 12 30
12 12 30
12 12 30
12 12 30
12 12 30
12 12 30
12 12 30
12 12 30
12 12 30
12 12 30
12 12 30
12 12 30
12 12 30
12 12 30
12 12 30
12 12 30
12 12 30
12 12 30
12 12 30
12 12 30
12 12 30
12 12 30
12 12 30
12 12 30
12 12 30
12 12 30
12 12 30
12 12 30
12 12 30
12 12 30
12 12 30
12 12 30
12 12 30
12 12 30
12 12 30
12 12 30
12 12 30
12 12 30
12 12 30
12 12 30
12 12 30
12 12 30
12 12 30
12 12 30
12 12 30
12 12 30
12 12 30
12 12 30
12 12 30
12 12 30
12 12 30
12 12 30
12 12 30
12 12 30
12 12 30
12 12 30
12 12 30
12 12 30
12 12 30
12 12 30
12 12 30
12 12 30
12 12 30
12 12 30
12 12 30
12 12 30
12 12 30
12 12 30
12 12 30
12 12 30
12 12 30
12 12 30
12 12 30
12 12 30
12 12 30
12 12 30
12 12 30
12 12 30
12 12 30
12 12 30
12 12 30
12 12 30
12 12 30
12 12 30
12 12 30
12 12 30
12 12 30
12 12 30
12 12 30
12 12 30
12 12 30
12 12 30
12 12 30
12 12 30
12 12 30
12 12 30
12 12 30
12 12 30
12 12 30
12 12 30
12 12 30
12 12 30
12 12 30
12 12 30
12 12 30
12 12 30
12 12 30
12 12 30
12 12 30
12 12 30
12 12 30
12 12 30
12 12 30
12 12 30
12 12 30
12 12 30
12 12 30
12 12 30
12 12 30
12 12 30
12 12 30
12 12 30
12 12 30
12 12 30
12 12 30
12 12 30
12 12 30
12 12 30
12 12 30
12 12 30
12 12 30
12 12 30
12 12 30
12 12 30
12 12 30
12 12 30
12 12 30
12 12 30
12 12 30
12 12 30
12 12 30
12 12 30
12 12 30
12 12 30
12 12 30
12 12 30
12 12 30
12 12 30
12 12 30
12 12 30
12 12 30
12 12 30
12 12 30
12 12 30
12 12 30
12 12 30
12 12 30
12 12 30
12 12 30
12 12 30
12 12 30
12 12 30
12 12 30
12 12 30
12 12 30
12 12 30
12 12 30
12 12 30
12 12 30
12 12 30
12 12 30
12 12 30
12 12 30
12 12 30
12 12 30
12 12 30
12 12 30
12 12 30
12 12 30
12 12 30
12 12 30
12 12 30
12 12 30
12 12 30
12 12 30
12 12 30
12 12 30
12 12 30
12 12 30
12 12 30
12 12 30
12 12 30
12 12 30
12 12 30
12 12 30
12 12 30
12 12 30
12 12 30
12 12 30
12 12 30
12 12 30
12 12 30
12 12 30
12 12 30
12 12 30
12 12 30
12 12 30
12 12 30
12 12 30
12 12 30
12 12 30
12 12 30
12 12 30
12 12 30
12 12 30
12 12 30
12 12 30
12 12 30
12 12 30
12 12 30
12 12 30
12 12 30
12 12 30
12 12 30
12 12 30
12 12 30
12 12 30
12 12 30
12 12 30
12 12 30
12 12 30
12 12 30
12 12 30
12 12 30
12 12 30
12 12 30
12 12 30
12 12 30
12 12 30
12 12 30
12 12 30
12 12 30
12 12 30
12 12 30
12 12 30
12 12 30
12 12 30
12 12 30
12 12 30
12 12 30
12 12 30
12 12 30
12 12 30
12 12 30
12 12 30
12 12 30
12 12 30
12 12 30
12 12 30
12 12 30
12 12 30
12 12 30
12 12 30
12 12 30
12 12 30
12 12 30
12 12 30
12 12 30
12 12 30
12 12 30
12 12 30
12 12 30
12 12 30
12 12 30
12 12 30
12 12 30
12 12 30
12 12 30
12 12 30
12 12 30
12 12 30
12 12 30
12 12 30
12 12 30
12 12 30
12 12 30
12 12 30
12 12 30
12 12 30
12 12 30
12 12 30
12 12 30
12 12 30
12 12 30
12 12 30
12 12 30
12 12 30
12 12 30
12 12 30
12 12 30
12 12 30
12 12 30
12 12 30
12 12 30
12 12 30
12 12 30
12 12 30
12 12 30
12 12 30
12 12 30
12 12 30
12 12 30
12 12 30
12 12 30
12 12 30
12 12 30
12 12 30
12 12 30
12 12 30
12 12 30
12 12 30
12 12 30
12 12 30
12 12 30
12 12 30
12 12 30
12 12 30
12 12 30
12 12 30
12 12 30
12 12 30
12 12 30
12 12 30
12 12 30
12 12 30
12 12 30
12 12 30
12 12 30
12 12 30
12 12 30
12 12 30
12 12 30
12 12 30
12 12 30
12 12 30
12 12 30
12 12 30
12 12 30
12 12 30
12 12 30
12 12 30
12 12 30
12 12 30
12 12 30
12 12 30
12 12 30
12 12 30
12 12 30
12 12 30
12 12 30
12 12 30
12 12 30
12 12 30
12 12 30
12 12 30
12 12 30
12 12 30
12 12 30
12 12 30
12 12 30
12 12 30
12 12 30
12 12 30
12 12 30
12 12 30
12 12 30
12 12 30
12 12 30
12 12 30
12 12 30
12 12 30
12 12 30
12 12 30
12 12 30
12 12 30
12 12 30
12 12 30
12 12 30
12 12 30
12 12 30
12 12 30
12 12 30
12 12 30
12 12 30
12 12 30
12 12 30
12 12 30
12 12 30
12 12 30
12 12 30
12 12 30
12 12 30
12 12 30
12 12 30
12 12 30
12 12 30
12 12 30
12 12 30
12 12 30
12 12 30
12 12 30
12 12 30
12 12 30
12 12 30
12 12 30
12 12 30
12 12 30
12 12 30
12 12 30
12 12 30
12 12 30
12 12 30
12 12 30
12 12 30
12 12 30
12 12 30
12 12 30
12 12 30
12 12 30
12 12 30
12 12 30
12 12 30
12 12 30
12 12 30
12 12 30
12 12 30
12 12 30
12 12 30
12 12 30
12 12 30
12 12 30
12 12 30
12 12 30
12 12 30
12 12 30
12 12 30
12 12 30
12 12 30
12 12 30
12 12 30
12 12 30
12 12 30
12 12 30
12 12 30
12 12 30
12 12 30
12 12 30
12 12 30
12 12 30
12 12 30
12 12 30
12 12 30
12 12 30
12 12 30
12 12 30
12 12 30
12 12 30
12 12 30
12 12 30
12 12 30
12 12 30
12 12 30
12 12 30
12 12 30
12 12 30
12 12 30
12 12 30
12 12 30
12 12 30
12 12 30
12 12 30
12 12 30
12 12 30
12 12 30
12 12 30
12 12 30
12 12 30
12 12 30
12 12 30
12 12 30
12 12 30
12 12 30
12 12 30
12 12 30
12 12 30
12 12 30
12 12 30
12 12 30
12 12 30
12 12 30
12 12 30
12 12 30
12 12 30
12 12 30
12 12 30
12 12 30
12 12 30
12 12 30
12 12 30
12 12 30
12 12 30
12 12 30
12 12 30
12 12 30
12 12 30
12 12 30
12 12 30
12 12 30
12 12 30
12 12 30
12 12 30
12 12 30
12 12 30
12 12 30
12 12 30
12 12 30
12 12 30
12 12 30
12 12 30
12 12 30
12 12 30
12 12 30
12 12 30
12 12 30
12 12 30
12 12 30
12 12 30
12 12 30
12 12 30
12 12 30
12 12 30
12 12 30
12 12 30
12 12 30
12 12 30
12 12 30
12 12 30
12 12 30
12 12 30
12 12 30
12 12 30
12 12 30
12 12 30
12 12 30
12 12 30
12 12 30
12 12 30
12 12 30
12 12 30
12 12 30
12 12 30
12 12 30
12 12 30
12 12 30
12 12 30
12 12 30
12 12 30
12 12 30
12 12 30
12 12 30
12 12 30
12 12 30
12 12 30
12 12 30
12 12 30
12 12 30
12 12 30
12 12 30
12 12 30
12 12 30
12 12 30
12 12 30
12 12 30
12 12 30
12 12 30
12 12 30
12 12 30
12 12 30
12 12 30
12 12 30
12 12 30
12 12 30
12 12 30
12 12 30
12 12 30
12 12 30
12 12 30
12 12 30
12 12 30
12 12 30
12 12 30
12 12 30
12 12 30
12 12 30
12 12 30
12 12 30
12 12 30
12 12 30
12 12 30
12 12 30
12 12 30
12 12 30
12 12 30
12 12 30
12 12 30
12 12 30
12 12 30
12 12 30
12 12 30
12 12 30
12 12 30
12 12 30
12 12 30
12 12 30
12 12 30
12 12 30
12 12 30
12 12 30
12 12 30
12 12 30
12 12 30
12 12 30
12 12 30
12 12 30
12 12 30
12 12 30
12 12 30
12 12 30
12 12 30
12 12 30
12 12 30
12 12 30
12 12 30
12 12 30
12 12 30
12 12 30
12 12 30
12 12 30
12 12 30
12 12 30
12 12 30
12 12 30
12 12 30
12 12 30
12 12 30
12 12 30
12 12 30
12 12 30
12 12 30
12 12 30
12 12 30
12 12 30
12 12 30
12 12 30
12 12 30
12 12 30
12 12 30
12 12 30
12 12 30
12 12 30
12 12 30
12 12 30
12 12 30
12 12 30
12 12 30
12 12 30
12 12 30
12 12 30
12 12 30
12 12 30
12 12 30
12 12 30
12 12 30
12 12 30
12 12 30
12 12 30
12 12 30
12 12 30
12 12 30
12 12 30
12 12 30
12 12 30
12 12 30
12 12 30
12 12 30
12 12 30
12 12 30
12 12 30
12 12 30
12 12 30
12 12 30
12 12 30
12 12 30
12 12 30
12 12 30
12 12 30
12 12 30
12 12 30
12 12 30
12 12 30
12 12 30
12 12 30
12 12 30
12 12 30
12 12 30
12 12 30
12 12 30
12 12 30
12 12 30
12 12 30
12 12 30
12 12 30
12 12 30
12 12 30
12 12 30
12 12 30
12 12 30
12 12 30
12 12 30
12 12 30
12 12 30
12 12 30
12 12 30
12 12 30
12 12 30
12 12 30
12 12 30
12 12 30
12 12 30
12 12 30
12 12 30
12 12 30
12 12 30
12 12 30
12 12 30
12 12 30
12 12 30
12 12 30
12 12 30
12 12 30
12 12 30
12 12 30
12 12 30
12 12 30
12 12 30
12 12 30
12 12 30
12 12 30
12 12 30
12 12 30
12 12 30
12 12 30
12 12 30
12 12 30
12 12 30
12 12 30
12 12 30
12 12 30
12 12 30
12 12 30
12 12 30
12 12 30
12 12 30
12 12 30
12 12 30
12 12 30
12 12 30
12 12 30
12 12 30
12 12 30
12 12 30
12 12 30
12 12 30
12 12 30
12 12 30
12 12 30
12 12 30
12 12 30
12 12 30
12 12 30
12 12 30
12 12 30
12 12 30
12 12 30
12 12 30
12 12 30
12 12 30
12 12 30
12 12 30
12 12 30
12 12 30
12 12 30
12 12 30
12 12 30
12 12 30
12 12 30
12 12 30
12 12 30
12 12 30
12 12 30
12 12 30
12 12 30
12 12 30
12 12 30
12 12 30
12 12 30
12 12 30
12 12 30
12 12 30
12 12 30
12 12 30
12 12 30
12 12 30
12 12 30
12 12 30
12 12 30
12 12 30
12 12 30
12 12 30
12 12 30
12 12 30
12 12 30
12 12 30
12 12 30
12 12 30
12 12 30
12 12 30
12 12 30
12 12 30
12 12 30
12 12 30
12 12 30
12 12 30
12 12 30
12 12 30
12 12 30
12 12 30
12 12 30
12 12 30
12 12 30
12 12 30
12 12 30
12 12 30
12 12 30
12 12 30
12 12 30
12 12 30
12 12 30
12 12 30
12 12 30
12 12 30
12 12 30
12 12 30
12 12 30
12 12 30
12 12 30
12 12 30
12 12 30
12 12 30
12 12 30
12 12 30
12 12 30
12 12 30
12 12 30
12 12 30
12 12 30
12 12 30
12 12 30
12 12 30
12 12 30
12 12 30
12 12 30
12 12 30
12 12 30
12 12 30
12 12 30
12 12 30
12 12 30
12 12 30
12 12 30
12 12 30
12 12 30
12 12 30
12 12 30
12 12 30
12 12 30
12 12 30
12 12 30
12 12 30
12 12 30
12 12 30
12 12 30
12 12 30
12 12 30
12 12 30
12 12 30
12 12 30
12 12 30
12 12 30
12 12 30
12 12 30
12 12 30
12 12 30
12 12 30
12 12 30
12 12 30
12 12 30
12 12 30
12 12 30
12 12 30
12 12 30
12 12 30
12 12 30
12 12 30
12 12 30
12 12 30
12 12 30
12 12 30
12 12 30
12 12 30
12 12 30
12 12 30
12 12 30
12 12 30
12 12 30
12 12 30
12 12 30
12 12 30
12 12 30
12 12 30
12 12 30
12 12 30
12 12 30
12 12 30
12 12 30
12 12 30
12 12 30
12 12 30
12 12 30
12 12 30
12 12 30
12 12 30
12 12 30
12 12 30
12 12 30
12 12 30
12 12 30
12 12 30
12 12 30
12 12 30
12 12 30
12 12 30
12 12 30
12 12 30
12 12 30
12 12 30
12 12 30
12 12 30
12 12 30
12 12 30
12 12 30
12 12 30
12 12 30
12 12 30
12 12 30
12 12 30
12 12 30
12 12 30
12 12 30
12 12 30
12 12 30
12 12 30
12 12 30
12 12 30
12 12 30
12 12 30
12 12 30
12 12 30
12 12 30
12 12 30
12 12 30
12 12 30
12 12 30
12 12 30
12 12 30
12 12 30
12 12 30
12 12 30
12 12 30
12 12 30
12 12 30
12 12 30
12 12 30
12 12 30
12 12 30
12 12 30
12 12 30
12 12 30
12 12 30
12 12 30
12 12 30
12 12 30
12 12 30
12 12 30
12 12 30
12 12 30
12 12 30
12 12 30
12 12 30
12 12 30
12 12 30
12 12 30
12 12 30
12 12 30
12 12 30
12 12 30
12 12 30
12 12 30
12 12 30
12 12 30
12 12 30
12 12 30
12 12 30
12 12 30
12 12 30
12 12 30
12 12 30
12 12 30
12 12 30
12 12 30
12 12 30
12 12 30
12 12 30
12 12 30
12 12 30
12 12 30
12 12 30
12 12 30
12 12 30
12 12 30
12 12 30
12 12 30
12 12 30
12 12 30
12 12 30
12 12 30
12 12 30
12 12 30
12 12 30
12 12 30
12 12 30
12 12 30
12 12 30
12 12 30
12 12 30
12 12 30
12 12 30
12 12 30
12 12 30
12 12 30
12 12 30
12 12 30
12 12 30
12 12 30
12 12 30
12 12 30
12 12 30
12 12 30
12 12 30
12 12 30
12 12 30
12 12 30
12 12 30
12 12 30
12 12 30
12 12 30
12 12 30
12 12 30
12 12 30
12 12 30
12 12 30
12 12 30
12 12 30
12 12 30
12 12 30
12 12 30
12 12 30
12 12 30
12 12 30
12 12 30
12 12 30
12 12 30
12 12 30
12 12 30
12 12 30
12 12 30
12 12 30
12 12 30
12 12 30
12 12 30
12 12 30
12 12 30
12 12 30
12 12 30
12 12 30
12 12 30
12 12 30
12 12 30
12 12 30
12 12 30
12 12 30
12 12 30
12 12 30
12 12 30
12 12 30
12 12 30
12 12 30
12 12 30
12 12 30
12 12 30
12 12 30
12 12 30
12 12 30
12 12 30
12 12 30
12 12 30
12 12 30
12 12 30
12 12 30
12 12 30
12 12 30
12 12 30
12 12 30
12 12 30
12 12 30
12 12 30
12 12 30
12 12 30
12 12 30
12 12 30
12 12 30
12 12 30
12 12 30
12 12 30
12 12 30
12 12 30
12 12 30
12 12 30
12 12 30
12 12 30
12 12 30
12 12 30
12 12 30
12 12 30
12 12 30
12 12 30
12 12 30
12 12 30
12 12 30
12 12 30
12 12 30
12 12 30
12 12 30
12 12 30
12 12 30
12 12 30
12 12 30
12 12 30
12 12 30
12 12 30
12 12 30
12 12 30
12 12 30
12 12 30
12 12 30
12 12 30
12 12 30
12 12 30
12 12 30
12 12 30
12 12 30
12 12 30
12 12 30
12 12 30
12 12 30
12 12 30
12 12 30
12 12 30
12 12 30
12 12 30
12 12 30
12 12 30
12 12 30
12 12 30
12 12 30
12 12 30
12 12 30
12 12 30
12 12 30
12 12 30
12 12 30
12 12 30
12 12 30
12 12 30
12 12 30
12 12 30
12 12 30
12 12 30
12 12 30
12 12 30
12 12 30
12 12 30
12 12 30
12 12 30
12 12 30
12 12 30
12 12 30
12 12 30
12 12 30
12 12 30
12 12 30
12 12 30
12 12 30
12 12 30
12 12 30
12 12 30
12 12 30
12 12 30
12 12 30
12 12 30
12 12 30
12 12 30
12 12 30
12 12 30
12 12 30
12 12 30
12 12 30
12 12 30
12 12 30
12 12 30
12 12 30
12 12 30
12 12 30
12 12 30
12 12 30
12 12 30
12 12 30
12 12 30
12 12 30
12 12 30
12 12 30
12 12 30
12 12 30
12 12 30
12 12 30
12 12 30
12 12 30
12 12 30
12 12 30
12 12 30
12 12 30
12 12 30
12 12 30
12 12 30
12 12 30
12 12 30
12 12 30
12 12 30
12 12 30
12 12 30
12 12 30
12 12 30
12 12 30
12 12 30
12 12 30
12 12 30
12 12 30
12 12 30
12 12 30
12 12 30
12 12 30
12 12 30
12 12 30
12 12 30
12 12 30
12 12 30
12 12 30
12 12 30
12 12 30
12 12 30
12 12 30
12 12 30
12 12 30
12 12 30
12 12 30
12 12 30
12 12 30
12 12 30
12 12 30
12 12 30
12 12 30
12 12 30
12 12 30
12 12 30
12 12 30
12 12 30
12 12 30
12 12 30
12 12 30
12 12 30
12 12 30
12 12 30
12 12 30
12 12 30
12 12 30
12 12 30
12 12 30
12 12 30
12 12 30
12 12 30
12 12 30
12 12 30
12 12 30
12 12 30
12 12 30
12 12 30
12 12 30
12 12 30
12 12 30
12 12 30
12 12 30
12 12 30
12 12 30
12 12 30
12 12 30
12 12 30
12 12 30
12 12 30
12 12 30
12 12 30
12 12 30
12 12 30
12 12 30
12 12 30
12 12 30
12 12 30
12 12 30
12 12 30
12 12 30
12 12 30
12 12 30
12 12 30
12 12 30
12 12 30
12 12 30
12 12 30
12 12 30
12 12 30
12 12 30
12 12 30
12 12 30
12 12 30
12 12 30
12 12 30
12 12 30
12 12 30
12 12 30
12 12 30
12 12 30
12 12 30
12 12 30
12 12 30
12 12 30
12 12 30
12 12 30
12 12 30
12 12 30
12 12 30
12 12 30
12 12 30
12 12 30
12 12 30
12 12 30
12 12 30
12 12 30
12 12 30
12 12 30
12 12 30
12 12 30
12 12 30
12 12 30
12 12 30
12 12 30
12 12 30
12 12 30
12 12 30
12 12 30
12 12 30
12 12 30
12 12 30
12 12 30
12 12 30
12 12 30
12 12 30
12 12 30
12 12 30
12 12 30
12 12 30
12 12 30
12 12 30
12 12 30
12 12 30
12 12 30
12 12 30
12 12 30
12 12 30
12 12 30
12 12 30
12 12 30
12 12 30
12 12 30
12 12 30
12 12 30
12 12 30
12 12 30
12 12 30
12 12 30
12 12 30
12 12 30
12 12 30
12 12 30
12 12 30
12 12 30
12 12 30
12 12 30
12 12 30
12 12 30
12 12 30
12 12 30
12 12 30
12 12 30
12 12 30
12 12 30
12 12 30
12 12 30
12 12 30
12 12 30
12 12 30
12 12 30
12 12 30
12 12 30
12 12 30
12 12 30
12 12 30
12 12 30
12 12 30
12 12 30
12 12 30
12 12 30
12 12 30
12 12 30
12 12 30
12 12 30
12 12 30
12 12 30
12 12 30
12 12 30
12 12 30
12 12 30
12 12 30
12 12 30
12 12 30
12 12 30
12 12 30
12 12 30
12 12 30
12 12 30
12 12 30
12 12 30
12 12 30
12 12 30
12 12 30
12 12 30
12 12 30
12 12 30
12 12 30
12 12 30
12 12 30
12 12 30
12 12 30
12 12 30
12 12 30
12 12 30
12 12 30
12 12 30
12 12 30
12 12 30
12 12 30
12 12 30
12 12 30
12 12 30
12 12 30
12 12 30
12 12 30
12 12 30
12 12 30
12 12 30
12 12 30
12 12 30
12 12 30
12 12 30
12 12 30
12 12 30
12 12 30
12 12 30
12 12 30
12 12 30
12 12 30
12 12 30
12 12 30
12 12 30
12 12 30
12 12 30
12 12 30
12 12 30
12 12 30
12 12 30
12 12 30
12 12 30
12 12 30
12 12 30
12 12 30
12 12 30
12 12 30
12 12 30
12 12 30
12 12 30
12 12 30
12 12 30
12 12 30
12 12 30
12 12 30
12 12 30
12 12 30
12 12 30
12 12 30
12 12 30
12 12 30
12 12 30
12 12 30
12 12 30
12 12 30
12 12 30
12 12 30
12 12 30
12 12 30
12 12 30
12 12 30
12 12 30
12 12 30
12 12 30
12 12 30
12 12 30
12 12 30
12 12 30
12 12 30
12 12 30
12 12 30
12 12 30
12 12 30
12 12 30
12 12 30
12 12 30
12 12 30
12 12 30
12 12 30
12 12 30
12 12 30
12 12 30
12 12 30
12 12 30
12 12 30
12 12 30
12 12 30
12 12 30
12 12 30
12 12 30
12 12 30
12 12 30
12 12 30
12 12 30
12 12 30
12 12 30
12 12 30
12 12 30
12 12 30
12 12 30
12 12 30
12 12 30
12 12 30
12 12 30
12 12 30
12 12 30
12 12 30
12 12 30
12 12 30
12 12 30
12 12 30
12 12 30
12 12 30
12 12 30
12 12 30
12 12 30
12 12 30
12 12 30
12 12 30
12 12 30
12 12 30
12 12 30
12 12 30
12 12 30
12 12 30
12 12 30
12 12 30
12 12 30
12 12 30
12 12 30
12 12 30
12 12 30
12 12 30
12 12 30
12 12 30
12 12 30
12 12 30
12 12 30
12 12 30
12 12 30
12 12 30
12 12 30
12 12 30
12 12 30
12 12 30
12 12 30
12 12 30
12 12 30
12 12 30
12 12 30
12 12 30
12 12 30
12 12 30
12 12 30
12 12 30
12 12 30
12 12 30
12 12 30
12 12 30
12 12 30
12 12 30
12 12 30
12 12 30
12 12 30
12 12 30
12 12 30
12 12 30
12 12 30
12 12 30
12 12 30
12 12 30
12 12 30
12 12 30
12 12 30
12 12 30
12 12 30
12 12 30
12 12 30
12 12 30
12 12 30
12 12 30
12 12 30
12 12 30
12 12 30
12 12 30
12 12 30
12 12 30
12 12 30
12 12 30
12 12 30
12 12 30
12 12 30
12 12 30
12 12 30
12 12 30
12 12 30
12 12 30
12 12 30
12 12 30
12 12 30
12 12 30
12 12 30
12 12 30
12 12 30
12 12 30
12 12 30
12 12 30
12 12 30
12 12 30
12 12 30
12 12 30
12 12 30
12 12 30
12 12 30
12 12 30
12 12 30
12 12 30
12 12 30
12 12 30
12 12 30
12 12 30
12 12 30
12 12 30
12 12 30
12 12 30
12 12 30
12 12 30
12 12 30
12 12 30
12 12 30
12 12 30
12 12 30
12 12 30
12 12 30
12 12 30
12 12 30
12 12 30
12 12 30
12 12 30
12 12 30
12 12 30
12 12 30
12 12 30
12 12 30
12 12 30
12 12 30
12 12 30
12 12 30
12 12 30
12 12 30
12 12 30
12 12 30
12 12 30
12 12 30
12 12 30
12 12 30
12 12 30
12 12 30
12 12 30
12 12 30
12 12 30
12 12 30
12 12 30
12 12 30
12 12 30
12 12 30
12 12 30
12 12 30
12 12 30
12 12 30
12 12 30
12 12 30
12 12 30
12 12 30
12 12 30
12 12 30
12 12 30
12 12 30
12 12 30
12 12 30
12 12 30
12 12 30
12 12 30
12 12 30
12 12 30
12 12 30
12 12 30
12 12 30
12 12 30
12 12 30
12 12 30
12 12 30
12 12 30
12 12 30
12 12 30
12 12 30
12 12 30
12 12 30
12 12 30
12 12 30
12 12 30
12 12 30
12 12 30
12 12 30
12 12 30
12 12 30
12 12 30
12 12 30
12 12 30
12 12 30
12 12 30
12 12 30
12 12 30
12 12 30
12 12 30
12 12 30
12 12 30
12 12 30
12 12 30
12 12 30
12 12 30
12 12 30
12 12 30
12 12 30
12 12 30
12 12 30
12 12 30
12 12 30
12 12 30
12 12 30
12 12 30
12 12 30
12 12 30
12 12 30
12 12 30
12 12 30
12 12 30
12 12 30
12 12 30
12 12 30
12 12 30
12 12 30
12 12 30
12 12 30
12 12 30
12 12 30
12 12 30
12 12 30
12 12 30
12 12 30
12 12 30
12 12 30
12 12 30
12 12 30
12 12 30
12 12 30
12 12 30
12 12 30
12 12 30
12 12 30
12 12 30
12 12 30
12 12 30
12 12 30
12 12 30
12 12 30
12 12 30
12 12 30
12 12 30
12 12 30
12 12 30
12 12 30
12 12 30
12 12 30
12 12 30
12 12 30
12 12 30
12 12 30
12 12 30
12 12 30
12 12 30
12 12 30
12 12 30
12 12 30
12 12 30
12 12 30
12 12 30
12 12 30
12 12 30
12 12 30
12 12 30
12 12 30
12 12 30
12 12 30
12 12 30
12 12 30
12 12 30
12 12 30
12 12 30
12 12 30
12 12 30
12 12 30
12 12 30
12 12 30
12 12 30
12 12 30
12 12 30
12 12 30
12 12 30
12 12 30
12 12 30
12 12 30
12 12 30
12 12 30
12 12 30
12 12 30
12 12 30
12 12 30
12 12 30
12 12 30
12 12 30
12 12 30
12 12 30
12 12 30
12 12 30
12 12 30
12 12 30
12 12 30
12 12 30
12 12 30
12 12 30
12 12 30
12 12 30
12 12 30
12 12 30
12 12 30
12 12 30
12 12 30
12 12 30
12 12 30
12 12 30
12 12 30
12 12 30
12 12 30
12 12 30
12 12 30
12 12 30
12 12 30
12 12 30
12 12 30
12 12 30
12 12 30
12 12 30
12 12 30
12 12 30
12 12 30
12 12 30
12 12 30
12 12 30
12 12 30
12 12 30
12 12 30
12 12 30
12 12 30
12 12 30
12 12 30
12 12 30
12 12 30
12 12 30
12 12 30
12 12 30
12 12 30
12 12 30
12 12 30
12 12 30
12 12 30
12 12 30
12 12 30
12 12 30
12 12 30
12 12 30
12 12 30
12 12 30
12 12 30
12 12 30
12 12 30
12 12 30
12 12 30
12 12 30
12 12 30
12 12 30
12 12 30
12 12 30
12 12 30
12 12 30
12 12 30
12 12 30
12 12 30
12 12 30
12 12 30
12 12 30
12 12 30
12 12 30
12 12 30
12 12 30
12 12 30
12 12 30
12 12 30
12 12 30
12 12 30
12 12 30
12 12 30
12 12 30
12 12 30
12 12 30
12 12 30
12 12 30
12 12 30
12 12 30
12 12 30
12 12 30
12 12 30
12 12 30
12 12 30
12 12 30
12 12 30
12 12 30
12 12 30
12 12 30
12 12 30
12 12 30
12 12 30
12 12 30
12 12 30
12 12 30
12 12 30
12 12 30
12 12 30
12 12 30
12 12 30
12 12 30
12 12 30
12 12 30
12 12 30
12 12 30
12 12 30
12 12 30
12 12 30
12 12 30
12 12 30
12 12 30
12 12 30
12 12 30
12 12 30
12 12 30
12 12 30
12 12 30
12 12 30
12 12 30
12 12 30
12 12 30
12 12 30
12 12 30
12 12 30
12 12 30
12 12 30
12 12 30
12 12 30
12 12 30
12 12 30
12 12 30
12 12 30
12 12 30
12 12 30
12 12 30
12 12 30
12 12 30
12 12 30
12 12 30
12 12 30
12 12 30
12 12 30
12 12 30
12 12 30
12 12 30
12 12 30
12 12 30
12 12 30
12 12 30
12 12 30
12 12 30
12 12 30
12 12 30
12 12 30
12 12 30
12 12 30
12 12 30
12 12 30
12 12 30
12 12 30
12 12 30
12 12 30
12 12 30
12 12 30
12 12 30
12 12 30
12 12 30
12 12 30
12 12 30
12 12 30
12 12 30
12 12 30
12 12 30
12 12 30
12 12 30
12 12 30
12 12 30
12 12 30
12 12 30
12 12 30
12 12 30
12 12 30
12 12 30
12 12 30
12 12 30
12 12 30
12 12 30
12 12 30
12 12 30
12 12 30
12 12 30
12 12 30
12 12 30
12 12 30
12 12 30
12 12 30
12 12 30
12 12 30
12 12 30
12 12 30
12 12 30
12 12 30
12 12 30
12 12 30
12 12 30
12 12 30
12 12 30
12 12 30
12 12 30
12 12 30
12 12 30
12 12 30
12 12 30
12 12 30
12 12 30
12 12 30
12 12 30
12 12 30
12 12 30
12 12 30
12 12 30
12 12 30
12 12 30
12 12 30
12 12 30
12 12 30
12 12 30
12 12 30
12 12 30
12 12 30
12 12 30
12 12 30
12 12 30
12 12 30
12 12 30
12 12 30
12 12 30
12 12 30
12 12 30
12 12 30
12 12 30
12 12 30
12 12 30
12 12 30
12 12 30
12 12 30
12 12 30
12 12 30
12 12 30
12 12 30
12 12 30
12 12 30
12 12 30
12 12 30
12 12 30
12 12 30
12 12 30
12 12 30
12 12 30
12 12 30
12 12 30
12 12 30
12 12 30
12 12 30
12 12 30
12 12 30
12 12 30
12 12 30
12 12 30
12 12 30
12 12 30
12 12 30
12 12 30
12 12 30
12 12 30
12 12 30
12 12 30
12 12 30
12 12 30
12 12 30
12 12 30
12 12 30
12 12 30
12 12 30
12 12 30
12 12 30
12 12 30
12 12 30
12 12 30
12 12 30
12 12 30
12 12 30
12 12 30
12 12 30
12 12 30
12 12 30
12 12 30
12 12 30
12 12 30
12 12 30
12 12 30
12 12 30
12 12 30
12 12 30
12 12 30
12 12 30
12 12 30
12 12 30
12 12 30
12 12 30
12 12 30
12 12 30
12 12 30
12 12 30
12 12 30
12 12 30
12 12 30
12 12 30
12 12 30
12 12 30
12 12 30
12 12 30
12 12 30
12 12 30
12 12 30
12 12 30
12 12 30
12 12 30
12 12 30
12 12 30
12 12 30
12 12 30
12 12 30
12 12 30
12 12 30
12 12 30
12 12 30
12 12 30
12 12 30
12 12 30
12 12 30
12 12 30
12 12 30
12 12 30
12 12 30
12 12 30
12 12 30
12 12 30
12 12 30
12 12 30
12 12 30
12 12 30
12 12 30
12 12 30
12 12 30
12 12 30
12 12 30
12 12 30
12 12 30
12 12 30
12 12 30
12 12 30
12 12 30
12 12 30
12 12 30
12 12 30
12 12 30
12 12 30
12 12 30
12 12 30
12 12 30
12 12 30
12 12 30
12 12 30
12 12 30
12 12 30
12 12 30
12 12 30
12 12 30
12 12 30
12 12 30
12 12 30
12 12 30
12 12 30
12 12 30
12 12 30
12 12 30
12 12 30
12 12 30
12 12 30
12 12 30
12 12 30
12 12 30
12 12 30
12 12 30
12 12 30
12 12 30
12 12 30
12 12 30
12 12 30
12 12 30
12 12 30
12 12 30
12 12 30
12 12 30
12 12 30
12 12 30
12 12 30
12 12 30
12 12 30
12 12 30
12 12 30
12 12 30
12 12 30
12 12 30
12 12 30
12 12 30
12 12 30
12 12 30
12 12 30
12 12 30
12 12 30
12 12 30
12 12 30
12 12 30
12 12 30
12 12 30
12 12 30
12 12 30
12 12 30
12 12 30
12 12 30
12 12 30
12 12 30
12 12 30
12 12 30
12 12 30
12 12 30
12 12 30
12 12 30
12 12 30
12 12 30
12 12 30
12 12 30
12 12 30
12 12 30
12 12 30
12 12 30
12 12 30
12 12 30
12 12 30
12 12 30
12 12 30
12 12 30
12 12 30
12 12 30
12 12 30
12 12 30
12 12 30
12 12 30
12 12 30
12 12 30
12 12 30
12 12 30
12 12 30
12 12 30
12 12 30
12 12 30
12 12 30
12 12 30
12 12 30
12 12 30
12 12 30
12 12 30
12 12 30
12 12 30
12 12 30
12 12 30
12 12 30
12 12 30
12 12 30
12 12 30
12 12 30
12 12 30
12 12 30
12 12 30
12 12 30
12 12 30
12 12 30
12 12 30
12 12 30
12 12 30
12 12 30
12 12 30
12 12 30
12 12 30
12 12 30
12 12 30
12 12 30
12 12 30
12 12 30
12 12 30
12 12 30
12 12 30
12 12 30
12 12 30
12 12 30
12 12 30
12 12 30
12 12 30
12 12 30
12 12 30
12 12 30
12 12 30
12 12 30
12 12 30
12 12 30
12 12 30
12 12 30
12 12 30
12 12 30
12 12 30
12 12 30
12 12 30
12 12 30
12 12 30
12 12 30
12 12 30
12 12 30
12 12 30
12 12 30
12 12 30
12 12 30
12 12 30
12 12 30
12 12 30
12 12 30
12 12 30
12 12 30
12 12 30
12 12 30
12 12 30
12 12 30
12 12 30
12 12 30
12 12 30
12 12 30
12 12 30
12 12 30
12 12 30
12 12 30
12 12 30
12 12 30
12 12 30
12 12 30
12 12 30
12 12 30
12 12 30
12 12 30
12 12 30
12 12 30
12 12 30
12 12 30
12 12 30
12 12 30
12 12 30
12 12 30
12 12 30
12 12 30
12 12 30
12 12 30
12 12 30
12 12 30
12 12 30
12 12 30
12 12 30
12 12 30
12 12 30
12 12 30
12 12 30
12 12 30
12 12 30
12 12 30
12 12 30
12 12 30
12 12 30
12 12 30
12 12 30
12 12 30
12 12 30
12 12 30
12 12 30
12 12 30
12 12 30
12 12 30
12 12 30
12 12 30
12 12 30
12 12 30
12 12 30
12 12 30
12 12 30
12 12 30
12 12 30
12 12 30
12 12 30
12 12 30
12 12 30
12 12 30
12 12 30
12 12 30
12 12 30
12 12 30
12 12 30
12 12 30
12 12 30
12 12 30
12 12 30
12 12 30
12 12 30
12 12 30
12 12 30
12 12 30
12 12 30
12 12 30
12 12 30
12 12 30
12 12 30
12 12 30
12 12 30
12 12 30
12 12 30
12 12 30
12 12 30
12 12 30
12 12 30
12 12 30
12 12 30
12 12 30
12 12 30
12 12 30
12 12 30
12 12 30
12 12 30
12 12 30
12 12 30
12 12 30
12 12 30
12 12 30
12 12 30
12 12 30
12 12 30
12 12 30
12 12 30
12 12 30
12 12 30
12 12 30
12 12 30
12 12 30
12 12 30
12 12 30
12 12 30
12 12 30
12 12 30
12 12 30
12 12 30
12 12 30
12 12 30
12 12 30
12 12 30
12 12 30
12 12 30
12 12 30
12 12 30
12 12 30
12 12 30
12 12 30
12 12 30
12 12 30
12 12 30
12 12 30
12 12 30
12 12 30
12 12 30
12 12 30
12 12 30
12 12 30
12 12 30
12 12 30
12 12 30
12 12 30
12 12 30
12 12 30
12 12 30
12 12 30
12 12 30
12 12 30
12 12 30
12 12 30
12 12 30
12 12 30
12 12 30
12 12 30
12 12 30
12 12 30
12 12 30
12 12 30
12 12 30
12 12 30
12 12 30
12 12 30
12 12 30
12 12 30
12 12 30
12 12 30
12 12 30
12 12 30
12 12 30
12 12 30
12 12 30
12 12 30
12 12 30
12 12 30
12 12 30
12 12 30
12 12 30
12 12 30
12 12 30
12 12 30
12 12 30
12 12 30
12 12 30
12 12 30
12 12 30
12 12 30
12 12 30
12 12 30
12 12 30
12 12 30
12 12 30
12 12 30
12 12 30
12 12 30
12 12 30
12 12 30
12 12 30
12 12 30
12 12 30
12 12 30
12 12 30
12 12 30
12 12 30
12 12 30
12 12 30
12 12 30
12 12 30
12 12 30
12 12 30
12 12 30
12 12 30
12 12 30
12 12 30
12 12 30
12 12 30
12 12 30
12 12 30
12 12 30
12 12 30
12 12 30
12 12 30
12 12 30
12 12 30
12 12 30
12 12 30
12 12 30
12 12 30
12 12 30
12 12 30
12 12 30
12 12 30
12 12 30
12 12 30
12 12 30
12 12 30
12 12 30
12 12 30
12 12 30
12 12 30
12 12 30
12 12 30
12 12 30
12 12 30
12 12 30
12 12 30
12 12 30
12 12 30
12 12 30
12 12 30
12 12 30
12 12 30
12 12 30
12 12 30
12 12 30
12 12 30
12 12 30
12 12 30
12 12 30
12 12 30
12 12 30
12 12 30
12 12 30
12 12 30
12 12 30
12 12 30
12 12 30
12 12 30
12 12 30
12 12 30
12 12 30
12 12 30
12 12 30
12 12 30
12 12 30
12 12 30
12 12 30
12 12 30
12 12 30
12 12 30
12 12 30
12 12 30
12 12 30
12 12 30
12 12 30
12 12 30
12 12 30
12 12 30
12 12 30
12 12 30
12 12 30
12 12 30
12 12 30
12 12 30
12 12 30
12 12 30
12 12 30
12 12 30
12 12 30
12 12 30
12 12 30
12 12 30
12 12 30
12 12 30
12 12 30
12 12 30
12 12 30
12 12 30
12 12 30
12 12 30
12 12 30
12 12 30
12 12 30
12 12 30
12 12 30
12 12 30
12 12 30
12 12 30
12 12 30
12 12 30
12 12 30
12 12 30
12 12 30
12 12 30
12 12 30
12 12 30
12 12 30
12 12 30
12 12 30
12 12 30
12 12 30
12 12 30
12 12 30
12 12 30
12 12 30
12 12 30
12 12 30
12 12 30
12 12 30
12 12 30
12 12 30
12 12 30
12 12 30
12 12 30
12 12 30
12 12 30
12 12 30
12 12 30
12 12 30
12 12 30
12 12 30
12 12 30
12 12 30
12 12 30
12 12 30
12 12 30
12 12 30
12 12 30
12 12 30
12 12 30
12 12 30
12 12 30
12 12 30
12 12 30
12 12 30
12 12 30
12 12 30
12 12 30
12 12 30
12 12 30
12 12 30
12 12 30
12 12 30
12 12 30
12 12 30
12 12 30
12 12 30
12 12 30
12 12 30
12 12 30
12 12 30
12 12 30
12 12 30
12 12 30
12 12 30
12 12 30
12 12 30
12 12 30
12 12 30
12 12 30
12 12 30
12 12 30
12 12 30
12 12 30
12 12 30
12 12 30
12 12 30
12 12 30
12 12 30
12 12 30
12 12 30
12 12 30
12 12 30
12 12 30
12 12 30
12 12 30
12 12 30
12 12 30
12 12 30
12 12 30
12 12 30
12 12 30
12 12 30
12 12 30
12 12 30
12 12 30
12 12 30
12 12 30
12 12 30
12 12 30
12 12 30
12 12 30
12 12 30
12 12 30
12 12 30
12 12 30
12 12 30
12 12 30
12 12 30
12 12 30
12 12 30
12 12 30
12 12 30
12 12 30
12 12 30
12 12 30
12 12 30
12 12 30
12 12 30
12 12 30
12 12 30
12 12 30
12 12 30
12 12 30
12 12 30
12 12 30
12 12 30
12 12 30
12 12 30
12 12 30
12 12 30
12 12 30
12 12 30
12 12 30
12 12 30
12 12 30
12 12 30
12 12 30
12 12 30
12 12 30
12 12 30
12 12 30
12 12 30
12 12 30
12 12 30
12 12 30
12 12 30
12 12 30
12 12 30
12 12 30
12 12 30
12 12 30
12 12 30
12 12 30
12 12 30
12 12 30
12 12 30
12 12 30
12 12 30
12 12 30
12 12 30
12 12 30
12 12 30
12 12 30
12 12 30
12 12 30
12 12 30
12 12 30
12 12 30
12 12 30
12 12 30
12 12 30
12 12 30
12 12 30
12 12 30
12 12 30
12 12 30
12 12 30
12 12 30
12 12 30
12 12 30
12 12 30
12 12 30
12 12 30
12 12 30
12 12 30
12 12 30
12 12 30
12 12 30
12 12 30
12 12 30
12 12 30
12 12 30
12 12 30
12 12 30
12 12 30
12 12 30
12 12 30
12 12 30
12 12 30
12 12 30
12 12 30
12 12 30
12 12 30
12 12 30
12 12 30
12 12 30
12 12 30
12 12 30
12 12 30
12 12 30
12 12 30
12 12 30
12 12 30
12 12 30
12 12 30
12 12 30
12 12 30
12 12 30
12 12 30
12 12 30
12 12 30
12 12 30
12 12 30
12 12 30
12 12 30
12 12 30
12 12 30
12 12 30
12 12 30
12 12 30
12 12 30
12 12 30
12 12 30
12 12 30
12 12 30
12 12 30
12 12 30
12 12 30
12 12 30
12 12 30
12 12 30
12 12 30
12 12 30
12 12 30
12 12 30
12 12 30
12 12 30
12 12 30
12 12 30
12 12 30
12 12 30
12 12 30
12 12 30
12 12 30
12 12 30
12 12 30
12 12 30
12 12 30
12 12 30
12 12 30
12 12 30
12 12 30
12 12 30
12 12 30
12 12 30
12 12 30
12 12 30
12 12 30
12 12 30
12 12 30
12 12 30
12 12 30
12 12 30
12 12 30
12 12 30
12 12 30
12 12 30
12 12 30
12 12 30
12 12 30
12 12 30
12 12 30
12 12 30
12 12 30
12 12 30
12 12 30
12 12 30
12 12 30
12 12 30
12 12 30
12 12 30
12 12 30
12 12 30
12 12 30
12 12 30
12 12 30
12 12 30
12 12 30
12 12 30
12 12 30
12 12 30
12 12 30
12 12 30
12 12 30
12 12 30
12 12 30
12 12 30
12 12 30
12 12 30
12 12 30
12 12 30
12 12 30
12 12 30
12 12 30
12 12 30
12 12 30
12 12 30
12 12 30
12 12 30
12 12 30
12 12 30
12 12 30
12 12 30
12 12 30
12 12 30
12 12 30
12 12 30
12 12 30
12 12 30
12 12 30
12 12 30
12 12 30
12 12 30
12 12 30
12 12 30
12 12 30
12 12 30
12 12 30
12 12 30
12 12 30
12 12 30
12 12 30
12 12 30
12 12 30
12 12 30
12 12 30
12 12 30
12 12 30
12 12 30
12 12 30
12 12 30
12 12 30
12 12 30
12 12 30
12 12 30
12 12 30
12 12 30
12 12 30
12 12 30
12 12 30
12 12 30
12 12 30
12 12 30
12 12 30
12 12 30
12 12 30
12 12 30
12 12 30
12 12 30
12 12 30
12 12 30
12 12 30
12 12 30
12 12 30
12 12 30
12 12 30
12 12 30
12 12 30
12 12 30
12 12 30
12 12 30
12 12 30
12 12 30
12 12 30
12 12 30
12 12 30
12 12 30
12 12 30
12 12 30
12 12 30
12 12 30
12 12 30
12 12 30
12 12 30
12 12 30
12 12 30
12 12 30
12 12 30
12 12 30
12 12 30
12 12 30
12 12 30
12 12 30
12 12 30
12 12 30
12 12 30
12 12 30
12 12 30
12 12 30
12 12 30
12 12 30
12 12 30
12 12 30
12 12 30
12 12 30
12 12 30
12 12 30
12 12 30
12 12 30
12 12 30
12 12 30
12 12 30
12 12 30
12 12 30
12 12 30
12 12 30
12 12 30
12 12 30
12 12 30
12 12 30
12 12 30
12 12 30
12 12 30
12 12 30
12 12 30
12 12 30
12 12 30
12 12 30
12 12 30
12 12 30
12 12 30
12 12 30
12 12 30
12 12 30
12 12 30
12 12 30
12 12 30
12 12 30
12 12 30
12 12 30
12 12 30
12 12 30
12 12 30
12 12 30
12 12 30
12 12 30
12 12 30
12 12 30
12 12 30
12 12 30
12 12 30
12 12 30
12 12 30
12 12 30
12 12 30
12 12 30
12 12 30
12 12 30
12 12 30
12 12 30
12 12 30
12 12 30
12 12 30
12 12 30
12 12 30
12 12 30
12 12 30
12 12 30
12 12 30
12 12 30
12 12 30
12 12 30
12 12 30
12 12 30
12 12 30
12 12 30
12 12 30
12 12 30
12 12 30
12 12 30
12 12 30
12 12 30
12 12 30
12 12 30
12 12 30
12 12 30
12 12 30
12 12 30
12 12 30
12 12 30
12 12 30
12 12 30
12 12 30
12 12 30
12 12 30
12 12 30
12 12 30
12 12 30
12 12 30
12 12 30
12 12 30
12 12 30
12 12 30
12 12 30
12 12 30
12 12 30
12 12 30
12 12 30
12 12 30
12 12 30
12 12 30
12 12 30
12 12 30
12 12 30
12 12 30
12 12 30
12 12 30
12 12 30
12 12 30
12 12 30
12 12 30
12 12 30
12 12 30
12 12 30
12 12 30
12 12 30
12 12 30
12 12 30
12 12 30
12 12 30
12 12 30
12 12 30
12 12 30
12 12 30
12 12 30
12 12 30
12 12 30
12 12 30
12 12 30
12 12 30
12 12 30
12 12 30
12 12 30
12 12 30
12 12 30
12 12 30
12 12 30
12 12 30
12 12 30
12 12 30
12 12 30
12 12 30
12 12 30
12 12 30
12 12 30
12 12 30
12 12 30
12 12 30
12 12 30
12 12 30
12 12 30
12 12 30
12 12 30
12 12 30
12 12 30
12 12 30
12 12 30
12 12 30
12 12 30
12 12 30
12 12 30
12 12 30
12 12 30
12 12 30
12 12 30
12 12 30
12 12 30
12 12 30
12 12 30
12 12 30
12 12 30
12 12 30
12 12 30
12 12 30
12 12 30
12 12 30
12 12 30
12 12 30
12 12 30
12 12 30
12 12 30
12 12 30
12 12 30
12 12 30
12 12 30
12 12 30
12 12 30
12 12 30
12 12 30
12 12 30
12 12 30
12 12 30
12 12 30
12 12 30
12 12 30
12 12 30
12 12 30
12 12 30
12 12 30
12 12 30
12 12 30
12 12 30
12 12 30
12 12 30
12 12 30
12 12 30
12 12 30
12 12 30
12 12 30
12 12 30
12 12 30
12 12 30
12 12 30
12 12 30
12 12 30
12 12 30
12 12 30
12 12 30
12 12 30
12 12 30
12 12 30
12 12 30
12 12 30
12 12 30
12 12 30
12 12 30
12 12 30
12 12 30
12 12 30
12 12 30
12 12 30
12 12 30
12 12 30
12 12 30
12 12 30
12 12 30
12 12 30
12 12 30
12 12 30
12 12 30
12 12 30
12 12 30
12 12 30
12 12 30
12 12 30
12 12 30
12 12 30
12 12 30
12 12 30
12 12 30
12 12 30
12 12 30
12 12 30
12 12 30
12 12 30
12 12 30
12 12 30
12 12 30
12 12 30
12 12 30
12 12 30
12 12 30
12 12 30
12 12 30
12 12 30
12 12 30
12 12 30
12 12 30
12 12 30
12 12 30
12 12 30
12 12 30
12 12 30
12 12 30
12 12 30
12 12 30
12 12 30
12 12 30
12 12 30
12 12 30
12 12 30
12 12 30
12 12 30
12 12 30
12 12 30
12 12 30
12 12 30
12 12 30
12 12 30
12 12 30
12 12 30
12 12 30
12 12 30
12 12 30
12 12 30
12 12 30
12 12 30
12 12 30
12 12 30
12 12 30
12 12 30
12 12 30
12 12 30
12 12 30
12 12 30
12 12 30
12 12 30
12 12 30
12 12 30
12 12 30
12 12 30
12 12 30
12 12 30
12 12 30
12 12 30
12 12 30
12 12 30
12 12 30
12 12 30
12 12 30
12 12 30
12 12 30
12 12 30
12 12 30
12 12 30
12 12 30
12 12 30
12 12 30
12 12 30
12 12 30
12 12 30
12 12 30
12 12 30
12 12 30
12 12 30
12 12 30
12 12 30
12 12 30
12 12 30
12 12 30
12 12 30
12 12 30
12 12 30
12 12 30
12 12 30
12 12 30
12 12 30
12 12 30
12 12 30
12 12 30
12 12 30
12 12 30
12 12 30
12 12 30
12 12 30
12 12 30
12 12 30
12 12 30
12 12 30
12 12 30
12 12 30
12 12 30
12 12 30
12 12 30
12 12 30
12 12 30
12 12 30
12 12 30
12 12 30
12 12 30
12 12 30
12 12 30
12 12 30
12 12 30
12 12 30
12 12 30
12 12 30
12 12 30
12 12 30
12 12 30
12 12 30
12 12 30
12 12 30
12 12 30
12 12 30
12 12 30
12 12 30
12 12 30
12 12 30
12 12 30
12 12 30
12 12 30
12 12 30
12 12 30
12 12 30
12 12 30
12 12 30
12 12 30
12 12 30
12 12 30
12 12 30
12 12 30
12 12 30
12 12 30
12 12 30
12 12 30
12 12 30
12 12 30
12 12 30
12 12 30
12 12 30
12 12 30
12 12 30
12 12 30
12 12 30
12 12 30
12 12 30
12 12 30
12 12 30
12 12 30
12 12 30
12 12 30
12 12 30
12 12 30
12 12 30
12 12 30
12 12 30
12 12 30
12 12 30
12 12 30
12 12 30
12 12 30
12 12 30
12 12 30
12 12 30
12 12 30
12 12 30
12 12 30
12 12 30
12 12 30
12 12 30
12 12 30
12 12 30
12 12 30
12 12 30
12 12 30
12 12 30
12 12 30
12 12 30
12 12 30
12 12 30
12 12 30
12 12 30
12 12 30
12 12 30
12 12 30
12 12 30
12 12 30
12 12 30
12 12 30
12 12 30
12 12 30
12 12 30
12 12 30
12 12 30
12 12 30
12 12 30
12 12 30
12 12 30
12 12 30
12 12 30
12 12 30
12 12 30
12 12 30
12 12 30
12 12 30
12 12 30
12 12 30
12 12 30
12 12 30
12 12 30
12 12 30
12 12 30
12 12 30
12 12 30
12 12 30
12 12 30
12 12 30
12 12 30
12 12 30
12 12 30
12 12 30
12 12 30
12 12 30
12 12 30
12 12 30
12 12 30
12 12 30
12 12 30
12 12 30
12 12 30
12 12 30
12 12 30
12 12 30
12 12 30
12 12 30
12 12 30
12 12 30
12 12 30
12 12 30
12 12 30
12 12 30
12 12 30
12 12 30
12 12 30
12 12 30
12 12 30
12 12 30
12 12 30
12 12 30
12 12 30
12 12 30
12 12 30
12 12 30
12 12 30
12 12 30
12 12 30
12 12 30
12 12 30
12 12 30
12 12 30
12 12 30
12 12 30
12 12 30
12 12 30
12 12 30
12 12 30
12 12 30
12 12 30
12 12 30
12 12 30
12 12 30
12 12 30
12 12 30
12 12 30
12 12 30
12 12 30
12 12 30
12 12 30
12 12 30
12 12 30
12 12 30
12 12 30
12 12 30
12 12 30
12 12 30
12 12 30
12 12 30
12 12 30
12 12 30
12 12 30
12 12 30
12 12 30
12 12 30
12 12 30
12 12 30
12 12 30
12 12 30
12 12 30
12 12 30
12 12 30
12 12 30
12 12 30
12 12 30
12 12 30
12 12 30
12 12 30
12 12 30
12 12 30
12 12 30
12 12 30
12 12 30
12 12 30
12 12 30
12 12 30
12 12 30
12 12 30
12 12 30
12 12 30
12 12 30
12 12 30
12 12 30
12 12 30
12 12 30
12 12 30
12 12 30
12 12 30
12 12 30
12 12 30
12 12 30
12 12 30
12 12 30
12 12 30
12 12 30
12 12 30
12 12 30
12 12 30
12 12 30
12 12 30
12 12 30
12 12 30
12 12 30
12 12 30
12 12 30
12 12 30
12 12 30
12 12 30
12 12 30
12 12 30
12 12 30
12 12 30
12 12 30
12 12 30
12 12 30
12 12 30
12 12 30
12 12 30
12 12 30
12 12 30
12 12 30
12 12 30
12 12 30
12 12 30
12 12 30
12 12 30
12 12 30
12 12 30
12 12 30
12 12 30
12 12 30
12 12 30
12 12 30
12 12 30
12 12 30
12 12 30
12 12 30
12 12 30
12 12 30
12 12 30
12 12 30
12 12 30
12 12 30
12 12 30
12 12 30
12 12 30
12 12 30
12 12 30
12 12 30
12 12 30
12 12 30
12 12 30
12 12 30
12 12 30
12 12 30
12 12 30
12 12 30
12 12 30
12 12 30
12 12 30
12 12 30
12 12 30
12 12 30
12 12 30
12 12 30
12 12 30
12 12 30
12 12 30
12 12 30
12 12 30
12 12 30
12 12 30
12 12 30
12 12 30
12 12 30
12 12 30
12 12 30
12 12 30
12 12 30
12 12 30
12 12 30
12 12 30
12 12 30
12 12 30
12 12 30
12 12 30
12 12 30
12 12 30
12 12 30
12 12 30
12 12 30
12 12 30
12 12 30
12 12 30
12 12 30
12 12 30
12 12 30
12 12 30
12 12 30
12 12 30
12 12 30
12 12 30
12 12 30
12 12 30
12 12 30
12 12 30
12 12 30
12 12 30
12 12 30
12 12 30
12 12 30
12 12 30
12 12 30
12 12 30
12 12 30
12 12 30
12 12 30
12 12 30
12 12 30
12 12 30
12 12 30
12 12 30
12 12 30
12 12 30
12 12 30
12 12 30
12 12 30
12 12 30
12 12 30
12 12 30
12 12 30
12 12 30
12 12 30
12 12 30
12 12 30
12 12 30
12 12 30
12 12 30
12 12 30
12 12 30
12 12 30
12 12 30
12 12 30
12 12 30
12 12 30
12 12 30
12 12 30
12 12 30
12 12 30
12 12 30
12 12 30
12 12 30
12 12 30
12 12 30
12 12 30
12 12 30
12 12 30
12 12 30
12 12 30
12 12 30
12 12 30
12 12 30
12 12 30
12 12 30
12 12 30
12 12 30
12 12 30
12 12 30
12 12 30
12 12 30
12 12 30
12 12 30
12 12 30
12 12 30
12 12 30
12 12 30
12 12 30
12 12 30
12 12 30
12 12 30
12 12 30
12 12 30
12 12 30
12 12 30
12 12 30
12 12 30
12 12 30
12 12 30
12 12 30
12 12 30
12 12 30
12 12 30
12 12 30
12 12 30
12 12 30
12 12 30
12 12 30
12 12 30
12 12 30
12 12 30
12 12 30
12 12 30
12 12 30
12 12 30
12 12 30
12 12 30
12 12 30
12 12 30
12 12 30
12 12 30
12 12 30
12 12 30
12 12 30
12 12 30
12 12 30
12 12 30
12 12 30
12 12 30
12 12 30
12 12 30
12 12 30
12 12 30
12 12 30
12 12 30
12 12 30
12 12 30
12 12 30
12 12 30
12 12 30
12 12 30
12 12 30
12 12 30
12 12 30
12 12 30
12 12 30
12 12 30
12 12 30
12 12 30
12 12 30
12 12 30
12 12 30
12 12 30
12 12 30
12 12 30
12 12 30
12 12 30
12 12 30
12 12 30
12 12 30
12 12 30
12 12 30
12 12 30
12 12 30
12 12 30
12 12 30
12 12 30
12 12 30
12 12 30
12 12 30
12 12 30
12 12 30
12 12 30
12 12 30
12 12 30
12 12 30
12 12 30
12 12 30
12 12 30
12 12 30
12 12 30
12 12 30
12 12 30
12 12 30
12 12 30
12 12 30
12 12 30
12 12 30
12 12 30
12 12 30
12 12 30
12 12 30
12 12 30
12 12 30
12 12 30
12 12 30
12 12 30
12 12 30
12 12 30
12 12 30
12 12 30
12 12 30
12 12 30
12 12 30
12 12 30
12 12 30
12 12 30
12 12 30
12 12 30
12 12 30
12 12 30
12 12 30
12 12 30
12 12 30
12 12 30
12 12 30
12 12 30
12 12 30
12 12 30
12 12 30
12 12 30
12 12 30
12 12 30
12 12 30
12 12 30
12 12 30
12 12 30
12 12 30
12 12 30
12 12 30
12 12 30
12 12 30
12 12 30
12 12 30
12 12 30
12 12 30
12 12 30
12 12 30
12 12 30
12 12 30
12 12 30
12 12 30
12 12 30
12 12 30
12 12 30
12 12 30
12 12 30
12 12 30
12 12 30
12 12 30
12 12 30
12 12 30
12 12 30
12 12 30
12 12 30
12 12 30
12 12 30
12 12 30
12 12 30
12 12 30
12 12 30
12 12 30
12 12 30
12 12 30
12 12 30
12 12 30
12 12 30
12 12 30
12 12 30
12 12 30
12 12 30
12 12 30
12 12 30
12 12 30
12 12 30
12 12 30
12 12 30
12 12 30
12 12 30
12 12 30
12 12 30
12 12 30
12 12 30
12 12 30
12 12 30
12 12 30
12 12 30
12 12 30
12 12 30
12 12 30
12 12 30
12 12 30
12 12 30
12 12 30
12 12 30
12 12 30
12 12 30
12 12 30
12 12 30
12 12 30
12 12 30
12 12 30
12 12 30
12 12 30
12 12 30
12 12 30
12 12 30
12 12 30
12 12 30
12 12 30
12 12 30
12 12 30
12 12 30
12 12 30
12 12 30
12 12 30
12 12 30
12 12 30
12 12 30
12 12 30
12 12 30
12 12 30
12 12 30
12 12 30
12 12 30
12 12 30
12 12 30
12 12 30
12 12 30
12 12 30
12 12 30
12 12 30
12 12 30
12 12 30
12 12 30
12 12 30
12 12 30
12 12 30
12 12 30
12 12 30
12 12 30
12 12 30
12 12 30
12 12 30
12 12 30
12 12 30
12 12 30
12 12 30
12 12 30
12 12 30
12 12 30
12 12 30
12 12 30
12 12 30
12 12 30
12 12 30
12 12 30
12 12 30
12 12 30
12 12 30
12 12 30
12 12 30
12 12 30
12 12 30
12 12 30
12 12 30
12 12 30
12 12 30
12 12 30
12 12 30
12 12 30
12 12 30
12 12 30
12 12 30
12 12 30
12 12 30
12 12 30
12 12 30
12 12 30
12 12 30
12 12 30
12 12 30
12 12 30
12 12 30
12 12 30
12 12 30
12 12 30
12 12 30
12 12 30
12 12 30
12 12 30
12 12 30
12 12 30
12 12 30
12 12 30
12 12 30
12 12 30
12 12 30
12 12 30
12 12 30
12 12 30
12 12 30
12 12 30
12 12 30
12 12 30
12 12 30
12 12 30
12 12 30
12 12 30
12 12 30
12 12 30
12 12 30
12 12 30
12 12 30
12 12 30
12 12 30
12 12 30
12 12 30
12 12 30
12 12 30
12 12 30
12 12 30
12 12 30
12 12 30
12 12 30
12 12 30
12 12 30
12 12 30
12 12 30
12 12 30
12 12 30
12 12 30
12 12 30
12 12 30
12 12 30
12 12 30
12 12 30
12 12 30
12 12 30
12 12 30
12 12 30
12 12 30
12 12 30
12 12 30
12 12 30
12 12 30
12 12 30
12 12 30
12 12 30
12 12 30
12 12 30
12 12 30
12 12 30
12 12 30
12 12 30
12 12 30
12 12 30
12 12 30
12 12 30
12 12 30
12 12 30
12 12 30
12 12 30
12 12 30
12 12 30
12 12 30
12 12 30
12 12 30
12 12 30
12 12 30
12 12 30
12 12 30
12 12 30
12 12 30
12 12 30
12 12 30
12 12 30
12 12 30
12 12 30
12 12 30
12 12 30
12 12 30
12 12 30
12 12 30
12 12 30
12 12 30
12 12 30
12 12 30
12 12 30
12 12 30
12 12 30
12 12 30
12 12 30
12 12 30
12 12 30
12 12 30
12 12 30
12 12 30
12 12 30
12 12 30
12 12 30
12 12 30
12 12 30
12 12 30
12 12 30
12 12 30
12 12 30
12 12 30
12 12 30
12 12 30
12 12 30
12 12 30
12 12 30
12 12 30
12 12 30
12 12 30
12 12 30
12 12 30
12 12 30
12 12 30
12 12 30
12 12 30
12 12 30
12 12 30
12 12 30
12 12 30
12 12 30
12 12 30
12 12 30
12 12 30
12 12 30
12 12 30
12 12 30
12 12 30
12 12 30
12 12 30
12 12 30
12 12 30
12 12 30
12 12 30
12 12 30
12 12 30
12 12 30
12 12 30
12 12 30
12 12 30
12 12 30
12 12 30
12 12 30
12 12 30
12 12 30
12 12 30
12 12 30
12 12 30
12 12 30
12 12 30
12 12 30
12 12 30
12 12 30
12 12 30
12 12 30
12 12 30
12 12 30
12 12 30
12 12 30
12 12 30
12 12 30
12 12 30
12 12 30
12 12 30
12 12 30
12 12 30
12 12 30
12 12 30
12 12 30
12 12 30
12 12 30
12 12 30
12 12 30
12 12 30
12 12 30
12 12 30
12 12 30
12 12 30
12 12 30
12 12 30
12 12 30
12 12 30
12 12 30
12 12 30
12 12 30
12 12 30
12 12 30
12 12 30
12 12 30
12 12 30
12 12 30
12 12 30
12 12 30
12 12 30
12 12 30
12 12 30
12 12 30
12 12 30
12 12 30
12 12 30
12 12 30
12 12 30
12 12 30
12 12 30
12 12 30
12 12 30
12 12 30
12 12 30
12 12 30
12 12 30
12 12 30
12 12 30
12 12 30
12 12 30
12 12 30
12 12 30
12 12 30
12 12 30
12 12 30
12 12 30
12 12 30
12 12 30
12 12 30
12 12 30
12 12 30
12 12 30
12 12 30
12 12 30
12 12 30
12 12 30
12 12 30
12 12 30
12 12 30
12 12 30
12 12 30
12 12 30
12 12 30
12 12 30
12 12 30
12 12 30
12 12 30
12 12 30
12 12 30
12 12 30
12 12 30
12 12 30
12 12 30
12 12 30
12 12 30
12 12 30
12 12 30
12 12 30
12 12 30
12 12 30
12 12 30
12 12 30
12 12 30
12 12 30
12 12 30
12 12 30
12 12 30
12 12 30
12 12 30
12 12 30
12 12 30
12 12 30
12 12 30
12 12 30
12 12 30
12 12 30
12 12 30
12 12 30
12 12 30
12 12 30
12 12 30
12 12 30
12 12 30
12 12 30
12 12 30
12 12 30
12 12 30
12 12 30
12 12 30
12 12 30
12 12 30
12 12 30
12 12 30
12 12 30
12 12 30
12 12 30
12 12 30
12 12 30
12 12 30
12 12 30
12 12 30
12 12 30
12 12 30
12 12 30
12 12 30
12 12 30
12 12 30
12 12 30
12 12 30
12 12 30
12 12 30
12 12 30
12 12 30
12 12 30
12 12 30
12 12 30
12 12 30
12 12 30
12 12 30
12 12 30
12 12 30
12 12 30
12 12 30
12 12 30
12 12 30
12 12 30
12 12 30
12 12 30
12 12 30
12 12 30
12 12 30
12 12 30
12 12 30
12 12 30
12 12 30
12 12 30
12 12 30
12 12 30
12 12 30
12 12 30
12 12 30
12 12 30
12 12 30
12 12 30
12 12 30
12 12 30
12 12 30
12 12 30
12 12 30
12 12 30
12 12 30
12 12 30
12 12 30
12 12 30
12 12 30
12 12 30
12 12 30
12 12 30
12 12 30
12 12 30
12 12 30
12 12 30
12 12 30
12 12 30
12 12 30
12 12 30
12 12 30
12 12 30
12 12 30
12 12 30
12 12 30
12 12 30
12 12 30
12 12 30
12 12 30
12 12 30
12 12 30
12 12 30
12 12 30
12 12 30
12 12 30
12 12 30
12 12 30
12 12 30
12 12 30
12 12 30
12 12 30
12 12 30
12 12 30
12 12 30
12 12 30
12 12 30
12 12 30
12 12 30
12 12 30
12 12 30
12 12 30
12 12 30
12 12 30
12 12 30
12 12 30
12 12 30
12 12 30
12 12 30
12 12 30
12 12 30
12 12 30
12 12 30
12 12 30
12 12 30
12 12 30
12 12 30
12 12 30
12 12 30
12 12 30
12 12 30
12 12 30
12 12 30
12 12 30
12 12 30
12 12 30
12 12 30
12 12 30
12 12 30
12 12 30
12 12 30
12 12 30
12 12 30
12 12 30
12 12 30
12 12 30
12 12 30
12 12 30
12 12 30
12 12 30
12 12 30
12 12 30
12 12 30
12 12 30
12 12 30
12 12 30
12 12 30
12 12 30
12 12 30
12 12 30
12 12 30
12 12 30
12 12 30
12 12 30
12 12 30
12 12 30
12 12 30
12 12 30
12 12 30
12 12 30
12 12 30
12 12 30
12 12 30
12 12 30
12 12 30
12 12 30
12 12 30
12 12 30
12 12 30
12 12 30
12 12 30
12 12 30
12 12 30
12 12 30
12 12 30
12 12 30
12 12 30
12 12 30
12 12 30
12 12 30
12 12 30
12 12 30
12 12 30
12 12 30
12 12 30
12 12 30
12 12 30
12 12 30
12 12 30
12 12 30
12 12 30
12 12 30
12 12 30
12 12 30
12 12 30
12 12 30
12 12 30
12 12 30
12 12 30
12 12 30
12 12 30
12 12 30
12 12 30
12 12 30
12 12 30
12 12 30
12 12 30
12 12 30
12 12 30
12 12 30
12 12 30
12 12 30
12 12 30
12 12 30
12 12 30
12 12 30
12 12 30
12 12 30
12 12 30
12 12 30
12 12 30
12 12 30
12 12 30
12 12 30
12 12 30
12 12 30
12 12 30
12 12 30
12 12 30
12 12 30
12 12 30
12 12 30
12 12 30
12 12 30
12 12 30
12 12 30
12 12 30
12 12 30
12 12 30
12 12 30
12 12 30
12 12 30
12 12 30
12 12 30
12 12 30
12 12 30
12 12 30
12 12 30
12 12 30
12 12 30
12 12 30
12 12 30
12 12 30
12 12 30
12 12 30
12 12 30
12 12 30
12 12 30
12 12 30
12 12 30
12 12 30
12 12 30
12 12 30
12 12 30
12 12 30
12 12 30
12 12 30
12 12 30
12 12 30
12 12 30
12 12 30
12 12 30
12 12 30
12 12 30
12 12 30
12 12 30
12 12 30
12 12 30
12 12 30
12 12 30
12 12 30
12 12 30
12 12 30
12 12 30
12 12 30
12 12 30
12 12 30
12 12 30
12 12 30
12 12 30
12 12 30
12 12 30
12 12 30
12 12 30
12 12 30
12 12 30
12 12 30
12 12 30
12 12 30
12 12 30
12 12 30
12 12 30
12 12 30
12 12 30
12 12 30
12 12 30
12 12 30
12 12 30
12 12 30
12 12 30
12 12 30
12 12 30
12 12 30
12 12 30
12 12 30
12 12 30
12 12 30
12 12 30
12 12 30
12 12 30
12 12 30
12 12 30
12 12 30
12 12 30
12 12 30
12 12 30
12 12 30
12 12 30
12 12 30
12 12 30
12 12 30
12 12 30
12 12 30
12 12 30
12 12 30
12 12 30
12 12 30
12 12 30
12 12 30
12 12 30
12 12 30
12 12 30
12 12 30
12 12 30
12 12 30
12 12 30
12 12 30
12 12 30
12 12 30
12 12 30
12 12 30
12 12 30
12 12 30
12 12 30
12 12 30
12 12 30
12 12 30
12 12 30
12 12 30
12 12 30
12 12 30
12 12 30
12 12 30
12 12 30
12 12 30
12 12 30
12 12 30
12 12 30
12 12 30
12 12 30
12 12 30
12 12 30
12 12 30
12 12 30
12 12 30
12 12 30
12 12 30
12 12 30
12 12 30
12 12 30
12 12 30
12 12 30
12 12 30
12 12 30
12 12 30
12 12 30
12 12 30
12 12 30
12 12 30
12 12 30
12 12 30
12 12 30
12 12 30
12 12 30
12 12 30
12 12 30
12 12 30
12 12 30
12 12 30
12 12 30
12 12 30
12 12 30
12 12 30
12 12 30
12 12 30
12 12 30
12 12 30
12 12 30
12 12 30
12 12 30
12 12 30
12 12 30
12 12 30
12 12 30
12 12 30
12 12 30
12 12 30
12 12 30
12 12 30
12 12 30
12 12 30
12 12 30
12 12 30
12 12 30
12 12 30
12 12 30
12 12 30
12 12 30
12 12 30
12 12 30
12 12 30
12 12 30
12 12 30
12 12 30
12 12 30
12 12 30
12 12 30
12 12 30
12 12 30
12 12 30
12 12 30
12 12 30
12 12 30
12 12 30
12 12 30
12 12 30
12 12 30
12 12 30
12 12 30
12 12 30
12 12 30
12 12 30
12 12 30
12 12 30
12 12 30
12 12 30
12 12 30
12 12 30
12 12 30
12 12 30
12 12 30
12 12 30
12 12 30
12 12 30
12 12 30
12 12 30
12 12 30
12 12 30
12 12 30
12 12 30
12 12 30
12 12 30
12 12 30
12 12 30
12 12 30
12 12 30
12 12 30
12 12 30
12 12 30
12 12 30
12 12 30
12 12 30
12 12 30
12 12 30
12 12 30
12 12 30
12 12 30
12 12 30
12 12 30
12 12 30
12 12 30
12 12 30
12 12 30
12 12 30
12 12 30
12 12 30
12 12 30
12 12 30
12 12 30
12 12 30
12 12 30
12 12 30
12 12 30
12 12 30
12 12 30
12 12 30
12 12 30
12 12 30
12 12 30
12 12 30
12 12 30
12 12 30
12 12 30
12 12 30
12 12 30
12 12 30
12 12 30
12 12 30
12 12 30
12 12 30
12 12 30
12 12 30
12 12 30
12 12 30
12 12 30
12 12 30
12 12 30
12 12 30
12 12 30
12 12 30
12 12 30
12 12 30
12 12 30
12 12 30
12 12 30
12 12 30
12 12 30
12 12 30
12 12 30
12 12 30
12 12 30
12 12 30
12 12 30
12 12 30
12 12 30
12 12 30
12 12 30
12 12 30
12 12 30
12 12 30
12 12 30
12 12 30
12 12 30
12 12 30
12 12 30
12 12 30
12 12 30
12 12 30
12 12 30
12 12 30
12 12 30
12 12 30
12 12 30
12 12 30
12 12 30
12 12 30
12 12 30
12 12 30
12 12 30
12 12 30
12 12 30
12 12 30
12 12 30
12 12 30
12 12 30
12 12 30
12 12 30
12 12 30
12 12 30
12 12 30
12 12 30
12 12 30
12 12 30
12 12 30
12 12 30
12 12 30
12 12 30
12 12 30
12 12 30
12 12 30
12 12 30
12 12 30
12 12 30
12 12 30
12 12 30
12 12 30
12 12 30
12 12 30
12 12 30
12 12 30
12 12 30
12 12 30
12 12 30
12 12 30
12 12 30
12 12 30
12 12 30
12 12 30
12 12 30
12 12 30
12 12 30
12 12 30
12 12 30
12 12 30
12 12 30
12 12 30
12 12 30
12 12 30
12 12 30
12 12 30
12 12 30
12 12 30
12 12 30
12 12 30
12 12 30
12 12 30
12 12 30
12 12 30
12 12 30
12 12 30
12 12 30
12 12 30
12 12 30
12 12 30
12 12 30
12 12 30
12 12 30
12 12 30
12 12 30
12 12 30
12 12 30
12 12 30
12 12 30
12 12 30
12 12 30
12 12 30
12 12 30
12 12 30
12 12 30
12 12 30
12 12 30
12 12 30
12 12 30
12 12 30
12 12 30
12 12 30
12 12 30
12 12 30
12 12 30
12 12 30
12 12 30
12 12 30
12 12 30
12 12 30
12 12 30
12 12 30
12 12 30
12 12 30
12 12 30
12 12 30
12 12 30
12 12 30
12 12 30
12 12 30
12 12 30
12 12 30
12 12 30
12 12 30
12 12 30
12 12 30
12 12 30
12 12 30
12 12 30
12 12 30
12 12 30
12 12 30
12 12 30
12 12 30
12 12 30
12 12 30
12 12 30
12 12 30
12 12 30
12 12 30
12 12 30
12 12 30
12 12 30
12 12 30
12 12 30
12 12 30
12 12 30
12 12 30
12 12 30
12 12 30
12 12 30
12 12 30
12 12 30
12 12 30
12 12 30
12 12 30
12 12 30
12 12 30
12 12 30
12 12 30
12 12 30
12 12 30
12 12 30
12 12 30
12 12 30
12 12 30
12 12 30
12 12 30
12 12 30
12 12 30
12 12 30
12 12 30
12 12 30
12 12 30
12 12 30
12 12 30
12 12 30
12 12 30
12 12 30
12 12 30
12 12 30
12 12 30
12 12 30
12 12 30
12 12 30
12 12 30
12 12 30
12 12 30
12 12 30
12 12 30
12 12 30
12 12 30
12 12 30
12 12 30
12 12 30
12 12 30
12 12 30
12 12 30
12 12 30
12 12 30
12 12 30
12 12 30
12 12 30
12 12 30
12 12 30
12 12 30
12 12 30
12 12 30
12 12 30
12 12 30
12 12 30
12 12 30
12 12 30
12 12 30
12 12 30
12 12 30
12 12 30
12 12 30
12 12 30
12 12 30
12 12 30
12 12 30
12 12 30
12 12 30
12 12 30
12 12 30
12 12 30
12 12 30
12 12 30
12 12 30
12 12 30
12 12 30
12 12 30
12 12 30
12 12 30
12 12 30
12 12 30
12 12 30
12 12 30
12 12 30
12 12 30
12 12 30
12 12 30
12 12 30
12 12 30
12 12 30
12 12 30
12 12 30
12 12 30
12 12 30
12 12 30
12 12 30
12 12 30
12 12 30
12 12 30
12 12 30
12 12 30
12 12 30
12 12 30
12 12 30
12 12 30
12 12 30
12 12 30
12 12 30
12 12 30
12 12 30
12 12 30
12 12 30
12 12 30
12 12 30
12 12 30
12 12 30
12 12 30
12 12 30
12 12 30
12 12 30
12 12 30
12 12 30
12 12 30
12 12 30
12 12 30
12 12 30
12 12 30
12 12 30
12 12 30
12 12 30
12 12 30
12 12 30
12 12 30
12 12 30
12 12 30
12 12 30
12 12 30
12 12 30
12 12 30
12 12 30
12 12 30
12 12 30
12 12 30
12 12 30
12 12 30
12 12 30
12 12 30
12 12 30
12 12 30
12 12 30
12 12 30
12 12 30
12 12 30
12 12 30
12 12 30
12 12 30
12 12 30
12 12 30
12 12 30
12 12 30
12 12 30
12 12 30
12 12 30
12 12 30
12 12 30
12 12 30
12 12 30
12 12 30
12 12 30
12 12 30
12 12 30
12 12 30
12 12 30
12 12 30
12 12 30
12 12 30
12 12 30
12 12 30
12 12 30
12 12 30
12 12 30
12 12 30
12 12 30
12 12 30
12 12 30
12 12 30
12 12 30
12 12 30
12 12 30
12 12 30
12 12 30
12 12 30
12 12 30
12 12 30
12 12 30
12 12 30
12 12 30
12 12 30
12 12 30
12 12 30
12 12 30
12 12 30
12 12 30
12 12 30
12 12 30
12 12 30
12 12 30
12 12 30
12 12 30
12 12 30
12 12 30
12 12 30
12 12 30
12 12 30
12 12 30
12 12 30
12 12 30
12 12 30
12 12 30
12 12 30
12 12 30
12 12 30
12 12 30
12 12 30
12 12 30
12 12 30
12 12 30
12 12 30
12 12 30
12 12 30
12 12 30
12 12 30
12 12 30
12 12 30
12 12 30
12 12 30
12 12 30
12 12 30
12 12 30
12 12 30
12 12 30
12 12 30
12 12 30
12 12 30
12 12 30
12 12 30
12 12 30
12 12 30
12 12 30
12 12 30
12 12 30
12 12 30
12 12 30
12 12 30
12 12 30
12 12 30
12 12 30
12 12 30
12 12 30
12 12 30
12 12 30
12 12 30
12 12 30
12 12 30
12 12 30
12 12 30
12 12 30
12 12 30
12 12 30
12 12 30
12 12 30
12 12 30
12 12 30
12 12 30
12 12 30
12 12 30
12 12 30
12 12 30
12 12 30
12 12 30
12 12 30
12 12 30
12 12 30
12 12 30
12 12 30
12 12 30
12 12 30
12 12 30
12 12 30
12 12 30
12 12 30
12 12 30
12 12 30
12 12 30
12 12 30
12 12 30
12 12 30
12 12 30
12 12 30
12 12 30
12 12 30
12 12 30
12 12 30
12 12 30
12 12 30
12 12 30
12 12 30
12 12 30
12 12 30
12 12 30
12 12 30
12 12 30
12 12 30
12 12 30
12 12 30
12 12 30
12 12 30
12 12 30
12 12 30
12 12 30
12 12 30
12 12 30
12 12 30
12 12 30
12 12 30
12 12 30
12 12 30
12 12 30
12 12 30
12 12 30
12 12 30
12 12 30
12 12 30
12 12 30
12 12 30
12 12 30
12 12 30
12 12 30
12 12 30
12 12 30
12 12 30
12 12 30
12 12 30
12 12 30
12 12 30
12 12 30
12 12 30
12 12 30
12 12 30
12 12 30
12 12 30
12 12 30
12 12 30
12 12 30
12 12 30
12 12 30
12 12 30
12 12 30
12 12 30
12 12 30
12 12 30
12 12 30
12 12 30
12 12 30
12 12 30
12 12 30
12 12 30
12 12 30
12 12 30
12 12 30
12 12 30
12 12 30
12 12 30
12 12 30
12 12 30
12 12 30
12 12 30
12 12 30
12 12 30
12 12 30
12 12 30
12 12 30
12 12 30
12 12 30
12 12 30
12 12 30
12 12 30
12 12 30
12 12 30
12 12 30
12 12 30
12 12 30
12 12 30
12 12 30
12 12 30
12 12 30
12 12 30
12 12 30
12 12 30
12 12 30
12 12 30
12 12 30
12 12 30
12 12 30
12 12 30
12 12 30
12 12 30
12 12 30
12 12 30
12 12 30
12 12 30
12 12 30
12 12 30
12 12 30
12 12 30
12 12 30
12 12 30
12 12 30
12 12 30
12 12 30
12 12 30
12 12 30
12 12 30
12 12 30
12 12 30
12 12 30
12 12 30
12 12 30
12 12 30
12 12 30
12 12 30
12 12 30
12 12 30
12 12 30
12 12 30
12 12 30
12 12 30
12 12 30
12 12 30
12 12 30
12 12 30
12 12 30
12 12 30
12 12 30
12 12 30
12 12 30
12 12 30
12 12 30
12 12 30
12 12 30
12 12 30
12 12 30
12 12 30
12 12 30
12 12 30
12 12 30
12 12 30
12 12 30
12 12 30
12 12 30
12 12 30
12 12 30
12 12 30
12 12 30
12 12 30
12 12 30
12 12 30
12 12 30
12 12 30
12 12 30
12 12 30
12 12 30
12 12 30
12 12 30
12 12 30
12 12 30
12 12 30
12 12 30
12 12 30
12 12 30
12 12 30
12 12 30
12 12 30
12 12 30
12 12 30
12 12 30
12 12 30
12 12 30
12 12 30
12 12 30
12 12 30
12 12 30
12 12 30
12 12 30
12 12 30
12 12 30
12 12 30
12 12 30
12 12 30
12 12 30
12 12 30
12 12 30
12 12 30
12 12 30
12 12 30
12 12 30
12 12 30
12 12 30
12 12 30
12 12 30
12 12 30
12 12 30
12 12 30
12 12 30
12 12 30
12 12 30
12 12 30
12 12 30
12 12 30
12 12 30
12 12 30
12 12 30
12 12 30
12 12 30
12 12 30
12 12 30
12 12 30
12 12 30
12 12 30
12 12 30
12 12 30
12 12 30
12 12 30
12 12 30
12 12 30
12 12 30
12 12 30
12 12 30
12 12 30
12 12 30
12 12 30
12 12 30
12 12 30
12 12 30
12 12 30
12 12 30
12 12 30
12 12 30
12 12 30
12 12 30
12 12 30
12 12 30
12 12 30
12 12 30
12 12 30
12 12 30
12 12 30
12 12 30
12 12 30
12 12 30
12 12 30
12 12 30
12 12 30
12 12 30
12 12 30
12 12 30
12 12 30
12 12 30
12 12 30
12 12 30
12 12 30
12 12 30
12 12 30
12 12 30
12 12 30
12 12 30
12 12 30
12 12 30
12 12 30
12 12 30
12 12 30
12 12 30
12 12 30
12 12 30
12 12 30
12 12 30
12 12 30
12 12 30
12 12 30
12 12 30
12 12 30
12 12 30
12 12 30
12 12 30
12 12 30
12 12 30
12 12 30
12 12 30
12 12 30
12 12 30
12 12 30
12 12 30
12 12 30
12 12 30
12 12 30
12 12 30
12 12 30
12 12 30
12 12 30
12 12 30
12 12 30
12 12 30
12 12 30
12 12 30
12 12 30
12 12 30
12 12 30
12 12 30
12 12 30
12 12 30
12 12 30
12 12 30
12 12 30
12 12 30
12 12 30
12 12 30
12 12 30
12 12 30
12 12 30
12 12 30
12 12 30
12 12 30
12 12 30
12 12 30
12 12 30
12 12 30
12 12 30
12 12 30
12 12 30
12 12 30
12 12 30
12 12 30
12 12 30
12 12 30
12 12 30
12 12 30
12 12 30
12 12 30
12 12 30
12 12 30
12 12 30
12 12 30
12 12 30
12 12 30
12 12 30
12 12 30
12 12 30
12 12 30
12 12 30
12 12 30
12 12 30
12 12 30
12 12 30
12 12 30
12 12 30
12 12 30
12 12 30
12 12 30
12 12 30
12 12 30
12 12 30
12 12 30
12 12 30
12 12 30
12 12 30
12 12 30
12 12 30
12 12 30
12 12 30
12 12 30
12 12 30
12 12 30
12 12 30
12 12 30
12 12 30
12 12 30
12 12 30
12 12 30
12 12 30
12 12 30
12 12 30
12 12 30
12 12 30
12 12 30
12 12 30
12 12 30
12 12 30
12 12 30
12 12 30
12 12 30
12 12 30
12 12 30
12 12 30
12 12 30
12 12 30
12 12 30
12 12 30
12 12 30
12 12 30
12 12 30
12 12 30
12 12 30
12 12 30
12 12 30
12 12 30
12 12 30
12 12 30
12 12 30
12 12 30
12 12 30
12 12 30
12 12 30
12 12 30
12 12 30
12 12 30
12 12 30
12 12 30
12 12 30
12 12 30
12 12 30
12 12 30
12 12 30
12 12 30
12 12 30
12 12 30
12 12 30
12 12 30
12 12 30
12 12 30
12 12 30
12 12 30
12 12 30
12 12 30
12 12 30
12 12 30
12 12 30
12 12 30
12 12 30
12 12 30
12 12 30
12 12 30
12 12 30
12 12 30
12 12 30
12 12 30
12 12 30
12 12 30
12 12 30
12 12 30
12 12 30
12 12 30
12 12 30
12 12 30
12 12 30
12 12 30
12 12 30
12 12 30
12 12 30
12 12 30
12 12 30
12 12 30
12 12 30
12 12 30
12 12 30
12 12 30
12 12 30
12 12 30
12 12 30
12 12 30
12 12 30
12 12 30
12 12 30
12 12 30
12 12 30
12 12 30
12 12 30
12 12 30
12 12 30
12 12 30
12 12 30
12 12 30
12 12 30
12 12 30
12 12 30
12 12 30
12 12 30
12 12 30
12 12 30
12 12 30
12 12 30
12 12 30
12 12 30
12 12 30
12 12 30
12 12 30
12 12 30
12 12 30
12 12 30
12 12 30
12 12 30
12 12 30
12 12 30
12 12 30
12 12 30
12 12 30
12 12 30
12 12 30
12 12 30
12 12 30
12 12 30
12 12 30
12 12 30
12 12 30
12 12 30
12 12 30
12 12 30
12 12 30
12 12 30
12 12 30
12 12 30
12 12 30
12 12 30
12 12 30
12 12 30
12 12 30
12 12 30
12 12 30
12 12 30
12 12 30
12 12 30
12 12 30
12 12 30
12 12 30
12 12 30
12 12 30
12 12 30
12 12 30
12 12 30
12 12 30
12 12 30
12 12 30
12 12 30
12 12 30
12 12 30
12 12 30
12 12 30
12 12 30
12 12 30
12 12 30
12 12 30
12 12 30
12 12 30
12 12 30
12 12 30
12 12 30
12 12 30
12 12 30
12 12 30
12 12 30
12 12 30
12 12 30
12 12 30
12 12 30
12 12 30
12 12 30
12 12 30
12 12 30
12 12 30
12 12 30
12 12 30
12 12 30
12 12 30
12 12 30
12 12 30
12 12 30
12 12 30
12 12 30
12 12 30
12 12 30
12 12 30
12 12 30
12 12 30
12 12 30
12 12 30
12 12 30
12 12 30
12 12 30
12 12 30
12 12 30
12 12 30
12 12 30
12 12 30
12 12 30
12 12 30
12 12 30
12 12 30
12 12 30
12 12 30
12 12 30
12 12 30
12 12 30
12 12 30
12 12 30
12 12 30
12 12 30
12 12 30
12 12 30
12 12 30
12 12 30
12 12 30
12 12 30
12 12 30
12 12 30
12 12 30
12 12 30
12 12 30
12 12 30
12 12 30
12 12 30
12 12 30
12 12 30
12 12 30
12 12 30
12 12 30
12 12 30
12 12 30
12 12 30
12 12 30
12 12 30
12 12 30
12 12 30
12 12 30
12 12 30
12 12 30
12 12 30
12 12 30
12 12 30
12 12 30
12 12 30
12 12 30
12 12 30
12 12 30
12 12 30
12 12 30
12 12 30
12 12 30
12 12 30
12 12 30
12 12 30
12 12 30
12 12 30
12 12 30
12 12 30
12 12 30
12 12 30
12 12 30
12 12 30
12 12 30
12 12 30
12 12 30
12 12 30
12 12 30
12 12 30
12 12 30
12 12 30
12 12 30
12 12 30
12 12 30
12 12 30
12 12 30
12 12 30
12 12 30
12 12 30
12 12 30
12 12 30
12 12 30
12 12 30
12 12 30
12 12 30
12 12 30
12 12 30
12 12 30
12 12 30
12 12 30
12 12 30
12 12 30
12 12 30
12 12 30
12 12 30
12 12 30
12 12 30
12 12 30
12 12 30
12 12 30
12 12 30
12 12 30
12 12 30
12 12 30
12 12 30
12 12 30
12 12 30
12 12 30
12 12 30
12 12 30
12 12 30
12 12 30
12 12 30
12 12 30
12 12 30
12 12 30
12 12 30
12 12 30
12 12 30
12 12 30
12 12 30
12 12 30
12 12 30
12 12 30
12 12 30
12 12 30
12 12 30
12 12 30
12 12 30
12 12 30
12 12 30
12 12 30
12 12 30
12 12 30
12 12 30
12 12 30
12 12 30
12 12 30
12 12 30
12 12 30
12 12 30
12 12 30
12 12 30
12 12 30
12 12 30
12 12 30
12 12 30
12 12 30
12 12 30
12 12 30
12 12 30
12 12 30
12 12 30
12 12 30
12 12 30
12 12 30
12 12 30
12 12 30
12 12 30
12 12 30
12 12 30
12 12 30
12 12 30
12 12 30
12 12 30
12 12 30
12 12 30
12 12 30
12 12 30
12 12 30
12 12 30
12 12 30
12 12 30
12 12 30
12 12 30
12 12 30
12 12 30
12 12 30
12 12 30
12 12 30
12 12 30
12 12 30
12 12 30
12 12 30
12 12 30
12 12 30
12 12 30
12 12 30
12 12 30
12 12 30
12 12 30
12 12 30
12 12 30
12 12 30
12 12 30
12 12 30
12 12 30
12 12 30
12 12 30
12 12 30
12 12 30
12 12 30
12 12 30
12 12 30
12 12 30
12 12 30
12 12 30
12 12 30
12 12 30
12 12 30
12 12 30
12 12 30
12 12 30
12 12 30
12 12 30
12 12 30
12 12 30
12 12 30
12 12 30
12 12 30
12 12 30
12 12 30
12 12 30
12 12 30
12 12 30
12 12 30
12 12 30
12 12 30
12 12 30
12 12 30
12 12 30
12 12 30
12 12 30
12 12 30
12 12 30
12 12 30
12 12 30
12 12 30
12 12 30
12 12 30
12 12 30
12 12 30
12 12 30
12 12 30
12 12 30
12 12 30
12 12 30
12 12 30
12 12 30
12 12 30
12 12 30
12 12 30
12 12 30
12 12 30
12 12 30
12 12 30
12 12 30
12 12 30
12 12 30
12 12 30
12 12 30
12 12 30
12 12 30
12 12 30
12 12 30
12 12 30
12 12 30
12 12 30
12 12 30
12 12 30
12 12 30
12 12 30
12 12 30
12 12 30
12 12 30
12 12 30
12 12 30
12 12 30
12 12 30
12 12 30
12 12 30
12 12 30
12 12 30
12 12 30
12 12 30
12 12 30
12 12 30
12 12 30
12 12 30
12 12 30
12 12 30
12 12 30
12 12 30
12 12 30
12 12 30
12 12 30
12 12 30
12 12 30
12 12 30
12 12 30
12 12 30
12 12 30
12 12 30
12 12 30
12 12 30
12 12 30
12 12 30
12 12 30
12 12 30
12 12 30
12 12 30
12 12 30
12 12 30
12 12 30
12 12 30
12 12 30
12 12 30
12 12 30
12 12 30
12 12 30
12 12 30
12 12 30
12 12 30
12 12 30
12 12 30
12 12 30
12 12 30
12 12 30
12 12 30
12 12 30
12 12 30
12 12 30
12 12 30
12 12 30
12 12 30
12 12 30
12 12 30
12 12 30
12 12 30
12 12 30
12 12 30
12 12 30
12 12 30
12 12 30
12 12 30
12 12 30
12 12 30
12 12 30
12 12 30
12 12 30
12 12 30
12 12 30
12 12 30
12 12 30
12 12 30
12 12 30
12 12 30
12 12 30
12 12 30
12 12 30
12 12 30
12 12 30
12 12 30
12 12 30
12 12 30
12 12 30
12 12 30
12 12 30
12 12 30
12 12 30
12 12 30
12 12 30
12 12 30
12 12 30
12 12 30
12 12 30
12 12 30
12 12 30
12 12 30
12 12 30
12 12 30
12 12 30
12 12 30
12 12 30
12 12 30
12 12 30
12 12 30
12 12 30
12 12 30
12 12 30
12 12 30
12 12 30
12 12 30
12 12 30
12 12 30
12 12 30
12 12 30
12 12 30
12 12 30
12 12 30
12 12 30
12 12 30
12 12 30
12 12 30
12 12 30
12 12 30
12 12 30
12 12 30
12 12 30
12 12 30
12 12 30
12 12 30
12 12 30
12 12 30
12 12 30
12 12 30
12 12 30
12 12 30
12 12 30
12 12 30
12 12 30
12 12 30
12 12 30
12 12 30
12 12 30
12 12 30
12 12 30
12 12 30
12 12 30
12 12 30
12 12 30
12 12 30
12 12 30
12 12 30
12 12 30
12 12 30
12 12 30
12 12 30
12 12 30
12 12 30
12 12 30
12 12 30
12 12 30
12 12 30
12 12 30
12 12 30
12 12 30
12 12 30
12 12 30
12 12 30
12 12 30
12 12 30
12 12 30
12 12 30
12 12 30
12 12 30
12 12 30
12 12 30
12 12 30
12 12 30
12 12 30
12 12 30
12 12 30
12 12 30
12 12 30
12 12 30
12 12 30
12 12 30
12 12 30
12 12 30
12 12 30
12 12 30
12 12 30
12 12 30
12 12 30
12 12 30
12 12 30
12 12 30
12 12 30
12 12 30
12 12 30
12 12 30
12 12 30
12 12 30
12 12 30
12 12 30
12 12 30
12 12 30
12 12 30
12 12 30
12 12 30
12 12 30
12 12 30
12 12 30
12 12 30
12 12 30
12 12 30
12 12 30
12 12 30
12 12 30
12 12 30
12 12 30
12 12 30
12 12 30
12 12 30
12 12 30
12 12 30
12 12 30
12 12 30
12 12 30
12 12 30
12 12 30
12 12 30
12 12 30
12 12 30
12 12 30
12 12 30
12 12 30
12 12 30
12 12 30
12 12 30
12 12 30
12 12 30
12 12 30
12 12 30
12 12 30
12 12 30
12 12 30
12 12 30
12 12 30
12 12 30
12 12 30
12 12 30
12 12 30
12 12 30
12 12 30
12 12 30
12 12 30
12 12 30
12 12 30
12 12 30
12 12 30
12 12 30
12 12 30
12 12 30
12 12 30
12 12 30
12 12 30
12 12 30
12 12 30
12 12 30
12 12 30
12 12 30
12 12 30
12 12 30
12 12 30
12 12 30
12 12 30
12 12 30
12 12 30
12 12 30
12 12 30
12 12 30
12 12 30
12 12 30
12 12 30
12 12 30
12 12 30
12 12 30
12 12 30
12 12 30
12 12 30
12 12 30
12 12 30
12 12 30
12 12 30
12 12 30
12 12 30
12 12 30
12 12 30
12 12 30
12 12 30
12 12 30
12 12 30
12 12 30
12 12 30
12 12 30
12 12 30
12 12 30
12 12 30
12 12 30
12 12 30
12 12 30
12 12 30
12 12 30
12 12 30
12 12 30
12 12 30
12 12 30
12 12 30
12 12 30
12 12 30
12 12 30
12 12 30
12 12 30
12 12 30
12 12 30
12 12 30
12 12 30
12 12 30
12 12 30
12 12 30
12 12 30
12 12 30
12 12 30
12 12 30
12 12 30
12 12 30
12 12 30
12 12 30
12 12 30
12 12 30
12 12 30
12 12 30
12 12 30
12 12 30
12 12 30
12 12 30
12 12 30
12 12 30
12 12 30
12 12 30
12 12 30
12 12 30
12 12 30
12 12 30
12 12 30
12 12 30
12 12 30
12 12 30
12 12 30
12 12 30
12 12 30
12 12 30
12 12 30
12 12 30
12 12 30
12 12 30
12 12 30
12 12 30
12 12 30
12 12 30
12 12 30
12 12 30
12 12 30
12 12 30
12 12 30
12 12 30
12 12 30
12 12 30
12 12 30
12 12 30
12 12 30
12 12 30
12 12 30
12 12 30
12 12 30
12 12 30
12 12 30
12 12 30
12 12 30
12 12 30
12 12 30
12 12 30
12 12 30
12 12 30
12 12 30
12 12 30
12 12 30
12 12 30
12 12 30
12 12 30
12 12 30
12 12 30
12 12 30
12 12 30
12 12 30
12 12 30
12 12 30
12 12 30
12 12 30
12 12 30
12 12 30
12 12 30
12 12 30
12 12 30
12 12 30
12 12 30
12 12 30
12 12 30
12 12 30
12 12 30
12 12 30
12 12 30
12 12 30
12 12 30
12 12 30
12 12 30
12 12 30
12 12 30
12 12 30
12 12 30
12 12 30
12 12 30
12 12 30
12 12 30
12 12 30
12 12 30
12 12 30
12 12 30
12 12 30
12 12 30
12 12 30
12 12 30
12 12 30
12 12 30
12 12 30
12 12 30
12 12 30
12 12 30
12 12 30
12 12 30
12 12 30
12 12 30
12 12 30
12 12 30
12 12 30
12 12 30
12 12 30
12 12 30
12 12 30
12 12 30
12 12 30
12 12 30
12 12 30
12 12 30
12 12 30
12 12 30
12 12 30
12 12 30
12 12 30
12 12 30
12 12 30
12 12 30
12 12 30
12 12 30
12 12 30
12 12 30
12 12 30
12 12 30
12 12 30
12 12 30
12 12 30
12 12 30
12 12 30
12 12 30
12 12 30
12 12 30
12 12 30
12 12 30
12 12 30
12 12 30
12 12 30
12 12 30
12 12 30
12 12 30
12 12 30
12 12 30
12 12 30
12 12 30
12 12 30
12 12 30
12 12 30
12 12 30
12 12 30
12 12 30
12 12 30
12 12 30
12 12 30
12 12 30
12 12 30
12 12 30
12 12 30
12 12 30
12 12 30
12 12 30
12 12 30
12 12 30
12 12 30
12 12 30
12 12 30
12 12 30
12 12 30
12 12 30
12 12 30
12 12 30
12 12 30
12 12 30
12 12 30
12 12 30
12 12 30
12 12 30
12 12 30
12 12 30
12 12 30
12 12 30
12 12 30
12 12 30
12 12 30
12 12 30
12 12 30
12 12 30
12 12 30
12 12 30
12 12 30
12 12 30
12 12 30
12 12 30
12 12 30
12 12 30
12 12 30
12 12 30
12 12 30
12 12 30
12 12 30
12 12 30
12 12 30
12 12 30
12 12 30
12 12 30
12 12 30
12 12 30
12 12 30
12 12 30
12 12 30
12 12 30
12 12 30
12 12 30
12 12 30
12 12 30
12 12 30
12 12 30
12 12 30
12 12 30
12 12 30
12 12 30
12 12 30
12 12 30
12 12 30
12 12 30
12 12 30
12 12 30
12 12 30
12 12 30
12 12 30
12 12 30
12 12 30
12 12 30
12 12 30
12 12 30
12 12 30
12 12 30
12 12 30
12 12 30
12 12 30
12 12 30
12 12 30
12 12 30
12 12 30
12 12 30
12 12 30
12 12 30
12 12 30
12 12 30
12 12 30
12 12 30
12 12 30
12 12 30
12 12 30
12 12 30
12 12 30
12 12 30
12 12 30
12 12 30
12 12 30
12 12 30
12 12 30
12 12 30
12 12 30
12 12 30
12 12 30
12 12 30
12 12 30
12 12 30
12 12 30
12 12 30
12 12 30
12 12 30
12 12 30
12 12 30
12 12 30
12 12 30
12 12 30
12 12 30
12 12 30
12 12 30
12 12 30
12 12 30
12 12 30
12 12 30
12 12 30
12 12 30
12 12 30
12 12 30
12 12 30
12 12 30
12 12 30
12 12 30
12 12 30
12 12 30
12 12 30
12 12 30
12 12 30
12 12 30
12 12 30
12 12 30
12 12 30
12 12 30
12 12 30
12 12 30
12 12 30
12 12 30
12 12 30
12 12 30
12 12 30
12 12 30
12 12 30
12 12 30
12 12 30
12 12 30
12 12 30
12 12 30
12 12 30
12 12 30
12 12 30
12 12 30
12 12 30
12 12 30
12 12 30
12 12 30
12 12 30
12 12 30
12 12 30
12 12 30
12 12 30
12 12 30
12 12 30
12 12 30
12 12 30
12 12 30
12 12 30
12 12 30
12 12 30
12 12 30
12 12 30
12 12 30
12 12 30
12 12 30
12 12 30
12 12 30
12 12 30
12 12 30
12 12 30
12 12 30
12 12 30
12 12 30
12 12 30
12 12 30
12 12 30
12 12 30
12 12 30
12 12 30
12 12 30
12 12 30
12 12 30
12 12 30
12 12 30
12 12 30
12 12 30
12 12 30
12 12 30
12 12 30
12 12 30
12 12 30
12 12 30
12 12 30
12 12 30
12 12 30
12 12 30
12 12 30
12 12 30
12 12 30
12 12 30
12 12 30
12 12 30
12 12 30
12 12 30
12 12 30
12 12 30
12 12 30
12 12 30
12 12 30
12 12 30
12 12 30
12 12 30
12 12 30
12 12 30
12 12 30
12 12 30
12 12 30
12 12 30
12 12 30
12 12 30
12 12 30
12 12 30
12 12 30
12 12 30
12 12 30
12 12 30
12 12 30
12 12 30
12 12 30
12 12 30
12 12 30
12 12 30
12 12 30
12 12 30
12 12 30
12 12 30
12 12 30
12 12 30
12 12 30
12 12 30
12 12 30
12 12 30
12 12 30
12 12 30
12 12 30
12 12 30
12 12 30
12 12 30
12 12 30
12 12 30
12 12 30
12 12 30
12 12 30
12 12 30
12 12 30
12 12 30
12 12 30
12 12 30
12 12 30
12 12 30
12 12 30
12 12 30
12 12 30
12 12 30
12 12 30
12 12 30
12 12 30
12 12 30
12 12 30
12 12 30
12 12 30
12 12 30
12 12 30
12 12 30
12 12 30
12 12 30
12 12 30
12 12 30
12 12 30
12 12 30
12 12 30
12 12 30
12 12 30
12 12 30
12 12 30
12 12 30
12 12 30
12 12 30
12 12 30
12 12 30
12 12 30
12 12 30
12 12 30
12 12 30
12 12 30
12 12 30
12 12 30
12 12 30
12 12 30
12 12 30
12 12 30
12 12 30
12 12 30
12 12 30
12 12 30
12 12 30
12 12 30
12 12 30
12 12 30
12 12 30
12 12 30
12 12 30
12 12 30
12 12 30
12 12 30
12 12 30
12 12 30
12 12 30
12 12 30
12 12 30
12 12 30
12 12 30
12 12 30
12 12 30
12 12 30
12 12 30
12 12 30
12 12 30
12 12 30
12 12 30
12 12 30
12 12 30
12 12 30
12 12 30
12 12 30
12 12 30
12 12 30
12 12 30
12 12 30
12 12 30
12 12 30
12 12 30
12 12 30
12 12 30
12 12 30
12 12 30
12 12 30
12 12 30
12 12 30
12 12 30
12 12 30
12 12 30
12 12 30
12 12 30
12 12 30
12 12 30
12 12 30
12 12 30
12 12 30
12 12 30
12 12 30
12 12 30
12 12 30
12 12 30
12 12 30
12 12 30
12 12 30
12 12 30
12 12 30
12 12 30
12 12 30
12 12 30
12 12 30
12 12 30
12 12 30
12 12 30
12 12 30
12 12 30
12 12 30
12 12 30
12 12 30
12 12 30
12 12 30
12 12 30
12 12 30
12 12 30
12 12 30
12 12 30
12 12 30
12 12 30
12 12 30
12 12 30
12 12 30
12 12 30
12 12 30
12 12 30
12 12 30
12 12 30
12 12 30
12 12 30
12 12 30
12 12 30
12 12 30
12 12 30
12 12 30
12 12 30
12 12 30
12 12 30
12 12 30
12 12 30
12 12 30
12 12 30
12 12 30
12 12 30
12 12 30
12 12 30
12 12 30
12 12 30
12 12 30
12 12 30
12 12 30
12 12 30
12 12 30
12 12 30
12 12 30
12 12 30
12 12 30
12 12 30
12 12 30
12 12 30
12 12 30
12 12 30
12 12 30
12 12 30
12 12 30
12 12 30
12 12 30
12 12 30
12 12 30
12 12 30
12 12 30
12 12 30
12 12 30
12 12 30
12 12 30
12 12 30
12 12 30
12 12 30
12 12 30
12 12 30
12 12 30
12 12 30
12 12 30
12 12 30
12 12 30
12 12 30
12 12 30
12 12 30
12 12 30
12 12 30
12 12 30
12 12 30
12 12 30
12 12 30
12 12 30
12 12 30
12 12 30
12 12 30
12 12 30
12 12 30
12 12 30
12 12 30
12 12 30
12 12 30
12 12 30
12 12 30
12 12 30
12 12 30
12 12 30
12 12 30
12 12 30
12 12 30
12 12 30
12 12 30
12 12 30
12 12 30
12 12 30
12 12 30
12 12 30
12 12 30
12 12 30
12 12 30
12 12 30
12 12 30
12 12 30
12 12 30
12 12 30
12 12 30
12 12 30
12 12 30
12 12 30
12 12 30
12 12 30
12 12 30
12 12 30
12 12 30
12 12 30
12 12 30
12 12 30
12 12 30
12 12 30
12 12 30
12 12 30
12 12 30
12 12 30
12 12 30
12 12 30
12 12 30
12 12 30
12 12 30
12 12 30
12 12 30
12 12 30
12 12 30
12 12 30
12 12 30
12 12 30
12 12 30
12 12 30
12 12 30
12 12 30
12 12 30
12 12 30
12 12 30
12 12 30
12 12 30
12 12 30
12 12 30
12 12 30
12 12 30
12 12 30
12 12 30
12 12 30
12 12 30
12 12 30
12 12 30
12 12 30
12 12 30
12 12 30
12 12 30
12 12 30
12 12 30
12 12 30
12 12 30
12 12 30
12 12 30
12 12 30
12 12 30
12 12 30
12 12 30
12 12 30
12 12 30
12 12 30
12 12 30
12 12 30
12 12 30
12 12 30
12 12 30
12 12 30
12 12 30
12 12 30
12 12 30
12 12 30
12 12 30
12 12 30
12 12 30
12 12 30
12 12 30
12 12 30
12 12 30
12 12 30
12 12 30
12 12 30
12 12 30
12 12 30
12 12 30
12 12 30
12 12 30
12 12 30
12 12 30
12 12 30
12 12 30
12 12 30
12 12 30
12 12 30
12 12 30
12 12 30
12 12 30
12 12 30
12 12 30
12 12 30
12 12 30
12 12 30
12 12 30
12 12 30
12 12 30
12 12 30
12 12 30
12 12 30
12 12 30
12 12 30
12 12 30
12 12 30
12 12 30
12 12 30
12 12 30
12 12 30
12 12 30
12 12 30
12 12 30
12 12 30
12 12 30
12 12 30
12 12 30
12 12 30
12 12 30
12 12 30
12 12 30
12 12 30
12 12 30
12 12 30
12 12 30
12 12 30
12 12 30
12 12 30
12 12 30
12 12 30
12 12 30
12 12 30
12 12 30
12 12 30
12 12 30
12 12 30
12 12 30
12 12 30
12 12 30
12 12 30
12 12 30
12 12 30
12 12 30
12 12 30
12 12 30
12 12 30
12 12 30
12 12 30
12 12 30
12 12 30
12 12 30
12 12 30
12 12 30
12 12 30
12 12 30
12 12 30
12 12 30
12 12 30
12 12 30
12 12 30
12 12 30
12 12 30
12 12 30
12 12 30
12 12 30
12 12 30
12 12 30
12 12 30
12 12 30
12 12 30
12 12 30
12 12 30
12 12 30
12 12 30
12 12 30
12 12 30
12 12 30
12 12 30
12 12 30
12 12 30
12 12 30
12 12 30
12 12 30
12 12 30
12 12 30
12 12 30
12 12 30
12 12 30
12 12 30
12 12 30
12 12 30
12 12 30
12 12 30
12 12 30
12 12 30
12 12 30
12 12 30
12 12 30
12 12 30
12 12 30
12 12 30
12 12 30
12 12 30
12 12 30
12 12 30
12 12 30
12 12 30
12 12 30
12 12 30
12 12 30
12 12 30
12 12 30
12 12 30
12 12 30
12 12 30
12 12 30
12 12 30
12 12 30
12 12 30
12 12 30
12 12 30
12 12 30
12 12 30
12 12 30
12 12 30
12 12 30
12 12 30
12 12 30
12 12 30
12 12 30
12 12 30
12 12 30
12 12 30
12 12 30
12 12 30
12 12 30
12 12 30
12 12 30
12 12 30
12 12 30
12 12 30
12 12 30
12 12 30
12 12 30
12 12 30
12 12 30
12 12 30
12 12 30
12 12 30
12 12 30
12 12 30
12 12 30
12 12 30
12 12 30
12 12 30
12 12 30
12 12 30
12 12 30
12 12 30
12 12 30
12 12 30
12 12 30
12 12 30
12 12 30
12 12 30
12 12 30
12 12 30
12 12 30
12 12 30
12 12 30
12 12 30
12 12 30
12 12 30
12 12 30
12 12 30
12 12 30
12 12 30
12 12 30
12 12 30
12 12 30
12 12 30
12 12 30
12 12 30
12 12 30
12 12 30
12 12 30
12 12 30
12 12 30
12 12 30
12 12 30
12 12 30
12 12 30
12 12 30
12 12 30
12 12 30
12 12 30
12 12 30
12 12 30
12 12 30
12 12 30
12 12 30
12 12 30
12 12 30
12 12 30
12 12 30
12 12 30
12 12 30
12 12 30
12 12 30
12 12 30
12 12 30
12 12 30
12 12 30
12 12 30
12 12 30
12 12 30
12 12 30
12 12 30
12 12 30
12 12 30
12 12 30
12 12 30
12 12 30
12 12 30
12 12 30
12 12 30
12 12 30
12 12 30
12 12 30
12 12 30
12 12 30
12 12 30
12 12 30
12 12 30
12 12 30
12 12 30
12 12 30
12 12 30
12 12 30
12 12 30
12 12 30
12 12 30
12 12 30
12 12 30
12 12 30
12 12 30
12 12 30
12 12 30
12 12 30
12 12 30
12 12 30
12 12 30
12 12 30
12 12 30
12 12 30
12 12 30
12 12 30
12 12 30
12 12 30
12 12 30
12 12 30
12 12 30
12 12 30
12 12 30
12 12 30
12 12 30
12 12 30
12 12 30
12 12 30
12 12 30
12 12 30
12 12 30
12 12 30
12 12 30
12 12 30
12 12 30
12 12 30
12 12 30
12 12 30
12 12 30
12 12 30
12 12 30
12 12 30
12 12 30
12 12 30
12 12 30
12 12 30
12 12 30
12 12 30
12 12 30
12 12 30
12 12 30
12 12 30
12 12 30
12 12 30
12 12 30
12 12 30
12 12 30
12 12 30
12 12 30
12 12 30
12 12 30
12 12 30
12 12 30
12 12 30
12 12 30
12 12 30
12 12 30
12 12 30
12 12 30
12 12 30
12 12 30
12 12 30
12 12 30
12 12 30
12 12 30
12 12 30
12 12 30
12 12 30
12 12 30
12 12 30
12 12 30
12 12 30
12 12 30
12 12 30
12 12 30
12 12 30
12 12 30
12 12 30
12 12 30
12 12 30
12 12 30
12 12 30
12 12 30
12 12 30
12 12 30
12 12 30
12 12 30
12 12 30
12 12 30
12 12 30
12 12 30
12 12 30
12 12 30
12 12 30
12 12 30
12 12 30
12 12 30
12 12 30
12 12 30
12 12 30
12 12 30
12 12 30
12 12 30
12 12 30
12 12 30
12 12 30
12 12 30
12 12 30
12 12 30
12 12 30
12 12 30
12 12 30
12 12 30
12 12 30
12 12 30
12 12 30
12 12 30
12 12 30
12 12 30
12 12 30
12 12 30
12 12 30
12 12 30
12 12 30
12 12 30
12 12 30
12 12 30
12 12 30
12 12 30
12 12 30
12 12 30
12 12 30
12 12 30
12 12 30
12 12 30
12 12 30
12 12 30
12 12 30
12 12 30
12 12 30
12 12 30
12 12 30
12 12 30
12 12 30
12 12 30
12 12 30
12 12 30
12 12 30
12 12 30
12 12 30
12 12 30
12 12 30
12 12 30
12 12 30
12 12 30
12 12 30
12 12 30
12 12 30
12 12 30
12 12 30
12 12 30
12 12 30
12 12 30
12 12 30
12 12 30
12 12 30
12 12 30
12 12 30
12 12 30
12 12 30
12 12 30
12 12 30
12 12 30
12 12 30
12 12 30
12 12 30
12 12 30
12 12 30
12 12 30
12 12 30
12 12 30
12 12 30
12 12 30
12 12 30
12 12 30
12 12 30
12 12 30
12 12 30
12 12 30
12 12 30
12 12 30
12 12 30
12 12 30
12 12 30
12 12 30
12 12 30
12 12 30
12 12 30
12 12 30
12 12 30
12 12 30
12 12 30
12 12 30
12 12 30
12 12 30
12 12 30
12 12 30
12 12 30
12 12 30
12 12 30
12 12 30
12 12 30
12 12 30
12 12 30
12 12 30
12 12 30
12 12 30
12 12 30
12 12 30
12 12 30
12 12 30
12 12 30
12 12 30
12 12 30
12 12 30
12 12 30
12 12 30
12 12 30
12 12 30
12 12 30
12 12 30
12 12 30
12 12 30
12 12 30
12 12 30
12 12 30
12 12 30
12 12 30
12 12 30
12 12 30
12 12 30
12 12 30
12 12 30
12 12 30
12 12 30
12 12 30
12 12 30
12 12 30
12 12 30
12 12 30
12 12 30
12 12 30
12 12 30
12 12 30
12 12 30
12 12 30
12 12 30
12 12 30
12 12 30
12 12 30
12 12 30
12 12 30
12 12 30
12 12 30
12 12 30
12 12 30
12 12 30
12 12 30
12 12 30
12 12 30
12 12 30
12 12 30
12 12 30
12 12 30
12 12 30
12 12 30
12 12 30
12 12 30
12 12 30
12 12 30
12 12 30
12 12 30
12 12 30
12 12 30
12 12 30
12 12 30
12 12 30
12 12 30
12 12 30
12 12 30
12 12 30
12 12 30
12 12 30
12 12 30
12 12 30
12 12 30
12 12 30
12 12 30
12 12 30
12 12 30
12 12 30
12 12 30
12 12 30
12 12 30
12 12 30
12 12 30
12 12 30
12 12 30
12 12 30
12 12 30
12 12 30
12 12 30
12 12 30
12 12 30
12 12 30
12 12 30
12 12 30
12 12 30
12 12 30
12 12 30
12 12 30
12 12 30
12 12 30
12 12 30
12 12 30
12 12 30
12 12 30
12 12 30
12 12 30
12 12 30
12 12 30
12 12 30
12 12 30
12 12 30
12 12 30
12 12 30
12 12 30
12 12 30
12 12 30
12 12 30
12 12 30
12 12 30
12 12 30
12 12 30
12 12 30
12 12 30
12 12 30
12 12 30
12 12 30
12 12 30
12 12 30
12 12 30
12 12 30
12 12 30
12 12 30
12 12 30
12 12 30
12 12 30
12 12 30
12 12 30
12 12 30
12 12 30
12 12 30
12 12 30
12 12 30
12 12 30
12 12 30
12 12 30
12 12 30
12 12 30
12 12 30
12 12 30
12 12 30
12 12 30
12 12 30
12 12 30
12 12 30
12 12 30
12 12 30
12 12 30
12 12 30
12 12 30
12 12 30
12 12 30
12 12 30
12 12 30
12 12 30
12 12 30
12 12 30
12 12 30
12 12 30
12 12 30
12 12 30
12 12 30
12 12 30
12 12 30
12 12 30
12 12 30
12 12 30
12 12 30
12 12 30
12 12 30
12 12 30
12 12 30
12 12 30
12 12 30
12 12 30
12 12 30
12 12 30
12 12 30
12 12 30
12 12 30
12 12 30
12 12 30
12 12 30
12 12 30
12 12 30
12 12 30
12 12 30
12 12 30
12 12 30
12 12 30
12 12 30
12 12 30
12 12 30
12 12 30
12 12 30
12 12 30
12 12 30
12 12 30
12 12 30
12 12 30
12 12 30
12 12 30
12 12 30
12 12 30
12 12 30
12 12 30
12 12 30
12 12 30
12 12 30
12 12 30
12 12 30
12 12 30
12 12 30
12 12 30
12 12 30
12 12 30
12 12 30
12 12 30
12 12 30
12 12 30
12 12 30
12 12 30
12 12 30
12 12 30
12 12 30
12 12 30
12 12 30
12 12 30
12 12 30
12 12 30
12 12 30
12 12 30
12 12 30
12 12 30
12 12 30
12 12 30
12 12 30
12 12 30
12 12 30
12 12 30
12 12 30
12 12 30
12 12 30
12 12 30
12 12 30
12 12 30
12 12 30
12 12 30
12 12 30
12 12 30
12 12 30
12 12 30
12 12 30
12 12 30
12 12 30
12 12 30
12 12 30
12 12 30
12 12 30
12 12 30
12 12 30
12 12 30
12 12 30
12 12 30
12 12 30
12 12 30
12 12 30
12 12 30
12 12 30
12 12 30
12 12 30
12 12 30
12 12 30
12 12 30
12 12 30
12 12 30
12 12 30
12 12 30
12 12 30
12 12 30
12 12 30
12 12 30
12 12 30
12 12 30
12 12 30
12 12 30
12 12 30
12 12 30
12 12 30
12 12 30
12 12 30
12 12 30
12 12 30
12 12 30
12 12 30
12 12 30
12 12 30
12 12 30
12 12 30
12 12 30
12 12 30
12 12 30
12 12 30
12 12 30
12 12 30
12 12 30
12 12 30
12 12 30
12 12 30
12 12 30
12 12 30
12 12 30
12 12 30
12 12 30
12 12 30
12 12 30
12 12 30
12 12 30
12 12 30
12 12 30
12 12 30
12 12 30
12 12 30
12 12 30
12 12 30
12 12 30
12 12 30
12 12 30
12 12 30
12 12 30
12 12 30
12 12 30
12 12 30
12 12 30
12 12 30
12 12 30
12 12 30
12 12 30
12 12 30
12 12 30
12 12 30
12 12 30
12 12 30
12 12 30
12 12 30
12 12 30
12 12 30
12 12 30
12 12 30
12 12 30
12 12 30
12 12 30
12 12 30
12 12 30
12 12 30
12 12 30
12 12 30
12 12 30
12 12 30
12 12 30
12 12 30
12 12 30
12 12 30
12 12 30
12 12 30
12 12 30
12 12 30
12 12 30
12 12 30
12 12 30
12 12 30
12 12 30
12 12 30
12 12 30
12 12 30
12 12 30
12 12 30
12 12 30
12 12 30
12 12 30
12 12 30
12 12 30
12 12 30
12 12 30
12 12 30
12 12 30
12 12 30
12 12 30
12 12 30
12 12 30
12 12 30
12 12 30
12 12 30
12 12 30
12 12 30
12 12 30
12 12 30
12 12 30
12 12 30
12 12 30
12 12 30
12 12 30
12 12 30
12 12 30
12 12 30
12 12 30
12 12 30
12 12 30
12 12 30
12 12 30
12 12 30
12 12 30
12 12 30
12 12 30
12 12 30
12 12 30
12 12 30
12 12 30
12 12 30
12 12 30
12 12 30
12 12 30
12 12 30
12 12 30
12 12 30
12 12 30
12 12 30
12 12 30
12 12 30
12 12 30
12 12 30
12 12 30
12 12 30
12 12 30
12 12 30
12 12 30
12 12 30
12 12 30
12 12 30
12 12 30
12 12 30
12 12 30
12 12 30
12 12 30
12 12 30
12 12 30
12 12 30
12 12 30
12 12 30
12 12 30
12 12 30
12 12 30
12 12 30
12 12 30
12 12 30
12 12 30
12 12 30
12 12 30
12 12 30
12 12 30
12 12 30
12 12 30
12 12 30
12 12 30
12 12 30
12 12 30
12 12 30
12 12 30
12 12 30
12 12 30
12 12 30
12 12 30
12 12 30
12 12 30
12 12 30
12 12 30
12 12 30
12 12 30
12 12 30
12 12 30
12 12 30
12 12 30
12 12 30
12 12 30
12 12 30
12 12 30
12 12 30
12 12 30
12 12 30
12 12 30
12 12 30
12 12 30
12 12 30
12 12 30
12 12 30
12 12 30
12 12 30
12 12 30
12 12 30
12 12 30
12 12 30
12 12 30
12 12 30
12 12 30
12 12 30
12 12 30
12 12 30
12 12 30
12 12 30
12 12 30
12 12 30
12 12 30
12 12 30
12 12 30
12 12 30
12 12 30
12 12 30
12 12 30
12 12 30
12 12 30
12 12 30
12 12 30
12 12 30
12 12 30
12 12 30
12 12 30
12 12 30
12 12 30
12 12 30
12 12 30
12 12 30
12 12 30
12 12 30
12 12 30
12 12 30
12 12 30
12 12 30
12 12 30
12 12 30
12 12 30
12 12 30
12 12 30
12 12 30
12 12 30
12 12 30
12 12 30
12 12 30
12 12 30
12 12 30
12 12 30
12 12 30
12 12 30
12 12 30
12 12 30
12 12 30
12 12 30
12 12 30
12 12 30
12 12 30
12 12 30
12 12 30
12 12 30
12 12 30
12 12 30
12 12 30
12 12 30
12 12 30
12 12 30
12 12 30
12 12 30
12 12 30
12 12 30
12 12 30
12 12 30
12 12 30
12 12 30
12 12 30
12 12 30
12 12 30
12 12 30
12 12 30
12 12 30
12 12 30
12 12 30
12 12 30
12 12 30
12 12 30
12 12 30
12 12 30
12 12 30
12 12 30
12 12 30
12 12 30
12 12 30
12 12 30
12 12 30
12 12 30
12 12 30
12 12 30
12 12 30
12 12 30
12 12 30
12 12 30
12 12 30
12 12 30
12 12 30
12 12 30
12 12 30
12 12 30
12 12 30
12 12 30
12 12 30
12 12 30
12 12 30
12 12 30
12 12 30
12 12 30
12 12 30
12 12 30
12 12 30
12 12 30
12 12 30
12 12 30
12 12 30
12 12 30
12 12 30
12 12 30
12 12 30
12 12 30
12 12 30
12 12 30
12 12 30
12 12 30
12 12 30
12 12 30
12 12 30
12 12 30
12 12 30
12 12 30
12 12 30
12 12 30
12 12 30
12 12 30
12 12 30
12 12 30
12 12 30
12 12 30
12 12 30
12 12 30
12 12 30
12 12 30
12 12 30
12 12 30
12 12 30
12 12 30
12 12 30
12 12 30
12 12 30
12 12 30
12 12 30
12 12 30
12 12 30
12 12 30
12 12 30
12 12 30
12 12 30
12 12 30
12 12 30
12 12 30
12 12 30
12 12 30
12 12 30
12 12 30
12 12 30
12 12 30
12 12 30
12 12 30
12 12 30
12 12 30
12 12 30
12 12 30
12 12 30
12 12 30
12 12 30
12 12 30
12 12 30
12 12 30
12 12 30
12 12 30
12 12 30
12 12 30
12 12 30
12 12 30
12 12 30
12 12 30
12 12 30
12 12 30
12 12 30
12 12 30
12 12 30
12 12 30
12 12 30
12 12 30
12 12 30
12 12 30
12 12 30
12 12 30
12 12 30
12 12 30
12 12 30
12 12 30
12 12 30
12 12 30
12 12 30
12 12 30
12 12 30
12 12 30
12 12 30
12 12 30
12 12 30
12 12 30
12 12 30
12 12 30
12 12 30
12 12 30
12 12 30
12 12 30
12 12 30
12 12 30
12 12 30
12 12 30
12 12 30
12 12 30
12 12 30
12 12 30
12 12 30
12 12 30
12 12 30
12 12 30
12 12 30
12 12 30
12 12 30
12 12 30
12 12 30
12 12 30
12 12 30
12 12 30
12 12 30
12 12 30
12 12 30
12 12 30
12 12 30
12 12 30
12 12 30
12 12 30
12 12 30
12 12 30
12 12 30
12 12 30
12 12 30
12 12 30
12 12 30
12 12 30
12 12 30
12 12 30
12 12 30
12 12 30
12 12 30
12 12 30
12 12 30
12 12 30
12 12 30
12 12 30
12 12 30
12 12 30
12 12 30
12 12 30
12 12 30
12 12 30
12 12 30
12 12 30
12 12 30
12 12 30
12 12 30
12 12 30
12 12 30
12 12 30
12 12 30
12 12 30
12 12 30
12 12 30
12 12 30
12 12 30
12 12 30
12 12 30
12 12 30
12 12 30
12 12 30
12 12 30
12 12 30
12 12 30
12 12 30
12 12 30
12 12 30
12 12 30
12 12 30
12 12 30
12 12 30
12 12 30
12 12 30
12 12 30
12 12 30
12 12 30
12 12 30
12 12 30
12 12 30
12 12 30
12 12 30
12 12 30
12 12 30
12 12 30
12 12 30
12 12 30
12 12 30
12 12 30
12 12 30
12 12 30
12 12 30
12 12 30
12 12 30
12 12 30
12 12 30
12 12 30
12 12 30
12 12 30
12 12 30
12 12 30
12 12 30
12 12 30
12 12 30
12 12 30
12 12 30
12 12 30
12 12 30
12 12 30
12 12 30
12 12 30
12 12 30
12 12 30
12 12 30
12 12 30
12 12 30
12 12 30
12 12 30
12 12 30
12 12 30
12 12 30
12 12 30
12 12 30
12 12 30
12 12 30
12 12 30
12 12 30
12 12 30
12 12 30
12 12 30
12 12 30
12 12 30
12 12 30
12 12 30
12 12 30
12 12 30
12 12 30
12 12 30
12 12 30
12 12 30
12 12 30
12 12 30
12 12 30
12 12 30
12 12 30
12 12 30
12 12 30
12 12 30
12 12 30
12 12 30
12 12 30
12 12 30
12 12 30
12 12 30
12 12 30
12 12 30
12 12 30
12 12 30
12 12 30
12 12 30
12 12 30
12 12 30
12 12 30
12 12 30
12 12 30
12 12 30
12 12 30
12 12 30
12 12 30
12 12 30
12 12 30
12 12 30
12 12 30
12 12 30
12 12 30
12 12 30
12 12 30
12 12 30
12 12 30
12 12 30
12 12 30
12 12 30
12 12 30
12 12 30
12 12 30
12 12 30
12 12 30
12 12 30
12 12 30
12 12 30
12 12 30
12 12 30
12 12 30
12 12 30
12 12 30
12 12 30
12 12 30
12 12 30
12 12 30
12 12 30
12 12 30
12 12 30
12 12 30
12 12 30
12 12 30
12 12 30
12 12 30
12 12 30
12 12 30
12 12 30
12 12 30
12 12 30
12 12 30
12 12 30
12 12 30
12 12 30
12 12 30
12 12 30
12 12 30
12 12 30
12 12 30
12 12 30
12 12 30
12 12 30
12 12 30
12 12 30
12 12 30
12 12 30
12 12 30
12 12 30
12 12 30
12 12 30
12 12 30
12 12 30
12 12 30
12 12 30
12 12 30
12 12 30
12 12 30
12 12 30
12 12 30
12 12 30
12 12 30
12 12 30
12 12 30
12 12 30
12 12 30
12 12 30
12 12 30
12 12 30
12 12 30
12 12 30
12 12 30
12 12 30
12 12 30
12 12 30
12 12 30
12 12 30
12 12 30
12 12 30
12 12 30
12 12 30
12 12 30
12 12 30
12 12 30
12 12 30
12 12 30
12 12 30
12 12 30
12 12 30
12 12 30
12 12 30
12 12 30
12 12 30
12 12 30
12 12 30
12 12 30
12 12 30
12 12 30
12 12 30
12 12 30
12 12 30
12 12 30
12 12 30
12 12 30
12 12 30
12 12 30
12 12 30
12 12 30
12 12 30
12 12 30
12 12 30
12 12 30
12 12 30
12 12 30
12 12 30
12 12 30
12 12 30
12 12 30
12 12 30
12 12 30
12 12 30
12 12 30
12 12 30
12 12 30
12 12 30
12 12 30
12 12 30
12 12 30
12 12 30
12 12 30
12 12 30
12 12 30
12 12 30
12 12 30
12 12 30
12 12 30
12 12 30
12 12 30
12 12 30
12 12 30
12 12 30
12 12 30
12 12 30
12 12 30
12 12 30
12 12 30
12 12 30
12 12 30
12 12 30
12 12 30
12 12 30
12 12 30
12 12 30
12 12 30
12 12 30
12 12 30
12 12 30
12 12 30
12 12 30
12 12 30
12 12 30
12 12 30
12 12 30
12 12 30
12 12 30
12 12 30
12 12 30
12 12 30
12 12 30
12 12 30
12 12 30
12 12 30
12 12 30
12 12 30
12 12 30
12 12 30
12 12 30
12 12 30
12 12 30
12 12 30
12 12 30
12 12 30
12 12 30
12 12 30
12 12 30
12 12 30
12 12 30
12 12 30
12 12 30
12 12 30
12 12 30
12 12 30
12 12 30
12 12 30
12 12 30
12 12 30
12 12 30
12 12 30
12 12 30
12 12 30
12 12 30
12 12 30
12 12 30
12 12 30
12 12 30
12 12 30
12 12 30
12 12 30
12 12 30
12 12 30
12 12 30
12 12 30
12 12 30
12 12 30
12 12 30
12 12 30
12 12 30
12 12 30
12 12 30
12 12 30
12 12 30
12 12 30
12 12 30
12 12 30
12 12 30
12 12 30
12 12 30
12 12 30
12 12 30
12 12 30
12 12 30
12 12 30
12 12 30
12 12 30
12 12 30
12 12 30
12 12 30
12 12 30
12 12 30
12 12 30
12 12 30
12 12 30
12 12 30
12 12 30
12 12 30
12 12 30
12 12 30
12 12 30
12 12 30
12 12 30
12 12 30
12 12 30
12 12 30
12 12 30
12 12 30
12 12 30
12 12 30
12 12 30
12 12 30
12 12 30
12 12 30
12 12 30
12 12 30
12 12 30
12 12 30
12 12 30
12 12 30
12 12 30
12 12 30
12 12 30
12 12 30
12 12 30
12 12 30
12 12 30
12 12 30
12 12 30
12 12 30
12 12 30
12 12 30
12 12 30
12 12 30
12 12 30
12 12 30
12 12 30
12 12 30
12 12 30
12 12 30
12 12 30
12 12 30
12 12 30
12 12 30
12 12 30
12 12 30
12 12 30
12 12 30
12 12 30
12 12 30
12 12 30
12 12 30
12 12 30
12 12 30
12 12 30
12 12 30
12 12 30
12 12 30
12 12 30
12 12 30
12 12 30
12 12 30
12 12 30
12 12 30
12 12 30
12 12 30
12 12 30
12 12 30
12 12 30
12 12 30
12 12 30
12 12 30
12 12 30
12 12 30
12 12 30
12 12 30
12 12 30
12 12 30
12 12 30
12 12 30
12 12 30
12 12 30
12 12 30
12 12 30
12 12 30
12 12 30
12 12 30
12 12 30
12 12 30
12 12 30
12 12 30
12 12 30
12 12 30
12 12 30
12 12 30
12 12 30
12 12 30
12 12 30
12 12 30
12 12 30
12 12 30
12 12 30
12 12 30
12 12 30
12 12 30
12 12 30
12 12 30
12 12 30
12 12 30
12 12 30
12 12 30
12 12 30
12 12 30
12 12 30
12 12 30
12 12 30
12 12 30
12 12 30
12 12 30
12 12 30
12 12 30
12 12 30
12 12 30
12 12 30
12 12 30
12 12 30
12 12 30
12 12 30
12 12 30
12 12 30
12 12 30
12 12 30
12 12 30
12 12 30
12 12 30
12 12 30
12 12 30
12 12 30
12 12 30
12 12 30
12 12 30
12 12 30
12 12 30
12 12 30
12 12 30
12 12 30
12 12 30
12 12 30
12 12 30
12 12 30
12 12 30
12 12 30
12 12 30
12 12 30
12 12 30
12 12 30
12 12 30
12 12 30
12 12 30
12 12 30
12 12 30
12 12 30
12 12 30
12 12 30
12 12 30
12 12 30
12 12 30
12 12 30
12 12 30
12 12 30
12 12 30
12 12 30
12 12 30
12 12 30
12 12 30
12 12 30
12 12 30
12 12 30
12 12 30
12 12 30
12 12 30
12 12 30
12 12 30
12 12 30
12 12 30
12 12 30
12 12 30
12 12 30
12 12 30
12 12 30
12 12 30
12 12 30
12 12 30
12 12 30
12 12 30
12 12 30
12 12 30
12 12 30
12 12 30
12 12 30
12 12 30
12 12 30
12 12 30
12 12 30
12 12 30
12 12 30
12 12 30
12 12 30
12 12 30
12 12 30
12 12 30
12 12 30
12 12 30
12 12 30
12 12 30
12 12 30
12 12 30
12 12 30
12 12 30
12 12 30
12 12 30
12 12 30
12 12 30
12 12 30
12 12 30
12 12 30
12 12 30
12 12 30
12 12 30
12 12 30
12 12 30
12 12 30
12 12 30
12 12 30
12 12 30
12 12 30
12 12 30
12 12 30
12 12 30
12 12 30
12 12 30
12 12 30
12 12 30
12 12 30
12 12 30
12 12 30
12 12 30
12 12 30
12 12 30
12 12 30
12 12 30
12 12 30
12 12 30
12 12 30
12 12 30
12 12 30
12 12 30
12 12 30
12 12 30
12 12 30
12 12 30
12 12 30
12 12 30
12 12 30
12 12 30
12 12 30
12 12 30
12 12 30
12 12 30
12 12 30
12 12 30
12 12 30
12 12 30
12 12 30
12 12 30
12 12 30
12 12 30
12 12 30
12 12 30
12 12 30
12 12 30
12 12 30
12 12 30
12 12 30
12 12 30
12 12 30
12 12 30
12 12 30
12 12 30
12 12 30
12 12 30
12 12 30
12 12 30
12 12 30
12 12 30
12 12 30
12 12 30
12 12 30
12 12 30
12 12 30
12 12 30
12 12 30
12 12 30
12 12 30
12 12 30
12 12 30
12 12 30
12 12 30
12 12 30
12 12 30
12 12 30
12 12 30
12 12 30
12 12 30
12 12 30
12 12 30
12 12 30
12 12 30
12 12 30
12 12 30
12 12 30
12 12 30
12 12 30
12 12 30
12 12 30
12 12 30
12 12 30
12 12 30
12 12 30
12 12 30
12 12 30
12 12 30
12 12 30
12 12 30
12 12 30
12 12 30
12 12 30
12 12 30
12 12 30
12 12 30
12 12 30
12 12 30
12 12 30
12 12 30
12 12 30
12 12 30
12 12 30
12 12 30
12 12 30
12 12 30
12 12 30
12 12 30
12 12 30
12 12 30
12 12 30
12 12 30
12 12 30
12 12 30
12 12 30
12 12 30
12 12 30
12 12 30
12 12 30
12 12 30
12 12 30
12 12 30
12 12 30
12 12 30
12 12 30
12 12 30
12 12 30
12 12 30
12 12 30
12 12 30
12 12 30
12 12 30
12 12 30
12 12 30
12 12 30
12 12 30
12 12 30
12 12 30
12 12 30
12 12 30
12 12 30
12 12 30
12 12 30
12 12 30
12 12 30
12 12 30
12 12 30
12 12 30
12 12 30
12 12 30
12 12 30
12 12 30
12 12 30
12 12 30
12 12 30
12 12 30
12 12 30
12 12 30
12 12 30
12 12 30
12 12 30
12 12 30
12 12 30
12 12 30
12 12 30
12 12 30
12 12 30
12 12 30
12 12 30
12 12 30
12 12 30
12 12 30
12 12 30
12 12 30
12 12 30
12 12 30
12 12 30
12 12 30
12 12 30
12 12 30
12 12 30
12 12 30
12 12 30
12 12 30
12 12 30
12 12 30
12 12 30
12 12 30
12 12 30
12 12 30
12 12 30
12 12 30
12 12 30
12 12 30
12 12 30
12 12 30
12 12 30
12 12 30
12 12 30
12 12 30
12 12 30
12 12 30
12 12 30
12 12 30
12 12 30
12 12 30
12 12 30
12 12 30
12 12 30
12 12 30
12 12 30
12 12 30
12 12 30
12 12 30
12 12 30
12 12 30
12 12 30
12 12 30
12 12 30
12 12 30
12 12 30
12 12 30
12 12 30
12 12 30
12 12 30
12 12 30
12 12 30
12 12 30
12 12 30
12 12 30
12 12 30
12 12 30
12 12 30
12 12 30
12 12 30
12 12 30
12 12 30
12 12 30
12 12 30
12 12 30
12 12 30
12 12 30
12 12 30
12 12 30
12 12 30
12 12 30
12 12 30
12 12 30
12 12 30
12 12 30
12 12 30
12 12 30
12 12 30
12 12 30
12 12 30
12 12 30
12 12 30
12 12 30
12 12 30
12 12 30
12 12 30
12 12 30
12 12 30
12 12 30
12 12 30
12 12 30
12 12 30
12 12 30
12 12 30
12 12 30
12 12 30
12 12 30
12 12 30
12 12 30
12 12 30
12 12 30
12 12 30
12 12 30
12 12 30
12 12 30
12 12 30
12 12 30
12 12 30
12 12 30
12 12 30
12 12 30
12 12 30
12 12 30
12 12 30
12 12 30
12 12 30
12 12 30
12 12 30
12 12 30
12 12 30
12 12 30
12 12 30
12 12 30
12 12 30
12 12 30
12 12 30
12 12 30
12 12 30
12 12 30
12 12 30
12 12 30
12 12 30
12 12 30
12 12 30
12 12 30
12 12 30
12 12 30
12 12 30
12 12 30
12 12 30
12 12 30
12 12 30
12 12 30
12 12 30
12 12 30
12 12 30
12 12 30
12 12 30
12 12 30
12 12 30
12 12 30
12 12 30
12 12 30
12 12 30
12 12 30
12 12 30
12 12 30
12 12 30
12 12 30
12 12 30
12 12 30
12 12 30
12 12 30
12 12 30
12 12 30
12 12 30
12 12 30
12 12 30
12 12 30
12 12 30
12 12 30
12 12 30
12 12 30
12 12 30
12 12 30
12 12 30
12 12 30
12 12 30
12 12 30
12 12 30
12 12 30
12 12 30
12 12 30
12 12 30
12 12 30
12 12 30
12 12 30
12 12 30
12 12 30
12 12 30
12 12 30
12 12 30
12 12 30
12 12 30
12 12 30
12 12 30
12 12 30
12 12 30
12 12 30
12 12 30
12 12 30
12 12 30
12 12 30
12 12 30
12 12 30
12 12 30
12 12 30
12 12 30
12 12 30
12 12 30
12 12 30
12 12 30
12 12 30
12 12 30
12 12 30
12 12 30
12 12 30
12 12 30
12 12 30
12 12 30
12 12 30
12 12 30
12 12 30
12 12 30
12 12 30
12 12 30
12 12 30
12 12 30
12 12 30
12 12 30
12 12 30
12 12 30
12 12 30
12 12 30
12 12 30
12 12 30
12 12 30
12 12 30
12 12 30
12 12 30
12 12 30
12 12 30
12 12 30
12 12 30
12 12 30
12 12 30
12 12 30
12 12 30
12 12 30
12 12 30
12 12 30
12 12 30
12 12 30
12 12 30
12 12 30
12 12 30
12 12 30
12 12 30
12 12 30
12 12 30
12 12 30
12 12 30
12 12 30
12 12 30
12 12 30
12 12 30
12 12 30
12 12 30
12 12 30
12 12 30
12 12 30
12 12 30
12 12 30
12 12 30
12 12 30
12 12 30
12 12 30
12 12 30
12 12 30
12 12 30
12 12 30
12 12 30
12 12 30
12 12 30
12 12 30
12 12 30
12 12 30
12 12 30
12 12 30
12 12 30
12 12 30
12 12 30
12 12 30
12 12 30
12 12 30
12 12 30
12 12 30
12 12 30
12 12 30
12 12 30
12 12 30
12 12 30
12 12 30
12 12 30
12 12 30
12 12 30
12 12 30
12 12 30
12 12 30
12 12 30
12 12 30
12 12 30
12 12 30
12 12 30
12 12 30
12 12 30
12 12 30
12 12 30
12 12 30
12 12 30
12 12 30
12 12 30
12 12 30
12 12 30
12 12 30
12 12 30
12 12 30
12 12 30
12 12 30
12 12 30
12 12 30
12 12 30
12 12 30
12 12 30
12 12 30
12 12 30
12 12 30
12 12 30
12 12 30
12 12 30
12 12 30
12 12 30
12 12 30
12 12 30
12 12 30
12 12 30
12 12 30
12 12 30
12 12 30
12 12 30
12 12 30
12 12 30
12 12 30
12 12 30
12 12 30
12 12 30
12 12 30
12 12 30
12 12 30
12 12 30
12 12 30
12 12 30
12 12 30
12 12 30
12 12 30
12 12 30
12 12 30
12 12 30
12 12 30
12 12 30
12 12 30
12 12 30
12 12 30
12 12 30
12 12 30
12 12 30
12 12 30
12 12 30
12 12 30
12 12 30
12 12 30
12 12 30
12 12 30
12 12 30
12 12 30
12 12 30
12 12 30
12 12 30
12 12 30
12 12 30
12 12 30
12 12 30
12 12 30
12 12 30
12 12 30
12 12 30
12 12 30
12 12 30
12 12 30
12 12 30
12 12 30
12 12 30
12 12 30
12 12 30
12 12 30
12 12 30
12 12 30
12 12 30
12 12 30
12 12 30
12 12 30
12 12 30
12 12 30
12 12 30
12 12 30
12 12 30
12 12 30
12 12 30
12 12 30
12 12 30
12 12 30
12 12 30
12 12 30
12 12 30
12 12 30
12 12 30
12 12 30
12 12 30
12 12 30
12 12 30
12 12 30
12 12 30
12 12 30
12 12 30
12 12 30
12 12 30
12 12 30
12 12 30
12 12 30
12 12 30
12 12 30
12 12 30
12 12 30
12 12 30
12 12 30
12 12 30
12 12 30
12 12 30
12 12 30
12 12 30
12 12 30
12 12 30
12 12 30
12 12 30
12 12 30
12 12 30
12 12 30
12 12 30
12 12 30
12 12 30
12 12 30
12 12 30
12 12 30
12 12 30
12 12 30
12 12 30
12 12 30
12 12 30
12 12 30
12 12 30
12 12 30
12 12 30
12 12 30
12 12 30
12 12 30
12 12 30
12 12 30
12 12 30
12 12 30
12 12 30
12 12 30
12 12 30
12 12 30
12 12 30
12 12 30
12 12 30
12 12 30
12 12 30
12 12 30
12 12 30
12 12 30
12 12 30
12 12 30
12 12 30
12 12 30
12 12 30
12 12 30
12 12 30
12 12 30
12 12 30
12 12 30
12 12 30
12 12 30
12 12 30
12 12 30
12 12 30
12 12 30
12 12 30
12 12 30
12 12 30
12 12 30
12 12 30
12 12 30
12 12 30
12 12 30
12 12 30
12 12 30
12 12 30
12 12 30
12 12 30
12 12 30
12 12 30
12 12 30
12 12 30
12 12 30
12 12 30
12 12 30
12 12 30
12 12 30
12 12 30
12 12 30
12 12 30
12 12 30
12 12 30
12 12 30
12 12 30
12 12 30
12 12 30
12 12 30
12 12 30
12 12 30
12 12 30
12 12 30
12 12 30
12 12 30
12 12 30
12 12 30
12 12 30
12 12 30
12 12 30
12 12 30
12 12 30
12 12 30
12 12 30
12 12 30
12 12 30
12 12 30
12 12 30
12 12 30
12 12 30
12 12 30
12 12 30
12 12 30
12 12 30
12 12 30
12 12 30
12 12 30
12 12 30
12 12 30
12 12 30
12 12 30
12 12 30
12 12 30
12 12 30
12 12 30
12 12 30
12 12 30
12 12 30
12 12 30
12 12 30
12 12 30
12 12 30
12 12 30
12 12 30
12 12 30
12 12 30
12 12 30
12 12 30
12 12 30
12 12 30
12 12 30
12 12 30
12 12 30
12 12 30
12 12 30
12 12 30
12 12 30
12 12 30
12 12 30
12 12 30
12 12 30
12 12 30
12 12 30
12 12 30
12 12 30
12 12 30
12 12 30
12 12 30
12 12 30
12 12 30
12 12 30
12 12 30
12 12 30
12 12 30
12 12 30
12 12 30
12 12 30
12 12 30
12 12 30
12 12 30
12 12 30
12 12 30
12 12 30
12 12 30
12 12 30
12 12 30
12 12 30
12 12 30
12 12 30
12 12 30
12 12 30
12 12 30
12 12 30
12 12 30
12 12 30
12 12 30
12 12 30
12 12 30
12 12 30
12 12 30
12 12 30
12 12 30
12 12 30
12 12 30
12 12 30
12 12 30
12 12 30
12 12 30
12 12 30
12 12 30
12 12 30
12 12 30
12 12 30
12 12 30
12 12 30
12 12 30
12 12 30
12 12 30
12 12 30
12 12 30
12 12 30
12 12 30
12 12 30
12 12 30
12 12 30
12 12 30
12 12 30
12 12 30
12 12 30
12 12 30
12 12 30
12 12 30
12 12 30
12 12 30
12 12 30
12 12 30
12 12 30
12 12 30
12 12 30
12 12 30
12 12 30
12 12 30
12 12 30
12 12 30
12 12 30
12 12 30
12 12 30
12 12 30
12 12 30
12 12 30
12 12 30
12 12 30
12 12 30
12 12 30
12 12 30
12 12 30
12 12 30
12 12 30
12 12 30
12 12 30
12 12 30
12 12 30
12 12 30
12 12 30
12 12 30
12 12 30
12 12 30
12 12 30
12 12 30
12 12 30
12 12 30
12 12 30
12 12 30
12 12 30
12 12 30
12 12 30
12 12 30
12 12 30
12 12 30
12 12 30
12 12 30
12 12 30
12 12 30
12 12 30
12 12 30
12 12 30
12 12 30
12 12 30
12 12 30
12 12 30
12 12 30
12 12 30
12 12 30
12 12 30
12 12 30
12 12 30
12 12 30
12 12 30
12 12 30
12 12 30
12 12 30
12 12 30
12 12 30
12 12 30
12 12 30
12 12 30
12 12 30
12 12 30
12 12 30
12 12 30
12 12 30
12 12 30
12 12 30
12 12 30
12 12 30
12 12 30
12 12 30
12 12 30
12 12 30
12 12 30
12 12 30
12 12 30
12 12 30
12 12 30
12 12 30
12 12 30
12 12 30
12 12 30
12 12 30
12 12 30
12 12 30
12 12 30
12 12 30
12 12 30
12 12 30
12 12 30
12 12 30
12 12 30
12 12 30
12 12 30
12 12 30
12 12 30
12 12 30
12 12 30
12 12 30
12 12 30
12 12 30
12 12 30
12 12 30
12 12 30
12 12 30
12 12 30
12 12 30
12 12 30
12 12 30
12 12 30
12 12 30
12 12 30
12 12 30
12 12 30
12 12 30
12 12 30
12 12 30
12 12 30
12 12 30
12 12 30
12 12 30
12 12 30
12 12 30
12 12 30
12 12 30
12 12 30
12 12 30
12 12 30
12 12 30
12 12 30
12 12 30
12 12 30
12 12 30
12 12 30
12 12 30
12 12 30
12 12 30
12 12 30
12 12 30
12 12 30
12 12 30
12 12 30
12 12 30
12 12 30
12 12 30
12 12 30
12 12 30
12 12 30
12 12 30
12 12 30
12 12 30
12 12 30
12 12 30
12 12 30
12 12 30
12 12 30
12 12 30
12 12 30
12 12 30
12 12 30
12 12 30
12 12 30
12 12 30
12 12 30
12 12 30
12 12 30
12 12 30
12 12 30
12 12 30
12 12 30
12 12 30
12 12 30
12 12 30
12 12 30
12 12 30
12 12 30
12 12 30
12 12 30
12 12 30
12 12 30
12 12 30
12 12 30
12 12 30
12 12 30
12 12 30
12 12 30
12 12 30
12 12 30
12 12 30
12 12 30
12 12 30
12 12 30
12 12 30
12 12 30
12 12 30
12 12 30
12 12 30
12 12 30
12 12 30
12 12 30
12 12 30
12 12 30
12 12 30
12 12 30
12 12 30
12 12 30
12 12 30
12 12 30
12 12 30
12 12 30
12 12 30
12 12 30
12 12 30
12 12 30
12 12 30
12 12 30
12 12 30
12 12 30
12 12 30
12 12 30
12 12 30
12 12 30
12 12 30
12 12 30
12 12 30
12 12 30
12 12 30
12 12 30
12 12 30
12 12 30
12 12 30
12 12 30
12 12 30
12 12 30
12 12 30
12 12 30
12 12 30
12 12 30
12 12 30
12 12 30
12 12 30
12 12 30
12 12 30
12 12 30
12 12 30
12 12 30
12 12 30
12 12 30
12 12 30
12 12 30
12 12 30
12 12 30
12 12 30
12 12 30
12 12 30
12 12 30
12 12 30
12 12 30
12 12 30
12 12 30
12 12 30
12 12 30
12 12 30
12 12 30
12 12 30
12 12 30
12 12 30
12 12 30
12 12 30
12 12 30
12 12 30
12 12 30
12 12 30
12 12 30
12 12 30
12 12 30
12 12 30
12 12 30
12 12 30
12 12 30
12 12 30
12 12 30
12 12 30
12 12 30
12 12 30
12 12 30
12 12 30
12 12 30
12 12 30
12 12 30
12 12 30
12 12 30
12 12 30
12 12 30
12 12 30
12 12 30
12 12 30
12 12 30
12 12 30
12 12 30
12 12 30
12 12 30
12 12 30
12 12 30
12 12 30
12 12 30
12 12 30
12 12 30
12 12 30
12 12 30
12 12 30
12 12 30
12 12 30
12 12 30
12 12 30
12 12 30
12 12 30
12 12 30
12 12 30
12 12 30
12 12 30
12 12 30
12 12 30
12 12 30
12 12 30
12 12 30
12 12 30
12 12 30
12 12 30
12 12 30
12 12 30
12 12 30
12 12 30
12 12 30
12 12 30
12 12 30
12 12 30
12 12 30
12 12 30
12 12 30
12 12 30
12 12 30
12 12 30
12 12 30
12 12 30
12 12 30
12 12 30
12 12 30
12 12 30
12 12 30
12 12 30
12 12 30
12 12 30
12 12 30
12 12 30
12 12 30
12 12 30
12 12 30
12 12 30
12 12 30
12 12 30
12 12 30
12 12 30
12 12 30
12 12 30
12 12 30
12 12 30
12 12 30
12 12 30
12 12 30
12 12 30
12 12 30
12 12 30
12 12 30
12 12 30
12 12 30
12 12 30
12 12 30
12 12 30
12 12 30
12 12 30
12 12 30
12 12 30
12 12 30
12 12 30
12 12 30
12 12 30
12 12 30
12 12 30
12 12 30
12 12 30
12 12 30
12 12 30
12 12 30
12 12 30
12 12 30
12 12 30
12 12 30
12 12 30
12 12 30
12 12 30
12 12 30
12 12 30
12 12 30
12 12 30
12 12 30
12 12 30
12 12 30
12 12 30
12 12 30
12 12 30
12 12 30
12 12 30
12 12 30
12 12 30
12 12 30
12 12 30
12 12 30
12 12 30
12 12 30
12 12 30
12 12 30
12 12 30
12 12 30
12 12 30
12 12 30
12 12 30
12 12 30
12 12 30
12 12 30
12 12 30
12 12 30
12 12 30
12 12 30
12 12 30
12 12 30
12 12 30
12 12 30
12 12 30
12 12 30
12 12 30
12 12 30
12 12 30
12 12 30
12 12 30
12 12 30
12 12 30
12 12 30
12 12 30
12 12 30
12 12 30
12 12 30
12 12 30
12 12 30
12 12 30
12 12 30
12 12 30
12 12 30
12 12 30
12 12 30
12 12 30
12 12 30
12 12 30
12 12 30
12 12 30
12 12 30
12 12 30
12 12 30
12 12 30
12 12 30
12 12 30
12 12 30
12 12 30
12 12 30
12 12 30
12 12 30
12 12 30
12 12 30
12 12 30
12 12 30
12 12 30
12 12 30
12 12 30
12 12 30
12 12 30
12 12 30
12 12 30
12 12 30
12 12 30
12 12 30
12 12 30
12 12 30
12 12 30
12 12 30
12 12 30
12 12 30
12 12 30
12 12 30
12 12 30
12 12 30
12 12 30
12 12 30
12 12 30
12 12 30
12 12 30
12 12 30
12 12 30
12 12 30
12 12 30
12 12 30
12 12 30
12 12 30
12 12 30
12 12 30
12 12 30
12 12 30
12 12 30
12 12 30
12 12 30
12 12 30
12 12 30
12 12 30
12 12 30
12 12 30
12 12 30
12 12 30
12 12 30
12 12 30
12 12 30
12 12 30
12 12 30
12 12 30
12 12 30
12 12 30
12 12 30
12 12 30
12 12 30
12 12 30
12 12 30
12 12 30
12 12 30
12 12 30
12 12 30
12 12 30
12 12 30
12 12 30
12 12 30
12 12 30
12 12 30
12 12 30
12 12 30
12 12 30
12 12 30
12 12 30
12 12 30
12 12 30
12 12 30
12 12 30
12 12 30
12 12 30
12 12 30
12 12 30
12 12 30
12 12 30
12 12 30
12 12 30
12 12 30
12 12 30
12 12 30
12 12 30
12 12 30
12 12 30
12 12 30
12 12 30
12 12 30
12 12 30
12 12 30
12 12 30
12 12 30
12 12 30
12 12 30
12 12 30
12 12 30
12 12 30
12 12 30
12 12 30
12 12 30
12 12 30
12 12 30
12 12 30
12 12 30
12 12 30
12 12 30
12 12 30
12 12 30
12 12 30
12 12 30
12 12 30
12 12 30
12 12 30
12 12 30
12 12 30
12 12 30
12 12 30
12 12 30
12 12 30
12 12 30
12 12 30
12 12 30
12 12 30
12 12 30
12 12 30
12 12 30
12 12 30
12 12 30
12 12 30
12 12 30
12 12 30
12 12 30
12 12 30
12 12 30
12 12 30
12 12 30
12 12 30
12 12 30
12 12 30
12 12 30
12 12 30
12 12 30
12 12 30
12 12 30
12 12 30
12 12 30
12 12 30
12 12 30
12 12 30
12 12 30
12 12 30
12 12 30
12 12 30
12 12 30
12 12 30
12 12 30
12 12 30
12 12 30
12 12 30
12 12 30
12 12 30
12 12 30
12 12 30
12 12 30
12 12 30
12 12 30
12 12 30
12 12 30
12 12 30
12 12 30
12 12 30
12 12 30
12 12 30
12 12 30
12 12 30
12 12 30
12 12 30
12 12 30
12 12 30
12 12 30
12 12 30
12 12 30
12 12 30
12 12 30
12 12 30
12 12 30
12 12 30
12 12 30
12 12 30
12 12 30
12 12 30
12 12 30
12 12 30
12 12 30
12 12 30
12 12 30
12 12 30
12 12 30
12 12 30
12 12 30
12 12 30
12 12 30
12 12 30
12 12 30
12 12 30
12 12 30
12 12 30
12 12 30
12 12 30
12 12 30
12 12 30
12 12 30
12 12 30
12 12 30
12 12 30
12 12 30
12 12 30
12 12 30
12 12 30
12 12 30
12 12 30
12 12 30
12 12 30
12 12 30
12 12 30
12 12 30
12 12 30
12 12 30
12 12 30
12 12 30
12 12 30
12 12 30
12 12 30
12 12 30
12 12 30
12 12 30
12 12 30
12 12 30
12 12 30
12 12 30
12 12 30
12 12 30
12 12 30
12 12 30
12 12 30
12 12 30
12 12 30
12 12 30
12 12 30
12 12 30
12 12 30
12 12 30
12 12 30
12 12 30
12 12 30
12 12 30
12 12 30
12 12 30
12 12 30
12 12 30
12 12 30
12 12 30
12 12 30
12 12 30
12 12 30
12 12 30
12 12 30
12 12 30
12 12 30
12 12 30
12 12 30
12 12 30
12 12 30
12 12 30
12 12 30
12 12 30
12 12 30
12 12 30
12 12 30
12 12 30
12 12 30
12 12 30
12 12 30
12 12 30
12 12 30
12 12 30
12 12 30
12 12 30
12 12 30
12 12 30
12 12 30
12 12 30
12 12 30
12 12 30
12 12 30
12 12 30
12 12 30
12 12 30
12 12 30
12 12 30
12 12 30
12 12 30
12 12 30
12 12 30
12 12 30
12 12 30
12 12 30
12 12 30
12 12 30
12 12 30
12 12 30
12 12 30
12 12 30
12 12 30
12 12 30
12 12 30
12 12 30
12 12 30
12 12 30
12 12 30
12 12 30
12 12 30
12 12 30
12 12 30
12 12 30
12 12 30
12 12 30
12 12 30
12 12 30
12 12 30
12 12 30
12 12 30
12 12 30
12 12 30
12 12 30
12 12 30
12 12 30
12 12 30
12 12 30
12 12 30
12 12 30
12 12 30
12 12 30
12 12 30
12 12 30
12 12 30
12 12 30
12 12 30
12 12 30
12 12 30
12 12 30
12 12 30
12 12 30
12 12 30
12 12 30
12 12 30
12 12 30
12 12 30
12 12 30
12 12 30
12 12 30
12 12 30
12 12 30
12 12 30
12 12 30
12 12 30
12 12 30
12 12 30
12 12 30
12 12 30
12 12 30
12 12 30
12 12 30
12 12 30
12 12 30
12 12 30
12 12 30
12 12 30
12 12 30
12 12 30
12 12 30
12 12 30
12 12 30
12 12 30
12 12 30
12 12 30
12 12 30
12 12 30
12 12 30
12 12 30
12 12 30
12 12 30
12 12 30
12 12 30
12 12 30
12 12 30
12 12 30
12 12 30
12 12 30
12 12 30
12 12 30
12 12 30
12 12 30
12 12 30
12 12 30
12 12 30
12 12 30
12 12 30
12 12 30
12 12 30
12 12 30
12 12 30
12 12 30
12 12 30
12 12 30
12 12 30
12 12 30
12 12 30
12 12 30
12 12 30
12 12 30
12 12 30
12 12 30
12 12 30
12 12 30
12 12 30
12 12 30
12 12 30
12 12 30
12 12 30
12 12 30
12 12 30
12 12 30
12 12 30
12 12 30
12 12 30
12 12 30
12 12 30
12 12 30
12 12 30
12 12 30
12 12 30
12 12 30
12 12 30
12 12 30
12 12 30
12 12 30
12 12 30
12 12 30
12 12 30
12 12 30
12 12 30
12 12 30
12 12 30
12 12 30
12 12 30
12 12 30
12 12 30
12 12 30
12 12 30
12 12 30
12 12 30
12 12 30
12 12 30
12 12 30
12 12 30
12 12 30
12 12 30
12 12 30
12 12 30
12 12 30
12 12 30
12 12 30
12 12 30
12 12 30
12 12 30
12 12 30
12 12 30
12 12 30
12 12 30
12 12 30
12 12 30
12 12 30
12 12 30
12 12 30
12 12 30
12 12 30
12 12 30
12 12 30
12 12 30
12 12 30
12 12 30
12 12 30
12 12 30
12 12 30
12 12 30
12 12 30
12 12 30
12 12 30
12 12 30
12 12 30
12 12 30
12 12 30
12 12 30
12 12 30
12 12 30
12 12 30
12 12 30
12 12 30
12 12 30
12 12 30
12 12 30
12 12 30
12 12 30
12 12 30
12 12 30
12 12 30
12 12 30
12 12 30
12 12 30
12 12 30
12 12 30
12 12 30
12 12 30
12 12 30
12 12 30
12 12 30
12 12 30
12 12 30
12 12 30
12 12 30
12 12 30
12 12 30
12 12 30
12 12 30
12 12 30
12 12 30
12 12 30
12 12 30
12 12 30
12 12 30
12 12 30
12 12 30
12 12 30
12 12 30
12 12 30
12 12 30
12 12 30
12 12 30
12 12 30
12 12 30
12 12 30
12 12 30
12 12 30
12 12 30
12 12 30
12 12 30
12 12 30
12 12 30
12 12 30
12 12 30
12 12 30
12 12 30
12 12 30
12 12 30
12 12 30
12 12 30
12 12 30
12 12 30
12 12 30
12 12 30
12 12 30
12 12 30
12 12 30
12 12 30
12 12 30
12 12 30
12 12 30
12 12 30
12 12 30
12 12 30
12 12 30
12 12 30
12 12 30
12 12 30
12 12 30
12 12 30
12 12 30
12 12 30
12 12 30
12 12 30
12 12 30
12 12 30
12 12 30
12 12 30
12 12 30
12 12 30
12 12 30
12 12 30
12 12 30
12 12 30
12 12 30
12 12 30
12 12 30
12 12 30
12 12 30
12 12 30
12 12 30
12 12 30
12 12 30
12 12 30
12 12 30
12 12 30
12 12 30
12 12 30
12 12 30
12 12 30
12 12 30
12 12 30
12 12 30
12 12 30
12 12 30
12 12 30
12 12 30
12 12 30
12 12 30
12 12 30
12 12 30
12 12 30
12 12 30
12 12 30
12 12 30
12 12 30
12 12 30
12 12 30
12 12 30
12 12 30
12 12 30
12 12 30
12 12 30
12 12 30
12 12 30
12 12 30
12 12 30
12 12 30
12 12 30
12 12 30
12 12 30
12 12 30
12 12 30
12 12 30
12 12 30
12 12 30
12 12 30
12 12 30
12 12 30
12 12 30
12 12 30
12 12 30
12 12 30
12 12 30
12 12 30
12 12 30
12 12 30
12 12 30
12 12 30
12 12 30
12 12 30
12 12 30
12 12 30
12 12 30
12 12 30
12 12 30
12 12 30
12 12 30
12 12 30
12 12 30
12 12 30
12 12 30
12 12 30
12 12 30
12 12 30
12 12 30
12 12 30
12 12 30
12 12 30
12 12 30
12 12 30
12 12 30
12 12 30
12 12 30
12 12 30
12 12 30
12 12 30
12 12 30
12 12 30
12 12 30
12 12 30
12 12 30
12 12 30
12 12 30
12 12 30
12 12 30
12 12 30
12 12 30
12 12 30
12 12 30
12 12 30
12 12 30
12 12 30
12 12 30
12 12 30
12 12 30
12 12 30
12 12 30
12 12 30
12 12 30
12 12 30
12 12 30
12 12 30
12 12 30
12 12 30
12 12 30
12 12 30
12 12 30
12 12 30
12 12 30
12 12 30
12 12 30
12 12 30
12 12 30
12 12 30
12 12 30
12 12 30
12 12 30
12 12 30
12 12 30
12 12 30
12 12 30
12 12 30
12 12 30
12 12 30
12 12 30
12 12 30
12 12 30
12 12 30
12 12 30
12 12 30
12 12 30
12 12 30
12 12 30
12 12 30
12 12 30
12 12 30
12 12 30
12 12 30
12 12 30
12 12 30
12 12 30
12 12 30
12 12 30
12 12 30
12 12 30
12 12 30
12 12 30
12 12 30
12 12 30
12 12 30
12 12 30
12 12 30
12 12 30
12 12 30
12 12 30
12 12 30
12 12 30
12 12 30
12 12 30
12 12 30
12 12 30
12 12 30
12 12 30
12 12 30
12 12 30
12 12 30
12 12 30
12 12 30
12 12 30
12 12 30
12 12 30
12 12 30
12 12 30
12 12 30
12 12 30
12 12 30
12 12 30
12 12 30
12 12 30
12 12 30
12 12 30
12 12 30
12 12 30
12 12 30
12 12 30
12 12 30
12 12 30
12 12 30
12 12 30
12 12 30
12 12 30
12 12 30
12 12 30
12 12 30
12 12 30
12 12 30
12 12 30
12 12 30
12 12 30
12 12 30
12 12 30
12 12 30
12 12 30
12 12 30
12 12 30
12 12 30
12 12 30
12 12 30
12 12 30
12 12 30
12 12 30
12 12 30
12 12 30
12 12 30
12 12 30
12 12 30
12 12 30
12 12 30
12 12 30
12 12 30
12 12 30
12 12 30
12 12 30
12 12 30
12 12 30
12 12 30
12 12 30
12 12 30
12 12 30
12 12 30
12 12 30
12 12 30
12 12 30
12 12 30
12 12 30
12 12 30
12 12 30
12 12 30
12 12 30
12 12 30
12 12 30
12 12 30
12 12 30
12 12 30
12 12 30
12 12 30
12 12 30
12 12 30
12 12 30
12 12 30
12 12 30
12 12 30
12 12 30
12 12 30
12 12 30
12 12 30
12 12 30
12 12 30
12 12 30
12 12 30
12 12 30
12 12 30
12 12 30
12 12 30
12 12 30
12 12 30
12 12 30
12 12 30
12 12 30
12 12 30
12 12 30
12 12 30
12 12 30
12 12 30
12 12 30
12 12 30
12 12 30
12 12 30
12 12 30
12 12 30
12 12 30
12 12 30
12 12 30
12 12 30
12 12 30
12 12 30
12 12 30
12 12 30
12 12 30
12 12 30
12 12 30
12 12 30
12 12 30
12 12 30
12 12 30
12 12 30
12 12 30
12 12 30
12 12 30
12 12 30
12 12 30
12 12 30
12 12 30
12 12 30
12 12 30
12 12 30
12 12 30
12 12 30
12 12 30
12 12 30
12 12 30
12 12 30
12 12 30
12 12 30
12 12 30
12 12 30
12 12 30
12 12 30
12 12 30
12 12 30
12 12 30
12 12 30
12 12 30
12 12 30
12 12 30
12 12 30
12 12 30
12 12 30
12 12 30
12 12 30
12 12 30
12 12 30
12 12 30
12 12 30
12 12 30
12 12 30
12 12 30
12 12 30
12 12 30
12 12 30
12 12 30
12 12 30
12 12 30
12 12 30
12 12 30
12 12 30
12 12 30
12 12 30
12 12 30
12 12 30
12 12 30
12 12 30
12 12 30
12 12 30
12 12 30
12 12 30
12 12 30
12 12 30
12 12 30
12 12 30
12 12 30
12 12 30
12 12 30
12 12 30
12 12 30
12 12 30
12 12 30
12 12 30
12 12 30
12 12 30
12 12 30
12 12 30
12 12 30
12 12 30
12 12 30
12 12 30
12 12 30
12 12 30
12 12 30
12 12 30
12 12 30
12 12 30
12 12 30
12 12 30
12 12 30
12 12 30
12 12 30
12 12 30
12 12 30
12 12 30
12 12 30
12 12 30
12 12 30
12 12 30
12 12 30
12 12 30
12 12 30
12 12 30
12 12 30
12 12 30
12 12 30
12 12 30
12 12 30
12 12 30
12 12 30
12 12 30
12 12 30
12 12 30
12 12 30
12 12 30
12 12 30
12 12 30
12 12 30
12 12 30
12 12 30
12 12 30
12 12 30
12 12 30
12 12 30
12 12 30
12 12 30
12 12 30
12 12 30
12 12 30
12 12 30
12 12 30
12 12 30
12 12 30
12 12 30
12 12 30
12 12 30
12 12 30
12 12 30
12 12 30
12 12 30
12 12 30
12 12 30
12 12 30
12 12 30
12 12 30
12 12 30
12 12 30
12 12 30
12 12 30
12 12 30
12 12 30
12 12 30
12 12 30
12 12 30
12 12 30
12 12 30
12 12 30
12 12 30
12 12 30
12 12 30
12 12 30
12 12 30
12 12 30
12 12 30
12 12 30
12 12 30
12 12 30
12 12 30
12 12 30
12 12 30
12 12 30
12 12 30
12 12 30
12 12 30
12 12 30
12 12 30
12 12 30
12 12 30
12 12 30
12 12 30
12 12 30
12 12 30
12 12 30
12 12 30
12 12 30
12 12 30
12 12 30
12 12 30
12 12 30
12 12 30
12 12 30
12 12 30
12 12 30
12 12 30
12 12 30
12 12 30
12 12 30
12 12 30
12 12 30
12 12 30
12 12 30
12 12 30
12 12 30
12 12 30
12 12 30
12 12 30
12 12 30
12 12 30
12 12 30
12 12 30
12 12 30
12 12 30
12 12 30
12 12 30
12 12 30
12 12 30
12 12 30
12 12 30
12 12 30
12 12 30
12 12 30
12 12 30
12 12 30
12 12 30
12 12 30
12 12 30
12 12 30
12 12 30
12 12 30
12 12 30
12 12 30
12 12 30
12 12 30
12 12 30
12 12 30
12 12 30
12 12 30
12 12 30
12 12 30
12 12 30
12 12 30
12 12 30
12 12 30
12 12 30
12 12 30
12 12 30
12 12 30
12 12 30
12 12 30
12 12 30
12 12 30
12 12 30
12 12 30
12 12 30
12 12 30
12 12 30
12 12 30
12 12 30
12 12 30
12 12 30
12 12 30
12 12 30
12 12 30
12 12 30
12 12 30
12 12 30
12 12 30
12 12 30
12 12 30
12 12 30
12 12 30
12 12 30
12 12 30
12 12 30
12 12 30
12 12 30
12 12 30
12 12 30
12 12 30
12 12 30
12 12 30
12 12 30
12 12 30
12 12 30
12 12 30
12 12 30
12 12 30
12 12 30
12 12 30
12 12 30
12 12 30
12 12 30
12 12 30
12 12 30
12 12 30
12 12 30
12 12 30
12 12 30
12 12 30
12 12 30
12 12 30
12 12 30
12 12 30
12 12 30
12 12 30
12 12 30
12 12 30
12 12 30
12 12 30
12 12 30
12 12 30
12 12 30
12 12 30
12 12 30
12 12 30
12 12 30
12 12 30
12 12 30
12 12 30
12 12 30
12 12 30
12 12 30
12 12 30
12 12 30
12 12 30
12 12 30
12 12 30
12 12 30
12 12 30
12 12 30
12 12 30
12 12 30
12 12 30
12 12 30
12 12 30
12 12 30
12 12 30
12 12 30
12 12 30
12 12 30
12 12 30
12 12 30
12 12 30
12 12 30
12 12 30
12 12 30
12 12 30
12 12 30
12 12 30
12 12 30
12 12 30
12 12 30
12 12 30
12 12 30
12 12 30
12 12 30
12 12 30
12 12 30
12 12 30
12 12 30
12 12 30
12 12 30
12 12 30
12 12 30
12 12 30
12 12 30
12 12 30
12 12 30
12 12 30
12 12 30
12 12 30
12 12 30
12 12 30
12 12 30
12 12 30
12 12 30
12 12 30
12 12 30
12 12 30
12 12 30
12 12 30
12 12 30
12 12 30
12 12 30
12 12 30
12 12 30
12 12 30
12 12 30
12 12 30
12 12 30
12 12 30
12 12 30
12 12 30
12 12 30
12 12 30
12 12 30
12 12 30
12 12 30
12 12 30
12 12 30
12 12 30
12 12 30
12 12 30
12 12 30
12 12 30
12 12 30
12 12 30
12 12 30
12 12 30
12 12 30
12 12 30
12 12 30
12 12 30
12 12 30
12 12 30
12 12 30
12 12 30
12 12 30
12 12 30
12 12 30
12 12 30
12 12 30
12 12 30
12 12 30
12 12 30
12 12 30
12 12 30
12 12 30
12 12 30
12 12 30
12 12 30
12 12 30
12 12 30
12 12 30
12 12 30
12 12 30
12 12 30
12 12 30
12 12 30
12 12 30
12 12 30
12 12 30
12 12 30
12 12 30
12 12 30
12 12 30
12 12 30
12 12 30
12 12 30
12 12 30
12 12 30
12 12 30
12 12 30
12 12 30
12 12 30
12 12 30
12 12 30
12 12 30
12 12 30
12 12 30
12 12 30
12 12 30
12 12 30
12 12 30
12 12 30
12 12 30
12 12 30
12 12 30
12 12 30
12 12 30
12 12 30
12 12 30
12 12 30
12 12 30
12 12 30
12 12 30
12 12 30
12 12 30
12 12 30
12 12 30
12 12 30
12 12 30
12 12 30
12 12 30
12 12 30
12 12 30
12 12 30
12 12 30
12 12 30
12 12 30
12 12 30
12 12 30
12 12 30
12 12 30
12 12 30
12 12 30
12 12 30
12 12 30
12 12 30
12 12 30
12 12 30
12 12 30
12 12 30
12 12 30
12 12 30
12 12 30
12 12 30
12 12 30
12 12 30
12 12 30
12 12 30
12 12 30
12 12 30
12 12 30
12 12 30
12 12 30
12 12 30
12 12 30
12 12 30
12 12 30
12 12 30
12 12 30
12 12 30
12 12 30
12 12 30
12 12 30
12 12 30
12 12 30
12 12 30
12 12 30
12 12 30
12 12 30
12 12 30
12 12 30
12 12 30
12 12 30
12 12 30
12 12 30
12 12 30
12 12 30
12 12 30
12 12 30
12 12 30
12 12 30
12 12 30
12 12 30
12 12 30
12 12 30
12 12 30
12 12 30
12 12 30
12 12 30
12 12 30
12 12 30
12 12 30
12 12 30
12 12 30
12 12 30
12 12 30
12 12 30
12 12 30
12 12 30
12 12 30
12 12 30
12 12 30
12 12 30
12 12 30
12 12 30
12 12 30
12 12 30
12 12 30
12 12 30
12 12 30
12 12 30
12 12 30
12 12 30
12 12 30
12 12 30
12 12 30
12 12 30
12 12 30
12 12 30
12 12 30
12 12 30
12 12 30
12 12 30
12 12 30
12 12 30
12 12 30
12 12 30
12 12 30
12 12 30
12 12 30
12 12 30
12 12 30
12 12 30
12 12 30
12 12 30
12 12 30
12 12 30
12 12 30
12 12 30
12 12 30
12 12 30
12 12 30
12 12 30
12 12 30
12 12 30
12 12 30
12 12 30
12 12 30
12 12 30
12 12 30
12 12 30
12 12 30
12 12 30
12 12 30
12 12 30
12 12 30
12 12 30
12 12 30
12 12 30
12 12 30
12 12 30
12 12 30
12 12 30
12 12 30
12 12 30
12 12 30
12 12 30
12 12 30
12 12 30
12 12 30
12 12 30
12 12 30
12 12 30
12 12 30
12 12 30
12 12 30
12 12 30
12 12 30
12 12 30
12 12 30
12 12 30
12 12 30
12 12 30
12 12 30
12 12 30
12 12 30
12 12 30
12 12 30
12 12 30
12 12 30
12 12 30
12 12 30
12 12 30
12 12 30
12 12 30
12 12 30
12 12 30
12 12 30
12 12 30
12 12 30
12 12 30
12 12 30
12 12 30
12 12 30
12 12 30
12 12 30
12 12 30
12 12 30
12 12 30
12 12 30
12 12 30
12 12 30
12 12 30
12 12 30
12 12 30
12 12 30
12 12 30
12 12 30
12 12 30
12 12 30
12 12 30
12 12 30
12 12 30
12 12 30
12 12 30
12 12 30
12 12 30
12 12 30
12 12 30
12 12 30
12 12 30
12 12 30
12 12 30
12 12 30
12 12 30
12 12 30
12 12 30
12 12 30
12 12 30
12 12 30
12 12 30
12 12 30
12 12 30
12 12 30
12 12 30
12 12 30
12 12 30
12 12 30
12 12 30
12 12 30
12 12 30
12 12 30
12 12 30
12 12 30
12 12 30
12 12 30
12 12 30
12 12 30
12 12 30
12 12 30
12 12 30
12 12 30
12 12 30
12 12 30
12 12 30
12 12 30
12 12 30
12 12 30
12 12 30
12 12 30
12 12 30
12 12 30
12 12 30
12 12 30
12 12 30
12 12 30
12 12 30
12 12 30
12 12 30
12 12 30
12 12 30
12 12 30
12 12 30
12 12 30
12 12 30
12 12 30
12 12 30
12 12 30
12 12 30
12 12 30
12 12 30
12 12 30
12 12 30
12 12 30
12 12 30
12 12 30
12 12 30
12 12 30
12 12 30
12 12 30
12 12 30
12 12 30
12 12 30
12 12 30
12 12 30
12 12 30
12 12 30
12 12 30
12 12 30
12 12 30
12 12 30
12 12 30
12 12 30
12 12 30
12 12 30
12 12 30
12 12 30
12 12 30
12 12 30
12 12 30
12 12 30
12 12 30
12 12 30
12 12 30
12 12 30
12 12 30
12 12 30
12 12 30
12 12 30
12 12 30
12 12 30
12 12 30
12 12 30
12 12 30
12 12 30
12 12 30
12 12 30
12 12 30
12 12 30
12 12 30
12 12 30
12 12 30
12 12 30
12 12 30
12 12 30
12 12 30
12 12 30
12 12 30
12 12 30
12 12 30
12 12 30
12 12 30
12 12 30
12 12 30
12 12 30
12 12 30
12 12 30
12 12 30
12 12 30
12 12 30
12 12 30
12 12 30
12 12 30
12 12 30
12 12 30
12 12 30
12 12 30
12 12 30
12 12 30
12 12 30
12 12 30
12 12 30
12 12 30
12 12 30
12 12 30
12 12 30
12 12 30
12 12 30
12 12 30
12 12 30
12 12 30
12 12 30
12 12 30
12 12 30
12 12 30
12 12 30
12 12 30
12 12 30
12 12 30
12 12 30
12 12 30
12 12 30
12 12 30
12 12 30
12 12 30
12 12 30
12 12 30
12 12 30
12 12 30
12 12 30
12 12 30
12 12 30
12 12 30
12 12 30
12 12 30
12 12 30
12 12 30
12 12 30
12 12 30
12 12 30
12 12 30
12 12 30
12 12 30
12 12 30
12 12 30
12 12 30
12 12 30
12 12 30
12 12 30
12 12 30
12 12 30
12 12 30
12 12 30
12 12 30
12 12 30
12 12 30
12 12 30
12 12 30
12 12 30
12 12 30
12 12 30
12 12 30
12 12 30
12 12 30
12 12 30
12 12 30
12 12 30
12 12 30
12 12 30
12 12 30
12 12 30
12 12 30
12 12 30
12 12 30
12 12 30
12 12 30
12 12 30
12 12 30
12 12 30
12 12 30
12 12 30
12 12 30
12 12 30
12 12 30
12 12 30
12 12 30
12 12 30
12 12 30
12 12 30
12 12 30
12 12 30
12 12 30
12 12 30
12 12 30
12 12 30
12 12 30
12 12 30
12 12 30
12 12 30
12 12 30
12 12 30
12 12 30
12 12 30
12 12 30
12 12 30
12 12 30
12 12 30
12 12 30
12 12 30
12 12 30
12 12 30
12 12 30
12 12 30
12 12 30
12 12 30
12 12 30
12 12 30
12 12 30
12 12 30
12 12 30
12 12 30
12 12 30
12 12 30
12 12 30
12 12 30
12 12 30
12 12 30
12 12 30
12 12 30
12 12 30
12 12 30
12 12 30
12 12 30
12 12 30
12 12 30
12 12 30
12 12 30
12 12 30
12 12 30
12 12 30
12 12 30
12 12 30
12 12 30
12 12 30
12 12 30
12 12 30
12 12 30
12 12 30
12 12 30
12 12 30
12 12 30
12 12 30
12 12 30
12 12 30
12 12 30
12 12 30
12 12 30
12 12 30
12 12 30
12 12 30
12 12 30
12 12 30
12 12 30
12 12 30
12 12 30
12 12 30
12 12 30
12 12 30
12 12 30
12 12 30
12 12 30
12 12 30
12 12 30
12 12 30
12 12 30
12 12 30
12 12 30
12 12 30
12 12 30
12 12 30
12 12 30
12 12 30
12 12 30
12 12 30
12 12 30
12 12 30
12 12 30
12 12 30
12 12 30
12 12 30
12 12 30
12 12 30
12 12 30
12 12 30
12 12 30
12 12 30
12 12 30
12 12 30
12 12 30
12 12 30
12 12 30
12 12 30
12 12 30
12 12 30
12 12 30
12 12 30
12 12 30
12 12 30
12 12 30
12 12 30
12 12 30
12 12 30
12 12 30
12 12 30
12 12 30
12 12 30
12 12 30
12 12 30
12 12 30
12 12 30
12 12 30
12 12 30
12 12 30
12 12 30
12 12 30
12 12 30
12 12 30
12 12 30
12 12 30
12 12 30
12 12 30
12 12 30
12 12 30
12 12 30
12 12 30
12 12 30
12 12 30
12 12 30
12 12 30
12 12 30
12 12 30
12 12 30
12 12 30
12 12 30
12 12 30
12 12 30
12 12 30
12 12 30
12 12 30
12 12 30
12 12 30
12 12 30
12 12 30
12 12 30
12 12 30
12 12 30
12 12 30
12 12 30
12 12 30
12 12 30
12 12 30
12 12 30
12 12 30
12 12 30
12 12 30
12 12 30
12 12 30
12 12 30
12 12 30
12 12 30
12 12 30
12 12 30
12 12 30
12 12 30
12 12 30
12 12 30
12 12 30
12 12 30
12 12 30
12 12 30
12 12 30
12 12 30
12 12 30
12 12 30
12 12 30
12 12 30
12 12 30
12 12 30
12 12 30
12 12 30
12 12 30
12 12 30
12 12 30
12 12 30
12 12 30
12 12 30
12 12 30
12 12 30
12 12 30
12 12 30
12 12 30
12 12 30
12 12 30
12 12 30
12 12 30
12 12 30
12 12 30
12 12 30
12 12 30
12 12 30
12 12 30
12 12 30
12 12 30
12 12 30
12 12 30
12 12 30
12 12 30
12 12 30
12 12 30
12 12 30
12 12 30
12 12 30
12 12 30
12 12 30
12 12 30
12 12 30
12 12 30
12 12 30
12 12 30
12 12 30
12 12 30
12 12 30
12 12 30
12 12 30
12 12 30
12 12 30
12 12 30
12 12 30
12 12 30
12 12 30
12 12 30
12 12 30
12 12 30
12 12 30
12 12 30
12 12 30
12 12 30
12 12 30
12 12 30
12 12 30
12 12 30
12 12 30
12 12 30
12 12 30
12 12 30
12 12 30
12 12 30
12 12 30
12 12 30
12 12 30
12 12 30
12 12 30
12 12 30
12 12 30
12 12 30
12 12 30
12 12 30
12 12 30
12 12 30
12 12 30
12 12 30
12 12 30
12 12 30
12 12 30
12 12 30
12 12 30
12 12 30
12 12 30
12 12 30
12 12 30
12 12 30
12 12 30
12 12 30
12 12 30
12 12 30
12 12 30
12 12 30
12 12 30
12 12 30
12 12 30
12 12 30
12 12 30
12 12 30
12 12 30
12 12 30
12 12 30
12 12 30
12 12 30
12 12 30
12 12 30
12 12 30
12 12 30
12 12 30
12 12 30
12 12 30
12 12 30
12 12 30
12 12 30
12 12 30
12 12 30
12 12 30
12 12 30
12 12 30
12 12 30
12 12 30
12 12 30
12 12 30
12 12 30
12 12 30
12 12 30
12 12 30
12 12 30
12 12 30
12 12 30
12 12 30
12 12 30
12 12 30
12 12 30
12 12 30
12 12 30
12 12 30
12 12 30
12 12 30
12 12 30
12 12 30
12 12 30
12 12 30
12 12 30
12 12 30
12 12 30
12 12 30
12 12 30
12 12 30
12 12 30
12 12 30
12 12 30
12 12 30
12 12 30
12 12 30
12 12 30
12 12 30
12 12 30
12 12 30
12 12 30
12 12 30
12 12 30
12 12 30
12 12 30
12 12 30
12 12 30
12 12 30
12 12 30
12 12 30
12 12 30
12 12 30
12 12 30
12 12 30
12 12 30
12 12 30
12 12 30
12 12 30
12 12 30
12 12 30
12 12 30
12 12 30
12 12 30
12 12 30
12 12 30
12 12 30
12 12 30
12 12 30
12 12 30
12 12 30
12 12 30
12 12 30
12 12 30
12 12 30
12 12 30
12 12 30
12 12 30
12 12 30
12 12 30
12 12 30
12 12 30
12 12 30
12 12 30
12 12 30
12 12 30
12 12 30
12 12 30
12 12 30
12 12 30
12 12 30
12 12 30
12 12 30
12 12 30
12 12 30
12 12 30
12 12 30
12 12 30
12 12 30
12 12 30
12 12 30
12 12 30
12 12 30
12 12 30
12 12 30
12 12 30
12 12 30
12 12 30
12 12 30
12 12 30
12 12 30
12 12 30
12 12 30
12 12 30
12 12 30
12 12 30
12 12 30
12 12 30
12 12 30
12 12 30
12 12 30
12 12 30
12 12 30
12 12 30
12 12 30
12 12 30
12 12 30
12 12 30
12 12 30
12 12 30
12 12 30
12 12 30
12 12 30
12 12 30
12 12 30
12 12 30
12 12 30
12 12 30
12 12 30
12 12 30
12 12 30
12 12 30
12 12 30
12 12 30
12 12 30
12 12 30
12 12 30
12 12 30
12 12 30
12 12 30
12 12 30
12 12 30
12 12 30
12 12 30
12 12 30
12 12 30
12 12 30
12 12 30
12 12 30
12 12 30
12 12 30
12 12 30
12 12 30
12 12 30
12 12 30
12 12 30
12 12 30
12 12 30
12 12 30
12 12 30
12 12 30
12 12 30
12 12 30
12 12 30
12 12 30
12 12 30
12 12 30
12 12 30
12 12 30
12 12 30
12 12 30
12 12 30
12 12 30
12 12 30
12 12 30
12 12 30
12 12 30
12 12 30
12 12 30
12 12 30
12 12 30
12 12 30
12 12 30
12 12 30
12 12 30
12 12 30
12 12 30
12 12 30
12 12 30
12 12 30
12 12 30
12 12 30
12 12 30
12 12 30
12 12 30
12 12 30
12 12 30
12 12 30
12 12 30
12 12 30
12 12 30
12 12 30
12 12 30
12 12 30
12 12 30
12 12 30
12 12 30
12 12 30
12 12 30
12 12 30
12 12 30
12 12 30
12 12 30
12 12 30
12 12 30
12 12 30
12 12 30
12 12 30
12 12 30
12 12 30
12 12 30
12 12 30
12 12 30
12 12 30
12 12 30
12 12 30
12 12 30
12 12 30
12 12 30
12 12 30
12 12 30
12 12 30
12 12 30
12 12 30
12 12 30
12 12 30
12 12 30
12 12 30
12 12 30
12 12 30
12 12 30
12 12 30
12 12 30
12 12 30
12 12 30
12 12 30
12 12 30
12 12 30
12 12 30
12 12 30
12 12 30
12 12 30
12 12 30
12 12 30
12 12 30
12 12 30
12 12 30
12 12 30
12 12 30
12 12 30
12 12 30
12 12 30
12 12 30
12 12 30
12 12 30
12 12 30
12 12 30
12 12 30
12 12 30
12 12 30
12 12 30
12 12 30
12 12 30
12 12 30
12 12 30
12 12 30
12 12 30
12 12 30
12 12 30
12 12 30
12 12 30
12 12 30
12 12 30
12 12 30
12 12 30
12 12 30
12 12 30
12 12 30
12 12 30
12 12 30
12 12 30
12 12 30
12 12 30
12 12 30
12 12 30
12 12 30
12 12 30
12 12 30
12 12 30
12 12 30
12 12 30
12 12 30
12 12 30
12 12 30
12 12 30
12 12 30
12 12 30
12 12 30
12 12 30
12 12 30
12 12 30
12 12 30
12 12 30
12 12 30
12 12 30
12 12 30
12 12 30
12 12 30
12 12 30
12 12 30
12 12 30
12 12 30
12 12 30
12 12 30
12 12 30
12 12 30
12 12 30
12 12 30
12 12 30
12 12 30
12 12 30
12 12 30
12 12 30
12 12 30
12 12 30
12 12 30
12 12 30
12 12 30
12 12 30
12 12 30
12 12 30
12 12 30
12 12 30
12 12 30
12 12 30
12 12 30
12 12 30
12 12 30
12 12 30
12 12 30
12 12 30
12 12 30
12 12 30
12 12 30
12 12 30
12 12 30
12 12 30
12 12 30
12 12 30
12 12 30
12 12 30
12 12 30
12 12 30
12 12 30
12 12 30
12 12 30
12 12 30
12 12 30
12 12 30
12 12 30
12 12 30
12 12 30
12 12 30
12 12 30
12 12 30
12 12 30
12 12 30
12 12 30
12 12 30
12 12 30
12 12 30
12 12 30
12 12 30
12 12 30
12 12 30
12 12 30
12 12 30
12 12 30
12 12 30
12 12 30
12 12 30
12 12 30
12 12 30
12 12 30
12 12 30
12 12 30
12 12 30
12 12 30
12 12 30
12 12 30
12 12 30
12 12 30
12 12 30
12 12 30
12 12 30
12 12 30
12 12 30
12 12 30
12 12 30
12 12 30
12 12 30
12 12 30
12 12 30
12 12 30
12 12 30
12 12 30
12 12 30
12 12 30
12 12 30
12 12 30
12 12 30
12 12 30
12 12 30
12 12 30
12 12 30
12 12 30
12 12 30
12 12 30
12 12 30
12 12 30
12 12 30
12 12 30
12 12 30
12 12 30
12 12 30
12 12 30
12 12 30
12 12 30
12 12 30
12 12 30
12 12 30
12 12 30
12 12 30
12 12 30
12 12 30
12 12 30
12 12 30
12 12 30
12 12 30
12 12 30
12 12 30
12 12 30
12 12 30
12 12 30
12 12 30
12 12 30
12 12 30
12 12 30
12 12 30
12 12 30
12 12 30
12 12 30
12 12 30
12 12 30
12 12 30
12 12 30
12 12 30
12 12 30
12 12 30
12 12 30
12 12 30
12 12 30
12 12 30
12 12 30
12 12 30
12 12 30
12 12 30
12 12 30
12 12 30
12 12 30
12 12 30
12 12 30
12 12 30
12 12 30
12 12 30
12 12 30
12 12 30
12 12 30
12 12 30
12 12 30
12 12 30
12 12 30
12 12 30
12 12 30
12 12 30
12 12 30
12 12 30
12 12 30
12 12 30
12 12 30
12 12 30
12 12 30
12 12 30
12 12 30
12 12 30
12 12 30
12 12 30
12 12 30
12 12 30
12 12 30
12 12 30
12 12 30
12 12 30
12 12 30
12 12 30
12 12 30
12 12 30
12 12 30
12 12 30
12 12 30
12 12 30
12 12 30
12 12 30
12 12 30
12 12 30
12 12 30
12 12 30
12 12 30
12 12 30
12 12 30
12 12 30
12 12 30
12 12 30
12 12 30
12 12 30
12 12 30
12 12 30
12 12 30
12 12 30
12 12 30
12 12 30
12 12 30
12 12 30
12 12 30
12 12 30
12 12 30
12 12 30
12 12 30
12 12 30
12 12 30
12 12 30
12 12 30
12 12 30
12 12 30
12 12 30
12 12 30
12 12 30
12 12 30
12 12 30
12 12 30
12 12 30
12 12 30
12 12 30
12 12 30
12 12 30
12 12 30
12 12 30
12 12 30
12 12 30
12 12 30
12 12 30
12 12 30
12 12 30
12 12 30
12 12 30
12 12 30
12 12 30
12 12 30
12 12 30
12 12 30
12 12 30
12 12 30
12 12 30
12 12 30
12 12 30
12 12 30
12 12 30
12 12 30
12 12 30
12 12 30
12 12 30
12 12 30
12 12 30
12 12 30
12 12 30
12 12 30
12 12 30
12 12 30
12 12 30
12 12 30
12 12 30
12 12 30
12 12 30
12 12 30
12 12 30
12 12 30
12 12 30
12 12 30
12 12 30
12 12 30
12 12 30
12 12 30
12 12 30
12 12 30
12 12 30
12 12 30
12 12 30
12 12 30
12 12 30
12 12 30
12 12 30
12 12 30
12 12 30
12 12 30
12 12 30
12 12 30
12 12 30
12 12 30
12 12 30
12 12 30
12 12 30
12 12 30
12 12 30
12 12 30
12 12 30
12 12 30
12 12 30
12 12 30
12 12 30
12 12 30
12 12 30
12 12 30
12 12 30
12 12 30
12 12 30
12 12 30
12 12 30
12 12 30
12 12 30
12 12 30
12 12 30
12 12 30
12 12 30
12 12 30
12 12 30
12 12 30
12 12 30
12 12 30
12 12 30
12 12 30
12 12 30
12 12 30
12 12 30
12 12 30
12 12 30
12 12 30
12 12 30
12 12 30
12 12 30
12 12 30
12 12 30
12 12 30
12 12 30
12 12 30
12 12 30
12 12 30
12 12 30
12 12 30
12 12 30
12 12 30
12 12 30
12 12 30
12 12 30
12 12 30
12 12 30
12 12 30
12 12 30
12 12 30
12 12 30
12 12 30
12 12 30
12 12 30
12 12 30
12 12 30
12 12 30
12 12 30
12 12 30
12 12 30
12 12 30
12 12 30
12 12 30
12 12 30
12 12 30
12 12 30
12 12 30
12 12 30
12 12 30
12 12 30
12 12 30
12 12 30
12 12 30
12 12 30
12 12 30
12 12 30
12 12 30
12 12 30
12 12 30
12 12 30
12 12 30
12 12 30
12 12 30
12 12 30
12 12 30
12 12 30
12 12 30
12 12 30
12 12 30
12 12 30
12 12 30
12 12 30
12 12 30
12 12 30
12 12 30
12 12 30
12 12 30
12 12 30
12 12 30
12 12 30
12 12 30
12 12 30
12 12 30
12 12 30
12 12 30
12 12 30
12 12 30
12 12 30
12 12 30
12 12 30
12 12 30
12 12 30
12 12 30
12 12 30
12 12 30
12 12 30
12 12 30
12 12 30
12 12 30
12 12 30
12 12 30
12 12 30
12 12 30
12 12 30
12 12 30
12 12 30
12 12 30
12 12 30
12 12 30
12 12 30
12 12 30
12 12 30
12 12 30
12 12 30
12 12 30
12 12 30
12 12 30
12 12 30
12 12 30
12 12 30
12 12 30
12 12 30
12 12 30
12 12 30
12 12 30
12 12 30
12 12 30
12 12 30
12 12 30
12 12 30
12 12 30
12 12 30
12 12 30
12 12 30
12 12 30
12 12 30
12 12 30
12 12 30
12 12 30
12 12 30
12 12 30
12 12 30
12 12 30
12 12 30
12 12 30
12 12 30
12 12 30
12 12 30
12 12 30
12 12 30
12 12 30
12 12 30
12 12 30
12 12 30
12 12 30
12 12 30
12 12 30
12 12 30
12 12 30
12 12 30
12 12 30
12 12 30
12 12 30
12 12 30
12 12 30
12 12 30
12 12 30
12 12 30
12 12 30
12 12 30
12 12 30
12 12 30
12 12 30
12 12 30
12 12 30
12 12 30
12 12 30
12 12 30
12 12 30
12 12 30
12 12 30
12 12 30
12 12 30
12 12 30
12 12 30
12 12 30
12 12 30
12 12 30
12 12 30
12 12 30
12 12 30
12 12 30
12 12 30
12 12 30
12 12 30
12 12 30
12 12 30
12 12 30
12 12 30
12 12 30
12 12 30
12 12 30
12 12 30
12 12 30
12 12 30
12 12 30
12 12 30
12 12 30
12 12 30
12 12 30
12 12 30
12 12 30
12 12 30
12 12 30
12 12 30
12 12 30
12 12 30
12 12 30
12 12 30
12 12 30
12 12 30
12 12 30
12 12 30
12 12 30
12 12 30
12 12 30
12 12 30
12 12 30
12 12 30
12 12 30
12 12 30
12 12 30
12 12 30
12 12 30
12 12 30
12 12 30
12 12 30
12 12 30
12 12 30
12 12 30
12 12 30
12 12 30
12 12 30
12 12 30
12 12 30
12 12 30
12 12 30
12 12 30
12 12 30
12 12 30
12 12 30
12 12 30
12 12 30
12 12 30
12 12 30
12 12 30
12 12 30
12 12 30
12 12 30
12 12 30
12 12 30
12 12 30
12 12 30
12 12 30
12 12 30
12 12 30
12 12 30
12 12 30
12 12 30
12 12 30
12 12 30
12 12 30
12 12 30
12 12 30
12 12 30
12 12 30
12 12 30
12 12 30
12 12 30
12 12 30
12 12 30
12 12 30
12 12 30
12 12 30
12 12 30
12 12 30
12 12 30
12 12 30
12 12 30
12 12 30
12 12 30
12 12 30
12 12 30
12 12 30
12 12 30
12 12 30
12 12 30
12 12 30
12 12 30
12 12 30
12 12 30
12 12 30
12 12 30
12 12 30
12 12 30
12 12 30
12 12 30
12 12 30
12 12 30
12 12 30
12 12 30
12 12 30
12 12 30
12 12 30
12 12 30
12 12 30
12 12 30
12 12 30
12 12 30
12 12 30
12 12 30
12 12 30
12 12 30
12 12 30
12 12 30
12 12 30
12 12 30
12 12 30
12 12 30
12 12 30
12 12 30
12 12 30
12 12 30
12 12 30
12 12 30
12 12 30
12 12 30
12 12 30
12 12 30
12 12 30
12 12 30
12 12 30
12 12 30
12 12 30
12 12 30
12 12 30
12 12 30
12 12 30
12 12 30
12 12 30
12 12 30
12 12 30
12 12 30
12 12 30
12 12 30
12 12 30
12 12 30
12 12 30
12 12 30
12 12 30
12 12 30
12 12 30
12 12 30
12 12 30
12 12 30
12 12 30
12 12 30
12 12 30
12 12 30
12 12 30
12 12 30
12 12 30
12 12 30
12 12 30
12 12 30
12 12 30
12 12 30
12 12 30
12 12 30
12 12 30
12 12 30
12 12 30
12 12 30
12 12 30
12 12 30
12 12 30
12 12 30
12 12 30
12 12 30
12 12 30
12 12 30
12 12 30
12 12 30
12 12 30
12 12 30
12 12 30
12 12 30
12 12 30
12 12 30
12 12 30
12 12 30
12 12 30
12 12 30
12 12 30
12 12 30
12 12 30
12 12 30
12 12 30
12 12 30
12 12 30
12 12 30
12 12 30
12 12 30
12 12 30
12 12 30
12 12 30
12 12 30
12 12 30
12 12 30
12 12 30
12 12 30
12 12 30
12 12 30
12 12 30
12 12 30
12 12 30
12 12 30
12 12 30
12 12 30
12 12 30
12 12 30
12 12 30
12 12 30
12 12 30
12 12 30
12 12 30
12 12 30
12 12 30
12 12 30
12 12 30
12 12 30
12 12 30
12 12 30
12 12 30
12 12 30
12 12 30
12 12 30
12 12 30
12 12 30
12 12 30
12 12 30
12 12 30
12 12 30
12 12 30
12 12 30
12 12 30
12 12 30
12 12 30
12 12 30
12 12 30
12 12 30
12 12 30
12 12 30
12 12 30
12 12 30
12 12 30
12 12 30
12 12 30
12 12 30
12 12 30
12 12 30
12 12 30
12 12 30
12 12 30
12 12 30
12 12 30
12 12 30
12 12 30
12 12 30
12 12 30
12 12 30
12 12 30
12 12 30
12 12 30
12 12 30
12 12 30
12 12 30
12 12 30
12 12 30
12 12 30
12 12 30
12 12 30
12 12 30
12 12 30
12 12 30
12 12 30
12 12 30
12 12 30
12 12 30
12 12 30
12 12 30
12 12 30
12 12 30
12 12 30
12 12 30
12 12 30
12 12 30
12 12 30
12 12 30
12 12 30
12 12 30
12 12 30
12 12 30
12 12 30
12 12 30
12 12 30
12 12 30
12 12 30
12 12 30
12 12 30
12 12 30
12 12 30
12 12 30
12 12 30
12 12 30
12 12 30
12 12 30
12 12 30
12 12 30
12 12 30
12 12 30
12 12 30
12 12 30
12 12 30
12 12 30
12 12 30
12 12 30
12 12 30
12 12 30
12 12 30
12 12 30
12 12 30
12 12 30
12 12 30
12 12 30
12 12 30
12 12 30
12 12 30
12 12 30
12 12 30
12 12 30
12 12 30
12 12 30
12 12 30
12 12 30
12 12 30
12 12 30
12 12 30
12 12 30
12 12 30
12 12 30
12 12 30
12 12 30
12 12 30
12 12 30
12 12 30
12 12 30
12 12 30
12 12 30
12 12 30
12 12 30
12 12 30
12 12 30
12 12 30
12 12 30
12 12 30
12 12 30
12 12 30
12 12 30
12 12 30
12 12 30
12 12 30
12 12 30
12 12 30
12 12 30
12 12 30
12 12 30
12 12 30
12 12 30
12 12 30
12 12 30
12 12 30
12 12 30
12 12 30
12 12 30
12 12 30
12 12 30
12 12 30
12 12 30
12 12 30
12 12 30
12 12 30
12 12 30
12 12 30
12 12 30
12 12 30
12 12 30
12 12 30
12 12 30
12 12 30
12 12 30
12 12 30
12 12 30
12 12 30
12 12 30
12 12 30
12 12 30
12 12 30
12 12 30
12 12 30
12 12 30
12 12 30
12 12 30
12 12 30
12 12 30
12 12 30
12 12 30
12 12 30
12 12 30
12 12 30
12 12 30
12 12 30
12 12 30
12 12 30
12 12 30
12 12 30
12 12 30
12 12 30
12 12 30
12 12 30
12 12 30
12 12 30
12 12 30
12 12 30
12 12 30
12 12 30
12 12 30
12 12 30
12 12 30
12 12 30
12 12 30
12 12 30
12 12 30
12 12 30
12 12 30
12 12 30
12 12 30
12 12 30
12 12 30
12 12 30
12 12 30
12 12 30
12 12 30
12 12 30
12 12 30
12 12 30
12 12 30
12 12 30
12 12 30
12 12 30
12 12 30
12 12 30
12 12 30
12 12 30
12 12 30
12 12 30
12 12 30
12 12 30
12 12 30
12 12 30
12 12 30
12 12 30
12 12 30
12 12 30
12 12 30
12 12 30
12 12 30
12 12 30
12 12 30
12 12 30
12 12 30
12 12 30
12 12 30
12 12 30
12 12 30
12 12 30
12 12 30
12 12 30
12 12 30
12 12 30
12 12 30
12 12 30
12 12 30
12 12 30
12 12 30
12 12 30
12 12 30
12 12 30
12 12 30
12 12 30
12 12 30
12 12 30
12 12 30
12 12 30
12 12 30
12 12 30
12 12 30
12 12 30
12 12 30
12 12 30
12 12 30
12 12 30
12 12 30
12 12 30
12 12 30
12 12 30
12 12 30
12 12 30
12 12 30
12 12 30
12 12 30
12 12 30
12 12 30
12 12 30
12 12 30
12 12 30
12 12 30
12 12 30
12 12 30
12 12 30
12 12 30
12 12 30
12 12 30
12 12 30
12 12 30
12 12 30
12 12 30
12 12 30
12 12 30
12 12 30
12 12 30
12 12 30
12 12 30
12 12 30
12 12 30
12 12 30
12 12 30
12 12 30
12 12 30
12 12 30
12 12 30
12 12 30
12 12 30
12 12 30
12 12 30
12 12 30
12 12 30
12 12 30
12 12 30
12 12 30
12 12 30
12 12 30
12 12 30
12 12 30
12 12 30
12 12 30
12 12 30
12 12 30
12 12 30
12 12 30
12 12 30
12 12 30
12 12 30
12 12 30
12 12 30
12 12 30
12 12 30
12 12 30
12 12 30
12 12 30
12 12 30
12 12 30
12 12 30
12 12 30
12 12 30
12 12 30
12 12 30
12 12 30
12 12 30
12 12 30
12 12 30
12 12 30
12 12 30
12 12 30
12 12 30
12 12 30
12 12 30
12 12 30
12 12 30
12 12 30
12 12 30
12 12 30
12 12 30
12 12 30
12 12 30
12 12 30
12 12 30
12 12 30
12 12 30
12 12 30
12 12 30
12 12 30
12 12 30
12 12 30
12 12 30
12 12 30
12 12 30
12 12 30
12 12 30
12 12 30
12 12 30
12 12 30
12 12 30
12 12 30
12 12 30
12 12 30
12 12 30
12 12 30
12 12 30
12 12 30
12 12 30
12 12 30
12 12 30
12 12 30
12 12 30
12 12 30
12 12 30
12 12 30
12 12 30
12 12 30
12 12 30
12 12 30
12 12 30
12 12 30
12 12 30
12 12 30
12 12 30
12 12 30
12 12 30
12 12 30
12 12 30
12 12 30
12 12 30
12 12 30
12 12 30
12 12 30
12 12 30
12 12 30
12 12 30
12 12 30
12 12 30
12 12 30
12 12 30
12 12 30
12 12 30
12 12 30
12 12 30
12 12 30
12 12 30
12 12 30
12 12 30
12 12 30
12 12 30
12 12 30
12 12 30
12 12 30
12 12 30
12 12 30
12 12 30
12 12 30
12 12 30
12 12 30
12 12 30
12 12 30
12 12 30
12 12 30
12 12 30
12 12 30
12 12 30
12 12 30
12 12 30
12 12 30
12 12 30
12 12 30
12 12 30
12 12 30
12 12 30
12 12 30
12 12 30
12 12 30
12 12 30
12 12 30
12 12 30
12 12 30
12 12 30
12 12 30
12 12 30
12 12 30
12 12 30
12 12 30
12 12 30
12 12 30
12 12 30
12 12 30
12 12 30
12 12 30
12 12 30
12 12 30
12 12 30
12 12 30
12 12 30
12 12 30
12 12 30
12 12 30
12 12 30
12 12 30
12 12 30
12 12 30
12 12 30
12 12 30
12 12 30
12 12 30
12 12 30
12 12 30
12 12 30
12 12 30
12 12 30
12 12 30
12 12 30
12 12 30
12 12 30
12 12 30
12 12 30
12 12 30
12 12 30
12 12 30
12 12 30
12 12 30
12 12 30
12 12 30
12 12 30
12 12 30
12 12 30
12 12 30
12 12 30
12 12 30
12 12 30
12 12 30
12 12 30
12 12 30
12 12 30
12 12 30
12 12 30
12 12 30
12 12 30
12 12 30
12 12 30
12 12 30
12 12 30
12 12 30
12 12 30
12 12 30
12 12 30
12 12 30
12 12 30
12 12 30
12 12 30
12 12 30
12 12 30
12 12 30
12 12 30
12 12 30
12 12 30
12 12 30
12 12 30
12 12 30
12 12 30
12 12 30
12 12 30
12 12 30
12 12 30
12 12 30
12 12 30
12 12 30
12 12 30
12 12 30
12 12 30
12 12 30
12 12 30
12 12 30
12 12 30
12 12 30
12 12 30
12 12 30
12 12 30
12 12 30
12 12 30
12 12 30
12 12 30
12 12 30
12 12 30
12 12 30
12 12 30
12 12 30
12 12 30
12 12 30
12 12 30
12 12 30
12 12 30
12 12 30
12 12 30
12 12 30
12 12 30
12 12 30
12 12 30
12 12 30
12 12 30
12 12 30
12 12 30
12 12 30
12 12 30
12 12 30
12 12 30
12 12 30
12 12 30
12 12 30
12 12 30
12 12 30
12 12 30
12 12 30
12 12 30
12 12 30
12 12 30
12 12 30
12 12 30
12 12 30
12 12 30
12 12 30
12 12 30
12 12 30
12 12 30
12 12 30
12 12 30
12 12 30
12 12 30
12 12 30
12 12 30
12 12 30
12 12 30
12 12 30
12 12 30
12 12 30
12 12 30
12 12 30
12 12 30
12 12 30
12 12 30
12 12 30
12 12 30
12 12 30
12 12 30
12 12 30
12 12 30
12 12 30
12 12 30
12 12 30
12 12 30
12 12 30
12 12 30
12 12 30
12 12 30
12 12 30
12 12 30
12 12 30
12 12 30
12 12 30
12 12 30
12 12 30
12 12 30
12 12 30
12 12 30
12 12 30
12 12 30
12 12 30
12 12 30
12 12 30
12 12 30
12 12 30
12 12 30
12 12 30
12 12 30
12 12 30
12 12 30
12 12 30
12 12 30
12 12 30
12 12 30
12 12 30
12 12 30
12 12 30
12 12 30
12 12 30
12 12 30
12 12 30
12 12 30
12 12 30
12 12 30
12 12 30
12 12 30
12 12 30
12 12 30
12 12 30
12 12 30
12 12 30
12 12 30
12 12 30
12 12 30
12 12 30
12 12 30
12 12 30
12 12 30
12 12 30
12 12 30
12 12 30
12 12 30
12 12 30
12 12 30
12 12 30
12 12 30
12 12 30
12 12 30
12 12 30
12 12 30
12 12 30
12 12 30
12 12 30
12 12 30
12 12 30
12 12 30
12 12 30
12 12 30
12 12 30
12 12 30
12 12 30
12 12 30
12 12 30
12 12 30
12 12 30
12 12 30
12 12 30
12 12 30
12 12 30
12 12 30
12 12 30
12 12 30
12 12 30
12 12 30
12 12 30
12 12 30
12 12 30
12 12 30
12 12 30
12 12 30
12 12 30
12 12 30
12 12 30
12 12 30
12 12 30
12 12 30
12 12 30
12 12 30
12 12 30
12 12 30
12 12 30
12 12 30
12 12 30
12 12 30
12 12 30
12 12 30
12 12 30
12 12 30
12 12 30
12 12 30
12 12 30
12 12 30
12 12 30
12 12 30
12 12 30
12 12 30
12 12 30
12 12 30
12 12 30
12 12 30
12 12 30
12 12 30
12 12 30
12 12 30
12 12 30
12 12 30
12 12 30
12 12 30
12 12 30
12 12 30
12 12 30
12 12 30
12 12 30
12 12 30
12 12 30
12 12 30
12 12 30
12 12 30
12 12 30
12 12 30
12 12 30
12 12 30
12 12 30
12 12 30
12 12 30
12 12 30
12 12 30
12 12 30
12 12 30
12 12 30
12 12 30
12 12 30
12 12 30
12 12 30
12 12 30
12 12 30
12 12 30
12 12 30
12 12 30
12 12 30
12 12 30
12 12 30
12 12 30
12 12 30
12 12 30
12 12 30
12 12 30
12 12 30
12 12 30
12 12 30
12 12 30
12 12 30
12 12 30
12 12 30
12 12 30
12 12 30
12 12 30
12 12 30
12 12 30
12 12 30
12 12 30
12 12 30
12 12 30
12 12 30
12 12 30
12 12 30
12 12 30
12 12 30
12 12 30
12 12 30
12 12 30
12 12 30
12 12 30
12 12 30
12 12 30
12 12 30
12 12 30
12 12 30
12 12 30
12 12 30
12 12 30
12 12 30
12 12 30
12 12 30
12 12 30
12 12 30
12 12 30
12 12 30
12 12 30
12 12 30
12 12 30
12 12 30
12 12 30
12 12 30
12 12 30
12 12 30
12 12 30
12 12 30
12 12 30
12 12 30
12 12 30
12 12 30
12 12 30
12 12 30
12 12 30
12 12 30
12 12 30
12 12 30
12 12 30
12 12 30
12 12 30
12 12 30
12 12 30
12 12 30
12 12 30
12 12 30
12 12 30
12 12 30
12 12 30
12 12 30
12 12 30
12 12 30
12 12 30
12 12 30
12 12 30
12 12 30
12 12 30
12 12 30
12 12 30
12 12 30
12 12 30
12 12 30
12 12 30
12 12 30
12 12 30
12 12 30
12 12 30
12 12 30
12 12 30
12 12 30
12 12 30
12 12 30
12 12 30
12 12 30
12 12 30
12 12 30
12 12 30
12 12 30
12 12 30
12 12 30
12 12 30
12 12 30
12 12 30
12 12 30
12 12 30
12 12 30
12 12 30
12 12 30
12 12 30
12 12 30
12 12 30
12 12 30
12 12 30
12 12 30
12 12 30
12 12 30
12 12 30
12 12 30
12 12 30
12 12 30
12 12 30
12 12 30
12 12 30
12 12 30
12 12 30
12 12 30
12 12 30
12 12 30
12 12 30
12 12 30
12 12 30
12 12 30
12 12 30
12 12 30
12 12 30
12 12 30
12 12 30
12 12 30
12 12 30
12 12 30
12 12 30
12 12 30
12 12 30
12 12 30
12 12 30
12 12 30
12 12 30
12 12 30
12 12 30
12 12 30
12 12 30
12 12 30
12 12 30
12 12 30
12 12 30
12 12 30
12 12 30
12 12 30
12 12 30
12 12 30
12 12 30
12 12 30
12 12 30
12 12 30
12 12 30
12 12 30
12 12 30
12 12 30
12 12 30
12 12 30
12 12 30
12 12 30
12 12 30
12 12 30
12 12 30
12 12 30
12 12 30
12 12 30
12 12 30
12 12 30
12 12 30
12 12 30
12 12 30
12 12 30
12 12 30
12 12 30
12 12 30
12 12 30
12 12 30
12 12 30
12 12 30
12 12 30
12 12 30
12 12 30
12 12 30
12 12 30
12 12 30
12 12 30
12 12 30
12 12 30
12 12 30
12 12 30
12 12 30
12 12 30
12 12 30
12 12 30
12 12 30
12 12 30
12 12 30
12 12 30
12 12 30
12 12 30
12 12 30
12 12 30
12 12 30
12 12 30
12 12 30
12 12 30
12 12 30
12 12 30
12 12 30
12 12 30
12 12 30
12 12 30
12 12 30
12 12 30
12 12 30
12 12 30
12 12 30
12 12 30
12 12 30
12 12 30
12 12 30
12 12 30
12 12 30
12 12 30
12 12 30
12 12 30
12 12 30
12 12 30
12 12 30
12 12 30
12 12 30
12 12 30
12 12 30
12 12 30
12 12 30
12 12 30
12 12 30
12 12 30
12 12 30
12 12 30
12 12 30
12 12 30
12 12 30
12 12 30
12 12 30
12 12 30
12 12 30
12 12 30
12 12 30
12 12 30
12 12 30
12 12 30
12 12 30
12 12 30
12 12 30
12 12 30
12 12 30
12 12 30
12 12 30
12 12 30
12 12 30
12 12 30
12 12 30
12 12 30
12 12 30
12 12 30
12 12 30
12 12 30
12 12 30
12 12 30
12 12 30
12 12 30
12 12 30
12 12 30
12 12 30
12 12 30
12 12 30
12 12 30
12 12 30
12 12 30
12 12 30
12 12 30
12 12 30
12 12 30
12 12 30
12 12 30
12 12 30
12 12 30
12 12 30
12 12 30
12 12 30
12 12 30
12 12 30
12 12 30
12 12 30
12 12 30
12 12 30
12 12 30
12 12 30
12 12 30
12 12 30
12 12 30
12 12 30
12 12 30
12 12 30
12 12 30
12 12 30
12 12 30
12 12 30
12 12 30
12 12 30
12 12 30
12 12 30
12 12 30
12 12 30
12 12 30
12 12 30
12 12 30
12 12 30
12 12 30
12 12 30
12 12 30
12 12 30
12 12 30
12 12 30
12 12 30
12 12 30
12 12 30
12 12 30
12 12 30
12 12 30
12 12 30
12 12 30
12 12 30
12 12 30
12 12 30
12 12 30
12 12 30
12 12 30
12 12 30
12 12 30
12 12 30
12 12 30
12 12 30
12 12 30
12 12 30
12 12 30
12 12 30
12 12 30
12 12 30
12 12 30
12 12 30
12 12 30
12 12 30
12 12 30
12 12 30
12 12 30
12 12 30
12 12 30
12 12 30
12 12 30
12 12 30
12 12 30
12 12 30
12 12 30
12 12 30
12 12 30
12 12 30
12 12 30
12 12 30
12 12 30
12 12 30
12 12 30
12 12 30
12 12 30
12 12 30
12 12 30
12 12 30
12 12 30
12 12 30
12 12 30
12 12 30
12 12 30
12 12 30
12 12 30
12 12 30
12 12 30
12 12 30
12 12 30
12 12 30
12 12 30
12 12 30
12 12 30
12 12 30
12 12 30
12 12 30
12 12 30
12 12 30
12 12 30
12 12 30
12 12 30
12 12 30
12 12 30
12 12 30
12 12 30
12 12 30
12 12 30
12 12 30
12 12 30
12 12 30
12 12 30
12 12 30
12 12 30
12 12 30
12 12 30
12 12 30
12 12 30
12 12 30
12 12 30
12 12 30
12 12 30
12 12 30
12 12 30
12 12 30
12 12 30
12 12 30
12 12 30
12 12 30
12 12 30
12 12 30
12 12 30
12 12 30
12 12 30
12 12 30
12 12 30
12 12 30
12 12 30
12 12 30
12 12 30
12 12 30
12 12 30
12 12 30
12 12 30
12 12 30
12 12 30
12 12 30
12 12 30
12 12 30
12 12 30
12 12 30
12 12 30
12 12 30
12 12 30
12 12 30
12 12 30
12 12 30
12 12 30
12 12 30
12 12 30
12 12 30
12 12 30
12 12 30
12 12 30
12 12 30
12 12 30
12 12 30
12 12 30
12 12 30
12 12 30
12 12 30
12 12 30
12 12 30
12 12 30
12 12 30
12 12 30
12 12 30
12 12 30
12 12 30
12 12 30
12 12 30
12 12 30
12 12 30
12 12 30
12 12 30
12 12 30
12 12 30
12 12 30
12 12 30
12 12 30
12 12 30
12 12 30
12 12 30
12 12 30
12 12 30
12 12 30
12 12 30
12 12 30
12 12 30
12 12 30
12 12 30
12 12 30
12 12 30
12 12 30
12 12 30
12 12 30
12 12 30
12 12 30
12 12 30
12 12 30
12 12 30
12 12 30
12 12 30
12 12 30
12 12 30
12 12 30
12 12 30
12 12 30
12 12 30
12 12 30
12 12 30
12 12 30
12 12 30
12 12 30
12 12 30
12 12 30
12 12 30
12 12 30
12 12 30
12 12 30
12 12 30
12 12 30
12 12 30
12 12 30
12 12 30
12 12 30
12 12 30
12 12 30
12 12 30
12 12 30
12 12 30
12 12 30
12 12 30
12 12 30
12 12 30
12 12 30
12 12 30
12 12 30
12 12 30
12 12 30
12 12 30
12 12 30
12 12 30
12 12 30
12 12 30
12 12 30
12 12 30
12 12 30
12 12 30
12 12 30
12 12 30
12 12 30
12 12 30
12 12 30
12 12 30
12 12 30
12 12 30
12 12 30
12 12 30
12 12 30
12 12 30
12 12 30
12 12 30
12 12 30
12 12 30
12 12 30
12 12 30
12 12 30
12 12 30
12 12 30
12 12 30
12 12 30
12 12 30
12 12 30
12 12 30
12 12 30
12 12 30
12 12 30
12 12 30
12 12 30
12 12 30
12 12 30
12 12 30
12 12 30
12 12 30
12 12 30
12 12 30
12 12 30
12 12 30
12 12 30
12 12 30
12 12 30
12 12 30
12 12 30
12 12 30
12 12 30
12 12 30
12 12 30
12 12 30
12 12 30
12 12 30
12 12 30
12 12 30
12 12 30
12 12 30
12 12 30
12 12 30
12 12 30
12 12 30
12 12 30
12 12 30
12 12 30
12 12 30
12 12 30
12 12 30
12 12 30
12 12 30
12 12 30
12 12 30
12 12 30
12 12 30
12 12 30
12 12 30
12 12 30
12 12 30
12 12 30
12 12 30
12 12 30
12 12 30
12 12 30
12 12 30
12 12 30
12 12 30
12 12 30
12 12 30
12 12 30
12 12 30
12 12 30
12 12 30
12 12 30
12 12 30
12 12 30
12 12 30
12 12 30
12 12 30
12 12 30
12 12 30
12 12 30
12 12 30
12 12 30
12 12 30
12 12 30
12 12 30
12 12 30
12 12 30
12 12 30
12 12 30
12 12 30
12 12 30
12 12 30
12 12 30
12 12 30
12 12 30
12 12 30
12 12 30
12 12 30
12 12 30
12 12 30
12 12 30
12 12 30
12 12 30
12 12 30
12 12 30
12 12 30
12 12 30
12 12 30
12 12 30
12 12 30
12 12 30
12 12 30
12 12 30
12 12 30
12 12 30
12 12 30
12 12 30
12 12 30
12 12 30
12 12 30
12 12 30
12 12 30
12 12 30
12 12 30
12 12 30
12 12 30
12 12 30
12 12 30
12 12 30
12 12 30
12 12 30
12 12 30
12 12 30
12 12 30
12 12 30
12 12 30
12 12 30
12 12 30
12 12 30
12 12 30
12 12 30
12 12 30
12 12 30
12 12 30
12 12 30
12 12 30
12 12 30
12 12 30
12 12 30
12 12 30
12 12 30
12 12 30
12 12 30
12 12 30
12 12 30
12 12 30
12 12 30
12 12 30
12 12 30
12 12 30
12 12 30
12 12 30
12 12 30
12 12 30
12 12 30
12 12 30
12 12 30
12 12 30
12 12 30
12 12 30
12 12 30
12 12 30
12 12 30
12 12 30
12 12 30
12 12 30
12 12 30
12 12 30
12 12 30
12 12 30
12 12 30
12 12 30
12 12 30
12 12 30
12 12 30
12 12 30
12 12 30
12 12 30
12 12 30
12 12 30
12 12 30
12 12 30
12 12 30
12 12 30
12 12 30
12 12 30
12 12 30
12 12 30
12 12 30
12 12 30
12 12 30
12 12 30
12 12 30
12 12 30
12 12 30
12 12 30
12 12 30
12 12 30
12 12 30
12 12 30
12 12 30
12 12 30
12 12 30
12 12 30
12 12 30
12 12 30
12 12 30
12 12 30
12 12 30
12 12 30
12 12 30
12 12 30
12 12 30
12 12 30
12 12 30
12 12 30
12 12 30
12 12 30
12 12 30
12 12 30
12 12 30
12 12 30
12 12 30
12 12 30
12 12 30
12 12 30
12 12 30
12 12 30
12 12 30
12 12 30
12 12 30
12 12 30
12 12 30
12 12 30
12 12 30
12 12 30
12 12 30
12 12 30
12 12 30
12 12 30
12 12 30
12 12 30
12 12 30
12 12 30
12 12 30
12 12 30
12 12 30
12 12 30
12 12 30
12 12 30
12 12 30
12 12 30
12 12 30
12 12 30
12 12 30
12 12 30
12 12 30
12 12 30
12 12 30
12 12 30
12 12 30
12 12 30
12 12 30
12 12 30
12 12 30
12 12 30
12 12 30
12 12 30
12 12 30
12 12 30
12 12 30
12 12 30
12 12 30
12 12 30
12 12 30
12 12 30
12 12 30
12 12 30
12 12 30
12 12 30
12 12 30
12 12 30
12 12 30
12 12 30
12 12 30
12 12 30
12 12 30
12 12 30
12 12 30
12 12 30
12 12 30
12 12 30
12 12 30
12 12 30
12 12 30
12 12 30
12 12 30
12 12 30
12 12 30
12 12 30
12 12 30
12 12 30
12 12 30
12 12 30
12 12 30
12 12 30
12 12 30
12 12 30
12 12 30
12 12 30
12 12 30
12 12 30
12 12 30
12 12 30
12 12 30
12 12 30
12 12 30
12 12 30
12 12 30
12 12 30
12 12 30
12 12 30
12 12 30
12 12 30
12 12 30
12 12 30
12 12 30
12 12 30
12 12 30
12 12 30
12 12 30
12 12 30
12 12 30
12 12 30
12 12 30
12 12 30
12 12 30
12 12 30
12 12 30
12 12 30
12 12 30
12 12 30
12 12 30
12 12 30
12 12 30
12 12 30
12 12 30
12 12 30
12 12 30
12 12 30
12 12 30
12 12 30
12 12 30
12 12 30
12 12 30
12 12 30
12 12 30
12 12 30
12 12 30
12 12 30
12 12 30
12 12 30
12 12 30
12 12 30
12 12 30
12 12 30
12 12 30
12 12 30
12 12 30
12 12 30
12 12 30
12 12 30
12 12 30
12 12 30
12 12 30
12 12 30
12 12 30
12 12 30
12 12 30
12 12 30
12 12 30
12 12 30
12 12 30
12 12 30
12 12 30
12 12 30
12 12 30
12 12 30
12 12 30
12 12 30
12 12 30
12 12 30
12 12 30
12 12 30
12 12 30
12 12 30
12 12 30
12 12 30
12 12 30
12 12 30
12 12 30
12 12 30
12 12 30
12 12 30
12 12 30
12 12 30
12 12 30
12 12 30
12 12 30
12 12 30
12 12 30
12 12 30
12 12 30
12 12 30
12 12 30
12 12 30
12 12 30
12 12 30
12 12 30
12 12 30
12 12 30
12 12 30
12 12 30
12 12 30
12 12 30
12 12 30
12 12 30
12 12 30
12 12 30
12 12 30
12 12 30
12 12 30
12 12 30
12 12 30
12 12 30
12 12 30
12 12 30
12 12 30
12 12 30
12 12 30
12 12 30
12 12 30
12 12 30
12 12 30
12 12 30
12 12 30
12 12 30
12 12 30
12 12 30
12 12 30
12 12 30
12 12 30
12 12 30
12 12 30
12 12 30
12 12 30
12 12 30
12 12 30
12 12 30
12 12 30
12 12 30
12 12 30
12 12 30
12 12 30
12 12 30
12 12 30
12 12 30
12 12 30
12 12 30
12 12 30
12 12 30
12 12 30
12 12 30
12 12 30
12 12 30
12 12 30
12 12 30
12 12 30
12 12 30
12 12 30
12 12 30
12 12 30
12 12 30
12 12 30
12 12 30
12 12 30
12 12 30
12 12 30
12 12 30
12 12 30
12 12 30
12 12 30
12 12 30
12 12 30
12 12 30
12 12 30
12 12 30
12 12 30
12 12 30
12 12 30
12 12 30
12 12 30
12 12 30
12 12 30
12 12 30
12 12 30
12 12 30
12 12 30
12 12 30
12 12 30
12 12 30
12 12 30
12 12 30
12 12 30
12 12 30
12 12 30
12 12 30
12 12 30
12 12 30
12 12 30
12 12 30
12 12 30
12 12 30
12 12 30
12 12 30
12 12 30
12 12 30
12 12 30
12 12 30
12 12 30
12 12 30
12 12 30
12 12 30
12 12 30
12 12 30
12 12 30
12 12 30
12 12 30
12 12 30
12 12 30
12 12 30
12 12 30
12 12 30
12 12 30
12 12 30
12 12 30
12 12 30
12 12 30
12 12 30
12 12 30
12 12 30
12 12 30
12 12 30
12 12 30
12 12 30
12 12 30
12 12 30
12 12 30
12 12 30
12 12 30
12 12 30
12 12 30
12 12 30
12 12 30
12 12 30
12 12 30
12 12 30
12 12 30
12 12 30
12 12 30
12 12 30
12 12 30
12 12 30
12 12 30
12 12 30
12 12 30
12 12 30
12 12 30
12 12 30
12 12 30
12 12 30
12 12 30
12 12 30
12 12 30
12 12 30
12 12 30
12 12 30
12 12 30
12 12 30
12 12 30
12 12 30
12 12 30
12 12 30
12 12 30
12 12 30
12 12 30
12 12 30
12 12 30
12 12 30
12 12 30
12 12 30
12 12 30
12 12 30
12 12 30
12 12 30
12 12 30
12 12 30
12 12 30
12 12 30
12 12 30
12 12 30
12 12 30
12 12 30
12 12 30
12 12 30
12 12 30
12 12 30
12 12 30
12 12 30
12 12 30
12 12 30
12 12 30
12 12 30
12 12 30
12 12 30
12 12 30
12 12 30
12 12 30
12 12 30
12 12 30
12 12 30
12 12 30
12 12 30
12 12 30
12 12 30
12 12 30
12 12 30
12 12 30
12 12 30
12 12 30
12 12 30
12 12 30
12 12 30
12 12 30
12 12 30
12 12 30
12 12 30
12 12 30
12 12 30
12 12 30
12 12 30
12 12 30
12 12 30
12 12 30
12 12 30
12 12 30
12 12 30
12 12 30
12 12 30
12 12 30
12 12 30
12 12 30
12 12 30
12 12 30
12 12 30
12 12 30
12 12 30
12 12 30
12 12 30
12 12 30
12 12 30
12 12 30
12 12 30
12 12 30
12 12 30
12 12 30
12 12 30
12 12 30
12 12 30
12 12 30
12 12 30
12 12 30
12 12 30
12 12 30
12 12 30
12 12 30
12 12 30
12 12 30
12 12 30
12 12 30
12 12 30
12 12 30
12 12 30
12 12 30
12 12 30
12 12 30
12 12 30
12 12 30
12 12 30
12 12 30
12 12 30
12 12 30
12 12 30
12 12 30
12 12 30
12 12 30
12 12 30
12 12 30
12 12 30
12 12 30
12 12 30
12 12 30
12 12 30
12 12 30
12 12 30
12 12 30
12 12 30
12 12 30
12 12 30
12 12 30
12 12 30
12 12 30
12 12 30
12 12 30
12 12 30
12 12 30
12 12 30
12 12 30
12 12 30
12 12 30
12 12 30
12 12 30
12 12 30
12 12 30
12 12 30
12 12 30
12 12 30
12 12 30
12 12 30
12 12 30
12 12 30
12 12 30
12 12 30
12 12 30
12 12 30
12 12 30
12 12 30
12 12 30
12 12 30
12 12 30
12 12 30
12 12 30
12 12 30
12 12 30
12 12 30
12 12 30
12 12 30
12 12 30
12 12 30
12 12 30
12 12 30
12 12 30
12 12 30
12 12 30
12 12 30
12 12 30
12 12 30
12 12 30
12 12 30
12 12 30
12 12 30
12 12 30
12 12 30
12 12 30
12 12 30
12 12 30
12 12 30
12 12 30
12 12 30
12 12 30
12 12 30
12 12 30
12 12 30
12 12 30
12 12 30
12 12 30
12 12 30
12 12 30
12 12 30
12 12 30
12 12 30
12 12 30
12 12 30
12 12 30
12 12 30
12 12 30
12 12 30
12 12 30
12 12 30
12 12 30
12 12 30
12 12 30
12 12 30
12 12 30
12 12 30
12 12 30
12 12 30
12 12 30
12 12 30
12 12 30
12 12 30
12 12 30
12 12 30
12 12 30
12 12 30
12 12 30
12 12 30
12 12 30
12 12 30
12 12 30
12 12 30
12 12 30
12 12 30
12 12 30
12 12 30
12 12 30
12 12 30
12 12 30
12 12 30
12 12 30
12 12 30
12 12 30
12 12 30
12 12 30
12 12 30
12 12 30
12 12 30
12 12 30
12 12 30
12 12 30
12 12 30
12 12 30
12 12 30
12 12 30
12 12 30
12 12 30
12 12 30
12 12 30
12 12 30
12 12 30
12 12 30
12 12 30
12 12 30
12 12 30
12 12 30
12 12 30
12 12 30
12 12 30
12 12 30
12 12 30
12 12 30
12 12 30
12 12 30
12 12 30
12 12 30
12 12 30
12 12 30
12 12 30
12 12 30
12 12 30
12 12 30
12 12 30
12 12 30
12 12 30
12 12 30
12 12 30
12 12 30
12 12 30
12 12 30
12 12 30
12 12 30
12 12 30
12 12 30
12 12 30
12 12 30
12 12 30
12 12 30
12 12 30
12 12 30
12 12 30
12 12 30
12 12 30
12 12 30
12 12 30
12 12 30
12 12 30
12 12 30
12 12 30
12 12 30
12 12 30
12 12 30
12 12 30
12 12 30
12 12 30
12 12 30
12 12 30
12 12 30
12 12 30
12 12 30
12 12 30
12 12 30
12 12 30
12 12 30
12 12 30
12 12 30
12 12 30
12 12 30
12 12 30
12 12 30
12 12 30
12 12 30
12 12 30
12 12 30
12 12 30
12 12 30
12 12 30
12 12 30
12 12 30
12 12 30
12 12 30
12 12 30
12 12 30
12 12 30
12 12 30
12 12 30
12 12 30
12 12 30
12 12 30
12 12 30
12 12 30
12 12 30
12 12 30
12 12 30
12 12 30
12 12 30
12 12 30
12 12 30
12 12 30
12 12 30
12 12 30
12 12 30
12 12 30
12 12 30
12 12 30
12 12 30
12 12 30
12 12 30
12 12 30
12 12 30
12 12 30
12 12 30
12 12 30
12 12 30
12 12 30
12 12 30
12 12 30
12 12 30
12 12 30
12 12 30
12 12 30
12 12 30
12 12 30
12 12 30
12 12 30
12 12 30
12 12 30
12 12 30
12 12 30
12 12 30
12 12 30
12 12 30
12 12 30
12 12 30
12 12 30
12 12 30
12 12 30
12 12 30
12 12 30
12 12 30
12 12 30
12 12 30
12 12 30
12 12 30
12 12 30
12 12 30
12 12 30
12 12 30
12 12 30
12 12 30
12 12 30
12 12 30
12 12 30
12 12 30
12 12 30
12 12 30
12 12 30
12 12 30
12 12 30
12 12 30
12 12 30
12 12 30
12 12 30
12 12 30
12 12 30
12 12 30
12 12 30
12 12 30
12 12 30
12 12 30
12 12 30
12 12 30
12 12 30
12 12 30
12 12 30
12 12 30
12 12 30
12 12 30
12 12 30
12 12 30
12 12 30
12 12 30
12 12 30
12 12 30
12 12 30
12 12 30
12 12 30
12 12 30
12 12 30
12 12 30
12 12 30
12 12 30
12 12 30
12 12 30
12 12 30
12 12 30
12 12 30
12 12 30
12 12 30
12 12 30
12 12 30
12 12 30
12 12 30
12 12 30
12 12 30
12 12 30
12 12 30
12 12 30
12 12 30
12 12 30
12 12 30
12 12 30
12 12 30
12 12 30
12 12 30
12 12 30
12 12 30
12 12 30
12 12 30
12 12 30
12 12 30
12 12 30
12 12 30
12 12 30
12 12 30
12 12 30
12 12 30
12 12 30
12 12 30
12 12 30
12 12 30
12 12 30
12 12 30
12 12 30
12 12 30
12 12 30
12 12 30
12 12 30
12 12 30
12 12 30
12 12 30
12 12 30
12 12 30
12 12 30
12 12 30
12 12 30
12 12 30
12 12 30
12 12 30
12 12 30
12 12 30
12 12 30
12 12 30
12 12 30
12 12 30
12 12 30
12 12 30
12 12 30
12 12 30
12 12 30
12 12 30
12 12 30
12 12 30
12 12 30
12 12 30
12 12 30
12 12 30
12 12 30
12 12 30
12 12 30
12 12 30
12 12 30
12 12 30
12 12 30
12 12 30
12 12 30
12 12 30
12 12 30
12 12 30
12 12 30
12 12 30
12 12 30
12 12 30
12 12 30
12 12 30
12 12 30
12 12 30
12 12 30
12 12 30
12 12 30
12 12 30
12 12 30
12 12 30
12 12 30
12 12 30
12 12 30
12 12 30
12 12 30
12 12 30
12 12 30
12 12 30
12 12 30
12 12 30
12 12 30
12 12 30
12 12 30
12 12 30
12 12 30
12 12 30
12 12 30
12 12 30
12 12 30
12 12 30
12 12 30
12 12 30
12 12 30
12 12 30
12 12 30
12 12 30
12 12 30
12 12 30
12 12 30
12 12 30
12 12 30
12 12 30
12 12 30
12 12 30
12 12 30
12 12 30
12 12 30
12 12 30
12 12 30
12 12 30
12 12 30
12 12 30
12 12 30
12 12 30
12 12 30
12 12 30
12 12 30
12 12 30
12 12 30
12 12 30
12 12 30
12 12 30
12 12 30
12 12 30
12 12 30
12 12 30
12 12 30
12 12 30
12 12 30
12 12 30
12 12 30
12 12 30
12 12 30
12 12 30
12 12 30
12 12 30
12 12 30
12 12 30
12 12 30
12 12 30
12 12 30
12 12 30
12 12 30
12 12 30
12 12 30
12 12 30
12 12 30
12 12 30
12 12 30
12 12 30
12 12 30
12 12 30
12 12 30
12 12 30
12 12 30
12 12 30
12 12 30
12 12 30
12 12 30
12 12 30
12 12 30
12 12 30
12 12 30
12 12 30
12 12 30
12 12 30
12 12 30
12 12 30
12 12 30
12 12 30
12 12 30
12 12 30
12 12 30
12 12 30
12 12 30
12 12 30
12 12 30
12 12 30
12 12 30
12 12 30
12 12 30
12 12 30
12 12 30
12 12 30
12 12 30
12 12 30
12 12 30
12 12 30
12 12 30
12 12 30
12 12 30
12 12 30
12 12 30
12 12 30
12 12 30
12 12 30
12 12 30
12 12 30
12 12 30
12 12 30
12 12 30
12 12 30
12 12 30
12 12 30
12 12 30
12 12 30
12 12 30
12 12 30
12 12 30
12 12 30
12 12 30
12 12 30
12 12 30
12 12 30
12 12 30
12 12 30
12 12 30
12 12 30
12 12 30
12 12 30
12 12 30
12 12 30
12 12 30
12 12 30
12 12 30
12 12 30
12 12 30
12 12 30
12 12 30
12 12 30
12 12 30
12 12 30
12 12 30
12 12 30
12 12 30
12 12 30
12 12 30
12 12 30
12 12 30
12 12 30
12 12 30
12 12 30
12 12 30
12 12 30
12 12 30
12 12 30
12 12 30
12 12 30
12 12 30
12 12 30
12 12 30
12 12 30
12 12 30
12 12 30
12 12 30
12 12 30
12 12 30
12 12 30
12 12 30
12 12 30
12 12 30
12 12 30
12 12 30
12 12 30
12 12 30
12 12 30
12 12 30
12 12 30
12 12 30
12 12 30
12 12 30
12 12 30
12 12 30
12 12 30
12 12 30
12 12 30
12 12 30
12 12 30
12 12 30
12 12 30
12 12 30
12 12 30
12 12 30
12 12 30
12 12 30
12 12 30
12 12 30
12 12 30
12 12 30
12 12 30
12 12 30
12 12 30
12 12 30
12 12 30
12 12 30
12 12 30
12 12 30
12 12 30
12 12 30
12 12 30
12 12 30
12 12 30
12 12 30
12 12 30
12 12 30
12 12 30
12 12 30
12 12 30
12 12 30
12 12 30
12 12 30
12 12 30
12 12 30
12 12 30
12 12 30
12 12 30
12 12 30
12 12 30
12 12 30
12 12 30
12 12 30
12 12 30
12 12 30
12 12 30
12 12 30
12 12 30
12 12 30
12 12 30
12 12 30
12 12 30
12 12 30
12 12 30
12 12 30
12 12 30
12 12 30
12 12 30
12 12 30
12 12 30
12 12 30
12 12 30
12 12 30
12 12 30
12 12 30
12 12 30
12 12 30
12 12 30
12 12 30
12 12 30
12 12 30
12 12 30
12 12 30
12 12 30
12 12 30
12 12 30
12 12 30
12 12 30
12 12 30
12 12 30
12 12 30
12 12 30
12 12 30
12 12 30
12 12 30
12 12 30
12 12 30
12 12 30
12 12 30
12 12 30
12 12 30
12 12 30
12 12 30
12 12 30
12 12 30
12 12 30
12 12 30
12 12 30
12 12 30
12 12 30
12 12 30
12 12 30
12 12 30
12 12 30
12 12 30
12 12 30
12 12 30
12 12 30
12 12 30
12 12 30
12 12 30
12 12 30
12 12 30
12 12 30
12 12 30
12 12 30
12 12 30
12 12 30
12 12 30
12 12 30
12 12 30
12 12 30
12 12 30
12 12 30
12 12 30
12 12 30
12 12 30
12 12 30
12 12 30
12 12 30
12 12 30
12 12 30
12 12 30
12 12 30
12 12 30
12 12 30
12 12 30
12 12 30
12 12 30
12 12 30
12 12 30
12 12 30
12 12 30
12 12 30
12 12 30
12 12 30
12 12 30
12 12 30
12 12 30
12 12 30
12 12 30
12 12 30
12 12 30
12 12 30
12 12 30
12 12 30
12 12 30
12 12 30
12 12 30
12 12 30
12 12 30
12 12 30
12 12 30
12 12 30
12 12 30
12 12 30
12 12 30
12 12 30
12 12 30
12 12 30
12 12 30
12 12 30
12 12 30
12 12 30
12 12 30
12 12 30
12 12 30
12 12 30
12 12 30
12 12 30
12 12 30
12 12 30
12 12 30
12 12 30
12 12 30
12 12 30
12 12 30
12 12 30
12 12 30
12 12 30
12 12 30
12 12 30
12 12 30
12 12 30
12 12 30
12 12 30
12 12 30
12 12 30
12 12 30
12 12 30
12 12 30
12 12 30
12 12 30
12 12 30
12 12 30
12 12 30
12 12 30
12 12 30
12 12 30
12 12 30
12 12 30
12 12 30
12 12 30
12 12 30
12 12 30
12 12 30
12 12 30
12 12 30
12 12 30
12 12 30
12 12 30
12 12 30
12 12 30
12 12 30
12 12 30
12 12 30
12 12 30
12 12 30
12 12 30
12 12 30
12 12 30
12 12 30
12 12 30
12 12 30
12 12 30
12 12 30
12 12 30
12 12 30
12 12 30
12 12 30
12 12 30
12 12 30
12 12 30
12 12 30
12 12 30
12 12 30
12 12 30
12 12 30
12 12 30
12 12 30
12 12 30
12 12 30
12 12 30
12 12 30
12 12 30
12 12 30
12 12 30
12 12 30
12 12 30
12 12 30
12 12 30
12 12 30
12 12 30
12 12 30
12 12 30
12 12 30
12 12 30
12 12 30
12 12 30
12 12 30
12 12 30
12 12 30
12 12 30
12 12 30
12 12 30
12 12 30
12 12 30
12 12 30
12 12 30
12 12 30
12 12 30
12 12 30
12 12 30
12 12 30
12 12 30
12 12 30
12 12 30
12 12 30
12 12 30
12 12 30
12 12 30
12 12 30
12 12 30
12 12 30
12 12 30
12 12 30
12 12 30
12 12 30
12 12 30
12 12 30
12 12 30
12 12 30
12 12 30
12 12 30
12 12 30
12 12 30
12 12 30
12 12 30
12 12 30
12 12 30
12 12 30
12 12 30
12 12 30
12 12 30
12 12 30
12 12 30
12 12 30
12 12 30
12 12 30
12 12 30
12 12 30
12 12 30
12 12 30
12 12 30
12 12 30
12 12 30
12 12 30
12 12 30
12 12 30
12 12 30
12 12 30
12 12 30
12 12 30
12 12 30
12 12 30
12 12 30
12 12 30
12 12 30
12 12 30
12 12 30
12 12 30
12 12 30
12 12 30
12 12 30
12 12 30
12 12 30
12 12 30
12 12 30
12 12 30
12 12 30
12 12 30
12 12 30
12 12 30
12 12 30
12 12 30
12 12 30
12 12 30
12 12 30
12 12 30
12 12 30
12 12 30
12 12 30
12 12 30
12 12 30
12 12 30
12 12 30
12 12 30
12 12 30
12 12 30
12 12 30
12 12 30
12 12 30
12 12 30
12 12 30
12 12 30
12 12 30
12 12 30
12 12 30
12 12 30
12 12 30
12 12 30
12 12 30
12 12 30
12 12 30
12 12 30
12 12 30
12 12 30
12 12 30
12 12 30
12 12 30
12 12 30
12 12 30
12 12 30
12 12 30
12 12 30
12 12 30
12 12 30
12 12 30
12 12 30
12 12 30
12 12 30
12 12 30
12 12 30
12 12 30
12 12 30
12 12 30
12 12 30
12 12 30
12 12 30
12 12 30
12 12 30
12 12 30
12 12 30
12 12 30
12 12 30
12 12 30
12 12 30
12 12 30
12 12 30
12 12 30
12 12 30
12 12 30
12 12 30
12 12 30
12 12 30
12 12 30
12 12 30
12 12 30
12 12 30
12 12 30
12 12 30
12 12 30
12 12 30
12 12 30
12 12 30
12 12 30
12 12 30
12 12 30
12 12 30
12 12 30
12 12 30
12 12 30
12 12 30
12 12 30
12 12 30
12 12 30
12 12 30
12 12 30
12 12 30
12 12 30
12 12 30
12 12 30
12 12 30
12 12 30
12 12 30
12 12 30
12 12 30
12 12 30
12 12 30
12 12 30
12 12 30
12 12 30
12 12 30
12 12 30
12 12 30
12 12 30
12 12 30
12 12 30
12 12 30
12 12 30
12 12 30
12 12 30
12 12 30
12 12 30
12 12 30
12 12 30
12 12 30
12 12 30
12 12 30
12 12 30
12 12 30
12 12 30
12 12 30
12 12 30
12 12 30
12 12 30
12 12 30
12 12 30
12 12 30
12 12 30
12 12 30
12 12 30
12 12 30
12 12 30
12 12 30
12 12 30
12 12 30
12 12 30
12 12 30
12 12 30
12 12 30
12 12 30
12 12 30
12 12 30
12 12 30
12 12 30
12 12 30
12 12 30
12 12 30
12 12 30
12 12 30
12 12 30
12 12 30
12 12 30
12 12 30
12 12 30
12 12 30
12 12 30
12 12 30
12 12 30
12 12 30
12 12 30
12 12 30
12 12 30
12 12 30
12 12 30
12 12 30
12 12 30
12 12 30
12 12 30
12 12 30
12 12 30
12 12 30
12 12 30
12 12 30
12 12 30
12 12 30
12 12 30
12 12 30
12 12 30
12 12 30
12 12 30
12 12 30
12 12 30
12 12 30
12 12 30
12 12 30
12 12 30
12 12 30
12 12 30
12 12 30
12 12 30
12 12 30
12 12 30
12 12 30
12 12 30
12 12 30
12 12 30
12 12 30
12 12 30
12 12 30
12 12 30
12 12 30
12 12 30
12 12 30
12 12 30
12 12 30
12 12 30
12 12 30
12 12 30
12 12 30
12 12 30
12 12 30
12 12 30
12 12 30
12 12 30
12 12 30
12 12 30
12 12 30
12 12 30
12 12 30
12 12 30
12 12 30
12 12 30
12 12 30
12 12 30
12 12 30
12 12 30
12 12 30
12 12 30
12 12 30
12 12 30
12 12 30
12 12 30
12 12 30
12 12 30
12 12 30
12 12 30
12 12 30
12 12 30
12 12 30
12 12 30
12 12 30
12 12 30
12 12 30
12 12 30
12 12 30
12 12 30
12 12 30
12 12 30
12 12 30
12 12 30
12 12 30
12 12 30
12 12 30
12 12 30
12 12 30
12 12 30
12 12 30
12 12 30
12 12 30
12 12 30
12 12 30
12 12 30
12 12 30
12 12 30
12 12 30
12 12 30
12 12 30
12 12 30
12 12 30
12 12 30
12 12 30
12 12 30
12 12 30
12 12 30
12 12 30
12 12 30
12 12 30
12 12 30
12 12 30
12 12 30
12 12 30
12 12 30
12 12 30
12 12 30
12 12 30
12 12 30
12 12 30
12 12 30
12 12 30
12 12 30
12 12 30
12 12 30
12 12 30
12 12 30
12 12 30
12 12 30
12 12 30
12 12 30
12 12 30
12 12 30
12 12 30
12 12 30
12 12 30
12 12 30
12 12 30
12 12 30
12 12 30
12 12 30
12 12 30
12 12 30
12 12 30
12 12 30
12 12 30
12 12 30
12 12 30
12 12 30
12 12 30
12 12 30
12 12 30
12 12 30
12 12 30
12 12 30
12 12 30
12 12 30
12 12 30
12 12 30
12 12 30
12 12 30
12 12 30
12 12 30
12 12 30
12 12 30
12 12 30
12 12 30
12 12 30
12 12 30
12 12 30
12 12 30
12 12 30
12 12 30
12 12 30
12 12 30
12 12 30
12 12 30
12 12 30
12 12 30
12 12 30
12 12 30
12 12 30
12 12 30
12 12 30
12 12 30
12 12 30
12 12 30
12 12 30
12 12 30
12 12 30
12 12 30
12 12 30
12 12 30
12 12 30
12 12 30
12 12 30
12 12 30
12 12 30
12 12 30
12 12 30
12 12 30
12 12 30
12 12 30
12 12 30
12 12 30
12 12 30
12 12 30
12 12 30
12 12 30
12 12 30
12 12 30
12 12 30
12 12 30
12 12 30
12 12 30
12 12 30
12 12 30
12 12 30
12 12 30
12 12 30
12 12 30
12 12 30
12 12 30
12 12 30
12 12 30
12 12 30
12 12 30
12 12 30
12 12 30
12 12 30
12 12 30
12 12 30
12 12 30
12 12 30
12 12 30
12 12 30
12 12 30
12 12 30
12 12 30
12 12 30
12 12 30
12 12 30
12 12 30
12 12 30
12 12 30
12 12 30
12 12 30
12 12 30
12 12 30
12 12 30
12 12 30
12 12 30
12 12 30
12 12 30
12 12 30
12 12 30
12 12 30
12 12 30
12 12 30
12 12 30
12 12 30
12 12 30
12 12 30
12 12 30
12 12 30
12 12 30
12 12 30
12 12 30
12 12 30
12 12 30
12 12 30
12 12 30
12 12 30
12 12 30
12 12 30
12 12 30
12 12 30
12 12 30
12 12 30
12 12 30
12 12 30
12 12 30
12 12 30
12 12 30
12 12 30
12 12 30
12 12 30
12 12 30
12 12 30
12 12 30
12 12 30
12 12 30
12 12 30
12 12 30
12 12 30
12 12 30
12 12 30
12 12 30
12 12 30
12 12 30
12 12 30
12 12 30
12 12 30
12 12 30
12 12 30
12 12 30
12 12 30
12 12 30
12 12 30
12 12 30
12 12 30
12 12 30
12 12 30
12 12 30
12 12 30
12 12 30
12 12 30
12 12 30
12 12 30
12 12 30
12 12 30
12 12 30
12 12 30
12 12 30
12 12 30
12 12 30
12 12 30
12 12 30
12 12 30
12 12 30
12 12 30
12 12 30
12 12 30
12 12 30
12 12 30
12 12 30
12 12 30
12 12 30
12 12 30
12 12 30
12 12 30
12 12 30
12 12 30
12 12 30
12 12 30
12 12 30
12 12 30
12 12 30
12 12 30
12 12 30
12 12 30
12 12 30
12 12 30
12 12 30
12 12 30
12 12 30
12 12 30
12 12 30
12 12 30
12 12 30
12 12 30
12 12 30
12 12 30
12 12 30
12 12 30
12 12 30
12 12 30
12 12 30
12 12 30
12 12 30
12 12 30
12 12 30
12 12 30
12 12 30
12 12 30
12 12 30
12 12 30
12 12 30
12 12 30
12 12 30
12 12 30
12 12 30
12 12 30
12 12 30
12 12 30
12 12 30
12 12 30
12 12 30
12 12 30
12 12 30
12 12 30
12 12 30
12 12 30
12 12 30
12 12 30
12 12 30
12 12 30
12 12 30
12 12 30
12 12 30
12 12 30
12 12 30
12 12 30
12 12 30
12 12 30
12 12 30
12 12 30
12 12 30
12 12 30
12 12 30
12 12 30
12 12 30
12 12 30
12 12 30
12 12 30
12 12 30
12 12 30
12 12 30
12 12 30
12 12 30
12 12 30
12 12 30
12 12 30
12 12 30
12 12 30
12 12 30
12 12 30
12 12 30
12 12 30
12 12 30
12 12 30
12 12 30
12 12 30
12 12 30
12 12 30
12 12 30
12 12 30
12 12 30
12 12 30
12 12 30
12 12 30
12 12 30
12 12 30
12 12 30
12 12 30
12 12 30
12 12 30
12 12 30
12 12 30
12 12 30
12 12 30
12 12 30
12 12 30
12 12 30
12 12 30
12 12 30
12 12 30
12 12 30
12 12 30
12 12 30
12 12 30
12 12 30
12 12 30
12 12 30
12 12 30
12 12 30
12 12 30
12 12 30
12 12 30
12 12 30
12 12 30
12 12 30
12 12 30
12 12 30
12 12 30
12 12 30
12 12 30
12 12 30
12 12 30
12 12 30
12 12 30
12 12 30
12 12 30
12 12 30
12 12 30
12 12 30
12 12 30
12 12 30
12 12 30
12 12 30
12 12 30
12 12 30
12 12 30
12 12 30
12 12 30
12 12 30
12 12 30
12 12 30
12 12 30
12 12 30
12 12 30
12 12 30
12 12 30
12 12 30
12 12 30
12 12 30
12 12 30
12 12 30
12 12 30
12 12 30
12 12 30
12 12 30
12 12 30
12 12 30
12 12 30
12 12 30
12 12 30
12 12 30
12 12 30
12 12 30
12 12 30
12 12 30
12 12 30
12 12 30
12 12 30
12 12 30
12 12 30
12 12 30
12 12 30
12 12 30
12 12 30
12 12 30
12 12 30
12 12 30
12 12 30
12 12 30
12 12 30
12 12 30
12 12 30
12 12 30
12 12 30
12 12 30
12 12 30
12 12 30
12 12 30
12 12 30
12 12 30
12 12 30
12 12 30
12 12 30
12 12 30
12 12 30
12 12 30
12 12 30
12 12 30
12 12 30
12 12 30
12 12 30
12 12 30
12 12 30
12 12 30
12 12 30
12 12 30
12 12 30
12 12 30
12 12 30
12 12 30
12 12 30
12 12 30
12 12 30
12 12 30
12 12 30
12 12 30
12 12 30
12 12 30
12 12 30
12 12 30
12 12 30
12 12 30
12 12 30
12 12 30
12 12 30
12 12 30
12 12 30
12 12 30
12 12 30
12 12 30
12 12 30
12 12 30
12 12 30
12 12 30
12 12 30
12 12 30
12 12 30
12 12 30
12 12 30
12 12 30
12 12 30
12 12 30
12 12 30
12 12 30
12 12 30
12 12 30
12 12 30
12 12 30
12 12 30
12 12 30
12 12 30
12 12 30
12 12 30
12 12 30
12 12 30
12 12 30
12 12 30
12 12 30
12 12 30
12 12 30
12 12 30
12 12 30
12 12 30
12 12 30
12 12 30
12 12 30
12 12 30
12 12 30
12 12 30
12 12 30
12 12 30
12 12 30
12 12 30
12 12 30
12 12 30
12 12 30
12 12 30
12 12 30
12 12 30
12 12 30
12 12 30
12 12 30
12 12 30
12 12 30
12 12 30
12 12 30
12 12 30
12 12 30
12 12 30
12 12 30
12 12 30
12 12 30
12 12 30
12 12 30
12 12 30
12 12 30
12 12 30
12 12 30
12 12 30
12 12 30
12 12 30
12 12 30
12 12 30
12 12 30
12 12 30
12 12 30
12 12 30
12 12 30
12 12 30
12 12 30
12 12 30
12 12 30
12 12 30
12 12 30
12 12 30
12 12 30
12 12 30
12 12 30
12 12 30
12 12 30
12 12 30
12 12 30
12 12 30
12 12 30
12 12 30
12 12 30
12 12 30
12 12 30
12 12 30
12 12 30
12 12 30
12 12 30
12 12 30
12 12 30
12 12 30
12 12 30
12 12 30
12 12 30
12 12 30
12 12 30
12 12 30
12 12 30
12 12 30
12 12 30
12 12 30
12 12 30
12 12 30
12 12 30
12 12 30
12 12 30
12 12 30
12 12 30
12 12 30
12 12 30
12 12 30
12 12 30
12 12 30
12 12 30
12 12 30
12 12 30
12 12 30
12 12 30
12 12 30
12 12 30
12 12 30
12 12 30
12 12 30
12 12 30
12 12 30
12 12 30
12 12 30
12 12 30
12 12 30
12 12 30
12 12 30
12 12 30
12 12 30
12 12 30
12 12 30
12 12 30
12 12 30
12 12 30
12 12 30
12 12 30
12 12 30
12 12 30
12 12 30
12 12 30
12 12 30
12 12 30
12 12 30
12 12 30
12 12 30
12 12 30
12 12 30
12 12 30
12 12 30
12 12 30
12 12 30
12 12 30
12 12 30
12 12 30
12 12 30
12 12 30
12 12 30
12 12 30
12 12 30
12 12 30
12 12 30
12 12 30
12 12 30
12 12 30
12 12 30
12 12 30
12 12 30
12 12 30
12 12 30
12 12 30
12 12 30
12 12 30
12 12 30
12 12 30
12 12 30
12 12 30
12 12 30
12 12 30
12 12 30
12 12 30
12 12 30
12 12 30
12 12 30
12 12 30
12 12 30
12 12 30
12 12 30
12 12 30
12 12 30
12 12 30
12 12 30
12 12 30
12 12 30
12 12 30
12 12 30
12 12 30
12 12 30
12 12 30
12 12 30
12 12 30
12 12 30
12 12 30
12 12 30
12 12 30
12 12 30
12 12 30
12 12 30
12 12 30
12 12 30
12 12 30
12 12 30
12 12 30
12 12 30
12 12 30
12 12 30
12 12 30
12 12 30
12 12 30
12 12 30
12 12 30
12 12 30
12 12 30
12 12 30
12 12 30
12 12 30
12 12 30
12 12 30
12 12 30
12 12 30
12 12 30
12 12 30
12 12 30
12 12 30
12 12 30
12 12 30
12 12 30
12 12 30
12 12 30
12 12 30
12 12 30
12 12 30
12 12 30
12 12 30
12 12 30
12 12 30
12 12 30
12 12 30
12 12 30
12 12 30
12 12 30
12 12 30
12 12 30
12 12 30
12 12 30
12 12 30
12 12 30
12 12 30
12 12 30
12 12 30
12 12 30
12 12 30
12 12 30
12 12 30
12 12 30
12 12 30
12 12 30
12 12 30
12 12 30
12 12 30
12 12 30
12 12 30
12 12 30
12 12 30
12 12 30
12 12 30
12 12 30
12 12 30
12 12 30
12 12 30
12 12 30
12 12 30
12 12 30
12 12 30
12 12 30
12 12 30
12 12 30
12 12 30
12 12 30
12 12 30
12 12 30
12 12 30
12 12 30
12 12 30
12 12 30
12 12 30
12 12 30
12 12 30
12 12 30
12 12 30
12 12 30
12 12 30
12 12 30
12 12 30
12 12 30
12 12 30
12 12 30
12 12 30
12 12 30
12 12 30
12 12 30
12 12 30
12 12 30
12 12 30
12 12 30
12 12 30
12 12 30
12 12 30
12 12 30
12 12 30
12 12 30
12 12 30
12 12 30
12 12 30
12 12 30
12 12 30
12 12 30
12 12 30
12 12 30
12 12 30
12 12 30
12 12 30
12 12 30
12 12 30
12 12 30
12 12 30
12 12 30
12 12 30
12 12 30
12 12 30
12 12 30
12 12 30
12 12 30
12 12 30
12 12 30
12 12 30
12 12 30
12 12 30
12 12 30
12 12 30
12 12 30
12 12 30
12 12 30
12 12 30
12 12 30
12 12 30
12 12 30
12 12 30
12 12 30
12 12 30
12 12 30
12 12 30
12 12 30
12 12 30
12 12 30
12 12 30
12 12 30
12 12 30
12 12 30
12 12 30
12 12 30
12 12 30
12 12 30
12 12 30
12 12 30
12 12 30
12 12 30
12 12 30
12 12 30
12 12 30
12 12 30
12 12 30
12 12 30
12 12 30
12 12 30
12 12 30
12 12 30
12 12 30
12 12 30
12 12 30
12 12 30
12 12 30
12 12 30
12 12 30
12 12 30
12 12 30
12 12 30
12 12 30
12 12 30
12 12 30
12 12 30
12 12 30
12 12 30
12 12 30
12 12 30
12 12 30
12 12 30
12 12 30
12 12 30
12 12 30
12 12 30
12 12 30
12 12 30
12 12 30
12 12 30
12 12 30
12 12 30
12 12 30
12 12 30
12 12 30
12 12 30
12 12 30
12 12 30
12 12 30
12 12 30
12 12 30
12 12 30
12 12 30
12 12 30
12 12 30
12 12 30
12 12 30
12 12 30
12 12 30
12 12 30
12 12 30
12 12 30
12 12 30
12 12 30
12 12 30
12 12 30
12 12 30
12 12 30
12 12 30
12 12 30
12 12 30
12 12 30
12 12 30
12 12 30
12 12 30
12 12 30
12 12 30
12 12 30
12 12 30
12 12 30
12 12 30
12 12 30
12 12 30
12 12 30
12 12 30
12 12 30
12 12 30
12 12 30
12 12 30
12 12 30
12 12 30
12 12 30
12 12 30
12 12 30
12 12 30
12 12 30
12 12 30
12 12 30
12 12 30
12 12 30
12 12 30
12 12 30
12 12 30
12 12 30
12 12 30
12 12 30
12 12 30
12 12 30
12 12 30
12 12 30
12 12 30
12 12 30
12 12 30
12 12 30
12 12 30
12 12 30
12 12 30
12 12 30
12 12 30
12 12 30
12 12 30
12 12 30
12 12 30
12 12 30
12 12 30
12 12 30
12 12 30
12 12 30
12 12 30
12 12 30
12 12 30
12 12 30
12 12 30
12 12 30
12 12 30
12 12 30
12 12 30
12 12 30
12 12 30
12 12 30
12 12 30
12 12 30
12 12 30
12 12 30
12 12 30
12 12 30
12 12 30
12 12 30
12 12 30
12 12 30
12 12 30
12 12 30
12 12 30
12 12 30
12 12 30
12 12 30
12 12 30
12 12 30
12 12 30
12 12 30
12 12 30
12 12 30
12 12 30
12 12 30
12 12 30
12 12 30
12 12 30
12 12 30
12 12 30
12 12 30
12 12 30
12 12 30
12 12 30
12 12 30
12 12 30
12 12 30
12 12 30
12 12 30
12 12 30
12 12 30
12 12 30
12 12 30
12 12 30
12 12 30
12 12 30
12 12 30
12 12 30
12 12 30
12 12 30
12 12 30
12 12 30
12 12 30
12 12 30
12 12 30
12 12 30
12 12 30
12 12 30
12 12 30
12 12 30
12 12 30
12 12 30
12 12 30
12 12 30
12 12 30
12 12 30
12 12 30
12 12 30
12 12 30
12 12 30
12 12 30
12 12 30
12 12 30
12 12 30
12 12 30
12 12 30
12 12 30
12 12 30
12 12 30
12 12 30
12 12 30
12 12 30
12 12 30
12 12 30
12 12 30
12 12 30
12 12 30
12 12 30
12 12 30
12 12 30
12 12 30
12 12 30
12 12 30
12 12 30
12 12 30
12 12 30
12 12 30
12 12 30
12 12 30
12 12 30
12 12 30
12 12 30
12 12 30
12 12 30
12 12 30
12 12 30
12 12 30
12 12 30
12 12 30
12 12 30
12 12 30
12 12 30
12 12 30
12 12 30
12 12 30
12 12 30
12 12 30
12 12 30
12 12 30
12 12 30
12 12 30
12 12 30
12 12 30
12 12 30
12 12 30
12 12 30
12 12 30
12 12 30
12 12 30
12 12 30
12 12 30
12 12 30
12 12 30
12 12 30
12 12 30
12 12 30
12 12 30
12 12 30
12 12 30
12 12 30
12 12 30
12 12 30
12 12 30
12 12 30
12 12 30
12 12 30
12 12 30
12 12 30
12 12 30
12 12 30
12 12 30
12 12 30
12 12 30
12 12 30
12 12 30
12 12 30
12 12 30
12 12 30
12 12 30
12 12 30
12 12 30
12 12 30
12 12 30
12 12 30
12 12 30
12 12 30
12 12 30
12 12 30
12 12 30
12 12 30
12 12 30
12 12 30
12 12 30
12 12 30
12 12 30
12 12 30
12 12 30
12 12 30
12 12 30
12 12 30
12 12 30
12 12 30
12 12 30
12 12 30
12 12 30
12 12 30
12 12 30
12 12 30
12 12 30
12 12 30
12 12 30
12 12 30
12 12 30
12 12 30
12 12 30
12 12 30
12 12 30
12 12 30
12 12 30
12 12 30
12 12 30
12 12 30
12 12 30
12 12 30
12 12 30
12 12 30
12 12 30
12 12 30
12 12 30
12 12 30
12 12 30
12 12 30
12 12 30
12 12 30
12 12 30
12 12 30
12 12 30
12 12 30
12 12 30
12 12 30
12 12 30
12 12 30
12 12 30
12 12 30
12 12 30
12 12 30
12 12 30
12 12 30
12 12 30
12 12 30
12 12 30
12 12 30
12 12 30
12 12 30
12 12 30
12 12 30
12 12 30
12 12 30
12 12 30
12 12 30
12 12 30
12 12 30
12 12 30
12 12 30
12 12 30
12 12 30
12 12 30
12 12 30
12 12 30
12 12 30
12 12 30
12 12 30
12 12 30
12 12 30
12 12 30
12 12 30
12 12 30
12 12 30
12 12 30
12 12 30
12 12 30
12 12 30
12 12 30
12 12 30
12 12 30
12 12 30
12 12 30
12 12 30
12 12 30
12 12 30
12 12 30
12 12 30
12 12 30
12 12 30
12 12 30
12 12 30
12 12 30
12 12 30
12 12 30
12 12 30
12 12 30
12 12 30
12 12 30
12 12 30
12 12 30
12 12 30
12 12 30
12 12 30
12 12 30
12 12 30
12 12 30
12 12 30
12 12 30
12 12 30
12 12 30
12 12 30
12 12 30
12 12 30
12 12 30
12 12 30
12 12 30
12 12 30
12 12 30
12 12 30
12 12 30
12 12 30
12 12 30
12 12 30
12 12 30
12 12 30
12 12 30
12 12 30
12 12 30
12 12 30
12 12 30
12 12 30
12 12 30
12 12 30
12 12 30
12 12 30
12 12 30
12 12 30
12 12 30
12 12 30
12 12 30
12 12 30
12 12 30
12 12 30
12 12 30
12 12 30
12 12 30
12 12 30
12 12 30
12 12 30
12 12 30
12 12 30
12 12 30
12 12 30
12 12 30
12 12 30
12 12 30
12 12 30
12 12 30
12 12 30
12 12 30
12 12 30
12 12 30
12 12 30
12 12 30
12 12 30
12 12 30
12 12 30
12 12 30
12 12 30
12 12 30
12 12 30
12 12 30
12 12 30
12 12 30
12 12 30
12 12 30
12 12 30
12 12 30
12 12 30
12 12 30
12 12 30
12 12 30
12 12 30
12 12 30
12 12 30
12 12 30
12 12 30
12 12 30
12 12 30
12 12 30
12 12 30
12 12 30
12 12 30
12 12 30
12 12 30
12 12 30
12 12 30
12 12 30
12 12 30
12 12 30
12 12 30
12 12 30
12 12 30
12 12 30
12 12 30
12 12 30
12 12 30
12 12 30
12 12 30
12 12 30
12 12 30
12 12 30
12 12 30
12 12 30
12 12 30
12 12 30
12 12 30
12 12 30
12 12 30
12 12 30
12 12 30
12 12 30
12 12 30
12 12 30
12 12 30
12 12 30
12 12 30
12 12 30
12 12 30
12 12 30
12 12 30
12 12 30
12 12 30
12 12 30
12 12 30
12 12 30
12 12 30
12 12 30
12 12 30
12 12 30
12 12 30
12 12 30
12 12 30
12 12 30
12 12 30
12 12 30
12 12 30
12 12 30
12 12 30
12 12 30
12 12 30
12 12 30
12 12 30
12 12 30
12 12 30
12 12 30
12 12 30
12 12 30
12 12 30
12 12 30
12 12 30
12 12 30
12 12 30
12 12 30
12 12 30
12 12 30
12 12 30
12 12 30
12 12 30
12 12 30
12 12 30
12 12 30
12 12 30
12 12 30
12 12 30
12 12 30
12 12 30
12 12 30
12 12 30
12 12 30
12 12 30
12 12 30
12 12 30
12 12 30
12 12 30
12 12 30
12 12 30
12 12 30
12 12 30
12 12 30
12 12 30
12 12 30
12 12 30
12 12 30
12 12 30
12 12 30
12 12 30
12 12 30
12 12 30
12 12 30
12 12 30
12 12 30
12 12 30
12 12 30
12 12 30
12 12 30
12 12 30
12 12 30
12 12 30
12 12 30
12 12 30
12 12 30
12 12 30
12 12 30
12 12 30
12 12 30
12 12 30
12 12 30
12 12 30
12 12 30
12 12 30
12 12 30
12 12 30
12 12 30
12 12 30
12 12 30
12 12 30
12 12 30
12 12 30
12 12 30
12 12 30
12 12 30
12 12 30
12 12 30
12 12 30
12 12 30
12 12 30
12 12 30
12 12 30
12 12 30
12 12 30
12 12 30
12 12 30
12 12 30
12 12 30
12 12 30
12 12 30
12 12 30
12 12 30
12 12 30
12 12 30
12 12 30
12 12 30
12 12 30
12 12 30
12 12 30
12 12 30
12 12 30
12 12 30
12 12 30
12 12 30
12 12 30
12 12 30
12 12 30
12 12 30
12 12 30
12 12 30
12 12 30
12 12 30
12 12 30
12 12 30
12 12 30
12 12 30
12 12 30
12 12 30
12 12 30
12 12 30
12 12 30
12 12 30
12 12 30
12 12 30
12 12 30
12 12 30
12 12 30
12 12 30
12 12 30
12 12 30
12 12 30
12 12 30
12 12 30
12 12 30
12 12 30
12 12 30
12 12 30
12 12 30
12 12 30
12 12 30
12 12 30
12 12 30
12 12 30
12 12 30
12 12 30
12 12 30
12 12 30
12 12 30
12 12 30
12 12 30
12 12 30
12 12 30
12 12 30
12 12 30
12 12 30
12 12 30
12 12 30
12 12 30
12 12 30
12 12 30
12 12 30
12 12 30
12 12 30
12 12 30
12 12 30
12 12 30
12 12 30
12 12 30
12 12 30
12 12 30
12 12 30
12 12 30
12 12 30
12 12 30
12 12 30
12 12 30
12 12 30
12 12 30
12 12 30
12 12 30
12 12 30
12 12 30
12 12 30
12 12 30
12 12 30
12 12 30
12 12 30
12 12 30
12 12 30
12 12 30
12 12 30
12 12 30
12 12 30
12 12 30
12 12 30
12 12 30
12 12 30
12 12 30
12 12 30
12 12 30
12 12 30
12 12 30
12 12 30
12 12 30
12 12 30
12 12 30
12 12 30
12 12 30
12 12 30
12 12 30
12 12 30
12 12 30
12 12 30
12 12 30
12 12 30
12 12 30
12 12 30
12 12 30
12 12 30
12 12 30
12 12 30
12 12 30
12 12 30
12 12 30
12 12 30
12 12 30
12 12 30
12 12 30
12 12 30
12 12 30
12 12 30
12 12 30
12 12 30
12 12 30
12 12 30
12 12 30
12 12 30
12 12 30
12 12 30
12 12 30
12 12 30
12 12 30
12 12 30
12 12 30
12 12 30
12 12 30
12 12 30
12 12 30
12 12 30
12 12 30
12 12 30
12 12 30
12 12 30
12 12 30
12 12 30
12 12 30
12 12 30
12 12 30
12 12 30
12 12 30
12 12 30
12 12 30
12 12 30
12 12 30
12 12 30
12 12 30
12 12 30
12 12 30
12 12 30
12 12 30
12 12 30
12 12 30
12 12 30
12 12 30
12 12 30
12 12 30
12 12 30
12 12 30
12 12 30
12 12 30
12 12 30
12 12 30
12 12 30
12 12 30
12 12 30
12 12 30
12 12 30
12 12 30
12 12 30
12 12 30
12 12 30
12 12 30
12 12 30
12 12 30
12 12 30
12 12 30
12 12 30
12 12 30
12 12 30
12 12 30
12 12 30
12 12 30
12 12 30
12 12 30
12 12 30
12 12 30
12 12 30
12 12 30
12 12 30
12 12 30
12 12 30
12 12 30
12 12 30
12 12 30
12 12 30
12 12 30
12 12 30
12 12 30
12 12 30
12 12 30
12 12 30
12 12 30
12 12 30
12 12 30
12 12 30
12 12 30
12 12 30
12 12 30
12 12 30
12 12 30
12 12 30
12 12 30
12 12 30
12 12 30
12 12 30
12 12 30
12 12 30
12 12 30
12 12 30
12 12 30
12 12 30
12 12 30
12 12 30
12 12 30
12 12 30
12 12 30
12 12 30
12 12 30
12 12 30
12 12 30
12 12 30
12 12 30
12 12 30
12 12 30
12 12 30
12 12 30
12 12 30
12 12 30
12 12 30
12 12 30
12 12 30
12 12 30
12 12 30
12 12 30
12 12 30
12 12 30
12 12 30
12 12 30
12 12 30
12 12 30
12 12 30
12 12 30
12 12 30
12 12 30
12 12 30
12 12 30
12 12 30
12 12 30
12 12 30
12 12 30
12 12 30
12 12 30
12 12 30
12 12 30
12 12 30
12 12 30
12 12 30
12 12 30
12 12 30
12 12 30
12 12 30
12 12 30
12 12 30
12 12 30
12 12 30
12 12 30
12 12 30
12 12 30
12 12 30
12 12 30
12 12 30
12 12 30
12 12 30
12 12 30
12 12 30
12 12 30
12 12 30
12 12 30
12 12 30
12 12 30
12 12 30
12 12 30
12 12 30
12 12 30
12 12 30
12 12 30
12 12 30
12 12 30
12 12 30
12 12 30
12 12 30
12 12 30
12 12 30
12 12 30
12 12 30
12 12 30
12 12 30
12 12 30
12 12 30
12 12 30
12 12 30
12 12 30
12 12 30
12 12 30
12 12 30
12 12 30
12 12 30
12 12 30
12 12 30
12 12 30
12 12 30
12 12 30
12 12 30
12 12 30
12 12 30
12 12 30
12 12 30
12 12 30
12 12 30
12 12 30
12 12 30
12 12 30
12 12 30
12 12 30
12 12 30
12 12 30
12 12 30
12 12 30
12 12 30
12 12 30
12 12 30
12 12 30
12 12 30
12 12 30
12 12 30
12 12 30
12 12 30
12 12 30
12 12 30
12 12 30
12 12 30
12 12 30
12 12 30
12 12 30
12 12 30
12 12 30
12 12 30
12 12 30
12 12 30
12 12 30
12 12 30
12 12 30
12 12 30
12 12 30
12 12 30
12 12 30
12 12 30
12 12 30
12 12 30
12 12 30
12 12 30
12 12 30
12 12 30
12 12 30
12 12 30
12 12 30
12 12 30
12 12 30
12 12 30
12 12 30
12 12 30
12 12 30
12 12 30
12 12 30
12 12 30
12 12 30
12 12 30
12 12 30
12 12 30
12 12 30
12 12 30
12 12 30
12 12 30
12 12 30
12 12 30
12 12 30
12 12 30
12 12 30
12 12 30
12 12 30
12 12 30
12 12 30
12 12 30
12 12 30
12 12 30
12 12 30
12 12 30
12 12 30
12 12 30
12 12 30
12 12 30
12 12 30
12 12 30
12 12 30
12 12 30
12 12 30
12 12 30
12 12 30
12 12 30
12 12 30
12 12 30
12 12 30
12 12 30
12 12 30
12 12 30
12 12 30
12 12 30
12 12 30
12 12 30
12 12 30
12 12 30
12 12 30
12 12 30
12 12 30
12 12 30
12 12 30
12 12 30
12 12 30
12 12 30
12 12 30
12 12 30
12 12 30
12 12 30
12 12 30
12 12 30
12 12 30
12 12 30
12 12 30
12 12 30
12 12 30
12 12 30
12 12 30
12 12 30
12 12 30
12 12 30
12 12 30
12 12 30
12 12 30
12 12 30
12 12 30
12 12 30
12 12 30
12 12 30
12 12 30
12 12 30
12 12 30
12 12 30
12 12 30
12 12 30
12 12 30
12 12 30
12 12 30
12 12 30
12 12 30
12 12 30
12 12 30
12 12 30
12 12 30
12 12 30
12 12 30
12 12 30
12 12 30
12 12 30
12 12 30
12 12 30
12 12 30
12 12 30
12 12 30
12 12 30
12 12 30
12 12 30
12 12 30
12 12 30
12 12 30
12 12 30
12 12 30
12 12 30
12 12 30
12 12 30
12 12 30
12 12 30
12 12 30
12 12 30
12 12 30
12 12 30
12 12 30
12 12 30
12 12 30
12 12 30
12 12 30
12 12 30
12 12 30
12 12 30
12 12 30
12 12 30
12 12 30
12 12 30
12 12 30
12 12 30
12 12 30
12 12 30
12 12 30
12 12 30
12 12 30
12 12 30
12 12 30
12 12 30
12 12 30
12 12 30
12 12 30
12 12 30
12 12 30
12 12 30
12 12 30
12 12 30
12 12 30
12 12 30
12 12 30
12 12 30
12 12 30
12 12 30
12 12 30
12 12 30
12 12 30
12 12 30
12 12 30
12 12 30
12 12 30
12 12 30
12 12 30
12 12 30
12 12 30
12 12 30
12 12 30
12 12 30
12 12 30
12 12 30
12 12 30
12 12 30
12 12 30
12 12 30
12 12 30
12 12 30
12 12 30
12 12 30
12 12 30
12 12 30
12 12 30
12 12 30
12 12 30
12 12 30
12 12 30
12 12 30
12 12 30
12 12 30
12 12 30
12 12 30
12 12 30
12 12 30
12 12 30
12 12 30
12 12 30
12 12 30
12 12 30
12 12 30
12 12 30
12 12 30
12 12 30
12 12 30
12 12 30
12 12 30
12 12 30
12 12 30
12 12 30
12 12 30
12 12 30
12 12 30
12 12 30
12 12 30
12 12 30
12 12 30
12 12 30
12 12 30
12 12 30
12 12 30
12 12 30
12 12 30
12 12 30
12 12 30
12 12 30
12 12 30
12 12 30
12 12 30
12 12 30
12 12 30
12 12 30
12 12 30
12 12 30
12 12 30
12 12 30
12 12 30
12 12 30
12 12 30
12 12 30
12 12 30
12 12 30
12 12 30
12 12 30
12 12 30
12 12 30
12 12 30
12 12 30
12 12 30
12 12 30
12 12 30
12 12 30
12 12 30
12 12 30
12 12 30
12 12 30
12 12 30
12 12 30
12 12 30
12 12 30
12 12 30
12 12 30
12 12 30
12 12 30
12 12 30
12 12 30
12 12 30
12 12 30
12 12 30
12 12 30
12 12 30
12 12 30
12 12 30
12 12 30
12 12 30
12 12 30
12 12 30
12 12 30
12 12 30
12 12 30
12 12 30
12 12 30
12 12 30
12 12 30
12 12 30
12 12 30
12 12 30
12 12 30
12 12 30
12 12 30
12 12 30
12 12 30
12 12 30
12 12 30
12 12 30
12 12 30
12 12 30
12 12 30
12 12 30
12 12 30
12 12 30
12 12 30
12 12 30
12 12 30
12 12 30
12 12 30
12 12 30
12 12 30
12 12 30
12 12 30
12 12 30
12 12 30
12 12 30
12 12 30
12 12 30
12 12 30
12 12 30
12 12 30
12 12 30
12 12 30
12 12 30
12 12 30
12 12 30
12 12 30
12 12 30
12 12 30
12 12 30
12 12 30
12 12 30
12 12 30
12 12 30
12 12 30
12 12 30
12 12 30
12 12 30
12 12 30
12 12 30
12 12 30
12 12 30
12 12 30
12 12 30
12 12 30
12 12 30
12 12 30
12 12 30
12 12 30
12 12 30
12 12 30
12 12 30
12 12 30
12 12 30
12 12 30
12 12 30
12 12 30
12 12 30
12 12 30
12 12 30
12 12 30
12 12 30
12 12 30
12 12 30
12 12 30
12 12 30
12 12 30
12 12 30
12 12 30
12 12 30
12 12 30
12 12 30
12 12 30
12 12 30
12 12 30
12 12 30
12 12 30
12 12 30
12 12 30
12 12 30
12 12 30
12 12 30
12 12 30
12 12 30
12 12 30
12 12 30
12 12 30
12 12 30
12 12 30
12 12 30
12 12 30
12 12 30
12 12 30
12 12 30
12 12 30
12 12 30
12 12 30
12 12 30
12 12 30
12 12 30
12 12 30
12 12 30
12 12 30
12 12 30
12 12 30
12 12 30
12 12 30
12 12 30
12 12 30
12 12 30
12 12 30
12 12 30
12 12 30
12 12 30
12 12 30
12 12 30
12 12 30
12 12 30
12 12 30
12 12 30
12 12 30
12 12 30
12 12 30
12 12 30
12 12 30
12 12 30
12 12 30
12 12 30
12 12 30
12 12 30
12 12 30
12 12 30
12 12 30
12 12 30
12 12 30
12 12 30
12 12 30
12 12 30
12 12 30
12 12 30
12 12 30
12 12 30
12 12 30
12 12 30
12 12 30
12 12 30
12 12 30
12 12 30
12 12 30
12 12 30
12 12 30
12 12 30
12 12 30
12 12 30
12 12 30
12 12 30
12 12 30
12 12 30
12 12 30
12 12 30
12 12 30
12 12 30
12 12 30
12 12 30
12 12 30
12 12 30
12 12 30
12 12 30
12 12 30
12 12 30
12 12 30
12 12 30
12 12 30
12 12 30
12 12 30
12 12 30
12 12 30
12 12 30
12 12 30
12 12 30
12 12 30
12 12 30
12 12 30
12 12 30
12 12 30
12 12 30
12 12 30
12 12 30
12 12 30
12 12 30
12 12 30
12 12 30
12 12 30
12 12 30
12 12 30
12 12 30
12 12 30
12 12 30
12 12 30
12 12 30
12 12 30
12 12 30
12 12 30
12 12 30
12 12 30
12 12 30
12 12 30
12 12 30
12 12 30
12 12 30
12 12 30
12 12 30
12 12 30
12 12 30
12 12 30
12 12 30
12 12 30
12 12 30
12 12 30
12 12 30
12 12 30
12 12 30
12 12 30
12 12 30
12 12 30
12 12 30
12 12 30
12 12 30
12 12 30
12 12 30
12 12 30
12 12 30
12 12 30
12 12 30
12 12 30
12 12 30
12 12 30
12 12 30
12 12 30
12 12 30
12 12 30
12 12 30
12 12 30
12 12 30
12 12 30
12 12 30
12 12 30
12 12 30
12 12 30
12 12 30
12 12 30
12 12 30
12 12 30
12 12 30
12 12 30
12 12 30
12 12 30
12 12 30
12 12 30
12 12 30
12 12 30
12 12 30
12 12 30
12 12 30
12 12 30
12 12 30
12 12 30
12 12 30
12 12 30
12 12 30
12 12 30
12 12 30
12 12 30
12 12 30
12 12 30
12 12 30
12 12 30
12 12 30
12 12 30
12 12 30
12 12 30
12 12 30
12 12 30
12 12 30
12 12 30
12 12 30
12 12 30
12 12 30
12 12 30
12 12 30
12 12 30
12 12 30
12 12 30
12 12 30
12 12 30
12 12 30
12 12 30
12 12 30
12 12 30
12 12 30
12 12 30
12 12 30
12 12 30
12 12 30
12 12 30
12 12 30
12 12 30
12 12 30
12 12 30
12 12 30
12 12 30
12 12 30
12 12 30
12 12 30
12 12 30
12 12 30
12 12 30
12 12 30
12 12 30
12 12 30
12 12 30
12 12 30
12 12 30
12 12 30
12 12 30
12 12 30
12 12 30
12 12 30
12 12 30
12 12 30
12 12 30
12 12 30
12 12 30
12 12 30
12 12 30
12 12 30
12 12 30
12 12 30
12 12 30
12 12 30
12 12 30
12 12 30
12 12 30
12 12 30
12 12 30
12 12 30
12 12 30
12 12 30
12 12 30
12 12 30
12 12 30
12 12 30
12 12 30
12 12 30
12 12 30
12 12 30
12 12 30
12 12 30
12 12 30
12 12 30
12 12 30
12 12 30
12 12 30
12 12 30
12 12 30
12 12 30
12 12 30
12 12 30
12 12 30
12 12 30
12 12 30
12 12 30
12 12 30
12 12 30
12 12 30
12 12 30
12 12 30
12 12 30
12 12 30
12 12 30
12 12 30
12 12 30
12 12 30
12 12 30
12 12 30
12 12 30
12 12 30
12 12 30
12 12 30
12 12 30
12 12 30
12 12 30
12 12 30
12 12 30
12 12 30
12 12 30
12 12 30
12 12 30
12 12 30
12 12 30
12 12 30
12 12 30
12 12 30
12 12 30
12 12 30
12 12 30
12 12 30
12 12 30
12 12 30
12 12 30
12 12 30
12 12 30
12 12 30
12 12 30
12 12 30
12 12 30
12 12 30
12 12 30
12 12 30
12 12 30
12 12 30
12 12 30
12 12 30
12 12 30
12 12 30
12 12 30
12 12 30
12 12 30
12 12 30
12 12 30
12 12 30
12 12 30
12 12 30
12 12 30
12 12 30
12 12 30
12 12 30
12 12 30
12 12 30
12 12 30
12 12 30
12 12 30
12 12 30
12 12 30
12 12 30
12 12 30
12 12 30
12 12 30
12 12 30
12 12 30
12 12 30
12 12 30
12 12 30
12 12 30
12 12 30
12 12 30
12 12 30
12 12 30
12 12 30
12 12 30
12 12 30
12 12 30
12 12 30
12 12 30
12 12 30
12 12 30
12 12 30
12 12 30
12 12 30
12 12 30
12 12 30
12 12 30
12 12 30
12 12 30
12 12 30
12 12 30
12 12 30
12 12 30
12 12 30
12 12 30
12 12 30
12 12 30
12 12 30
12 12 30
12 12 30
12 12 30
12 12 30
12 12 30
12 12 30
12 12 30
12 12 30
12 12 30
12 12 30
12 12 30
12 12 30
12 12 30
12 12 30
12 12 30
12 12 30
12 12 30
12 12 30
12 12 30
12 12 30
12 12 30
12 12 30
12 12 30
12 12 30
12 12 30
12 12 30
12 12 30
12 12 30
12 12 30
12 12 30
12 12 30
12 12 30
12 12 30
12 12 30
12 12 30
12 12 30
12 12 30
12 12 30
12 12 30
12 12 30
12 12 30
12 12 30
12 12 30
12 12 30
12 12 30
12 12 30
12 12 30
12 12 30
12 12 30
12 12 30
12 12 30
12 12 30
12 12 30
12 12 30
12 12 30
12 12 30
12 12 30
12 12 30
12 12 30
12 12 30
12 12 30
12 12 30
12 12 30
12 12 30
12 12 30
12 12 30
12 12 30
12 12 30
12 12 30
12 12 30
12 12 30
12 12 30
12 12 30
12 12 30
12 12 30
12 12 30
12 12 30
12 12 30
12 12 30
12 12 30
12 12 30
12 12 30
12 12 30
12 12 30
12 12 30
12 12 30
12 12 30
12 12 30
12 12 30
12 12 30
12 12 30
12 12 30
12 12 30
12 12 30
12 12 30
12 12 30
12 12 30
12 12 30
12 12 30
12 12 30
12 12 30
12 12 30
12 12 30
12 12 30
12 12 30
12 12 30
12 12 30
12 12 30
12 12 30
12 12 30
12 12 30
12 12 30
12 12 30
12 12 30
12 12 30
12 12 30
12 12 30
12 12 30
12 12 30
12 12 30
12 12 30
12 12 30
12 12 30
12 12 30
12 12 30
12 12 30
12 12 30
12 12 30
12 12 30
12 12 30
12 12 30
12 12 30
12 12 30
12 12 30
12 12 30
12 12 30
12 12 30
12 12 30
12 12 30
12 12 30
12 12 30
12 12 30
12 12 30
12 12 30
12 12 30
12 12 30
12 12 30
12 12 30
12 12 30
12 12 30
12 12 30
12 12 30
12 12 30
12 12 30
12 12 30
12 12 30
12 12 30
12 12 30
12 12 30
12 12 30
12 12 30
12 12 30
12 12 30
12 12 30
12 12 30
12 12 30
12 12 30
12 12 30
12 12 30
12 12 30
12 12 30
12 12 30
12 12 30
12 12 30
12 12 30
12 12 30
12 12 30
12 12 30
12 12 30
12 12 30
12 12 30
12 12 30
12 12 30
12 12 30
12 12 30
12 12 30
12 12 30
12 12 30
12 12 30
12 12 30
12 12 30
12 12 30
12 12 30
12 12 30
12 12 30
12 12 30
12 12 30
12 12 30
12 12 30
12 12 30
12 12 30
12 12 30
12 12 30
12 12 30
12 12 30
12 12 30
12 12 30
12 12 30
12 12 30
12 12 30
12 12 30
12 12 30
12 12 30
12 12 30
12 12 30
12 12 30
12 12 30
12 12 30
12 12 30
12 12 30
12 12 30
12 12 30
12 12 30
12 12 30
12 12 30
12 12 30
12 12 30
12 12 30
12 12 30
12 12 30
12 12 30
12 12 30
12 12 30
12 12 30
12 12 30
12 12 30
12 12 30
12 12 30
12 12 30
12 12 30
12 12 30
12 12 30
12 12 30
12 12 30
12 12 30
12 12 30
12 12 30
12 12 30
12 12 30
12 12 30
12 12 30
12 12 30
12 12 30
12 12 30
12 12 30
12 12 30
12 12 30
12 12 30
12 12 30
12 12 30
12 12 30
12 12 30
12 12 30
12 12 30
12 12 30
12 12 30
12 12 30
12 12 30
12 12 30
12 12 30
12 12 30
12 12 30
12 12 30
12 12 30
12 12 30
12 12 30
12 12 30
12 12 30
12 12 30
12 12 30
12 12 30
12 12 30
12 12 30
12 12 30
12 12 30
12 12 30
12 12 30
12 12 30
12 12 30
12 12 30
12 12 30
12 12 30
12 12 30
12 12 30
12 12 30
12 12 30
12 12 30
12 12 30
12 12 30
12 12 30
12 12 30
12 12 30
12 12 30
12 12 30
12 12 30
12 12 30
12 12 30
12 12 30
12 12 30
12 12 30
12 12 30
12 12 30
12 12 30
12 12 30
12 12 30
12 12 30
12 12 30
12 12 30
12 12 30
12 12 30
12 12 30
12 12 30
12 12 30
12 12 30
12 12 30
12 12 30
12 12 30
12 12 30
12 12 30
12 12 30
12 12 30
12 12 30
12 12 30
12 12 30
12 12 30
12 12 30
12 12 30
12 12 30
12 12 30
12 12 30
12 12 30
12 12 30
12 12 30
12 12 30
12 12 30
12 12 30
12 12 30
12 12 30
12 12 30
12 12 30
12 12 30
12 12 30
12 12 30
12 12 30
12 12 30
12 12 30
12 12 30
12 12 30
12 12 30
12 12 30
12 12 30
12 12 30
12 12 30
12 12 30
12 12 30
12 12 30
12 12 30
12 12 30
12 12 30
12 12 30
12 12 30
12 12 30
12 12 30
12 12 30
12 12 30
12 12 30
12 12 30
12 12 30
12 12 30
12 12 30
12 12 30
12 12 30
12 12 30
12 12 30
12 12 30
12 12 30
12 12 30
12 12 30
12 12 30
12 12 30
12 12 30
12 12 30
12 12 30
12 12 30
12 12 30
12 12 30
12 12 30
12 12 30
12 12 30
12 12 30
12 12 30
12 12 30
12 12 30
12 12 30
12 12 30
12 12 30
12 12 30
12 12 30
12 12 30
12 12 30
12 12 30
12 12 30
12 12 30
12 12 30
12 12 30
12 12 30
12 12 30
12 12 30
12 12 30
12 12 30
12 12 30
12 12 30
12 12 30
12 12 30
12 12 30
12 12 30
12 12 30
12 12 30
12 12 30
12 12 30
12 12 30
12 12 30
12 12 30
12 12 30
12 12 30
12 12 30
12 12 30
12 12 30
12 12 30
12 12 30
12 12 30
12 12 30
12 12 30
12 12 30
12 12 30
12 12 30
12 12 30
12 12 30
12 12 30
12 12 30
12 12 30
12 12 30
12 12 30
12 12 30
12 12 30
12 12 30
12 12 30
12 12 30
12 12 30
12 12 30
12 12 30
12 12 30
12 12 30
12 12 30
12 12 30
12 12 30
12 12 30
12 12 30
12 12 30
12 12 30
12 12 30
12 12 30
12 12 30
12 12 30
12 12 30
12 12 30
12 12 30
12 12 30
12 12 30
12 12 30
12 12 30
12 12 30
12 12 30
12 12 30
12 12 30
12 12 30
12 12 30
12 12 30
12 12 30
12 12 30
12 12 30
12 12 30
12 12 30
12 12 30
12 12 30
12 12 30
12 12 30
12 12 30
12 12 30
12 12 30
12 12 30
12 12 30
12 12 30
12 12 30
12 12 30
12 12 30
12 12 30
12 12 30
12 12 30
12 12 30
12 12 30
12 12 30
12 12 30
12 12 30
12 12 30
12 12 30
12 12 30
12 12 30
12 12 30
12 12 30
12 12 30
12 12 30
12 12 30
12 12 30
12 12 30
12 12 30
12 12 30
12 12 30
12 12 30
12 12 30
12 12 30
12 12 30
12 12 30
12 12 30
12 12 30
12 12 30
12 12 30
12 12 30
12 12 30
12 12 30
12 12 30
12 12 30
12 12 30
12 12 30
12 12 30
12 12 30
12 12 30
12 12 30
12 12 30
12 12 30
12 12 30
12 12 30
12 12 30
12 12 30
12 12 30
12 12 30
12 12 30
12 12 30
12 12 30
12 12 30
12 12 30
12 12 30
12 12 30
12 12 30
12 12 30
12 12 30
12 12 30
12 12 30
12 12 30
12 12 30
12 12 30
12 12 30
12 12 30
12 12 30
12 12 30
12 12 30
12 12 30
12 12 30
12 12 30
12 12 30
12 12 30
12 12 30
12 12 30
12 12 30
12 12 30
12 12 30
12 12 30
12 12 30
12 12 30
12 12 30
12 12 30
12 12 30
12 12 30
12 12 30
12 12 30
12 12 30
12 12 30
12 12 30
12 12 30
12 12 30
12 12 30
12 12 30
12 12 30
12 12 30
12 12 30
12 12 30
12 12 30
12 12 30
12 12 30
12 12 30
12 12 30
12 12 30
12 12 30
12 12 30
12 12 30
12 12 30
12 12 30
12 12 30
12 12 30
12 12 30
12 12 30
12 12 30
12 12 30
12 12 30
12 12 30
12 12 30
12 12 30
12 12 30
12 12 30
12 12 30
12 12 30
12 12 30
12 12 30
12 12 30
12 12 30
12 12 30
12 12 30
12 12 30
12 12 30
12 12 30
12 12 30
12 12 30
12 12 30
12 12 30
12 12 30
12 12 30
12 12 30
12 12 30
12 12 30
12 12 30
12 12 30
12 12 30
12 12 30
12 12 30
12 12 30
12 12 30
12 12 30
12 12 30
12 12 30
12 12 30
12 12 30
12 12 30
12 12 30
12 12 30
12 12 30
12 12 30
12 12 30
12 12 30
12 12 30
12 12 30
12 12 30
12 12 30
12 12 30
12 12 30
12 12 30
12 12 30
12 12 30
12 12 30
12 12 30
12 12 30
12 12 30
12 12 30
12 12 30
12 12 30
12 12 30
12 12 30
12 12 30
12 12 30
12 12 30
12 12 30
12 12 30
12 12 30
12 12 30
12 12 30
12 12 30
12 12 30
12 12 30
12 12 30
12 12 30
12 12 30
12 12 30
12 12 30
12 12 30
12 12 30
12 12 30
12 12 30
12 12 30
12 12 30
12 12 30
12 12 30
12 12 30
12 12 30
12 12 30
12 12 30
12 12 30
12 12 30
12 12 30
12 12 30
12 12 30
12 12 30
12 12 30
12 12 30
12 12 30
12 12 30
12 12 30
12 12 30
12 12 30
12 12 30
12 12 30
12 12 30
12 12 30
12 12 30
12 12 30
12 12 30
12 12 30
12 12 30
12 12 30
12 12 30
12 12 30
12 12 30
12 12 30
12 12 30
12 12 30
12 12 30
12 12 30
12 12 30
12 12 30
12 12 30
12 12 30
12 12 30
12 12 30
12 12 30
12 12 30
12 12 30
12 12 30
12 12 30
12 12 30
12 12 30
12 12 30
12 12 30
12 12 30
12 12 30
12 12 30
12 12 30
12 12 30
12 12 30
12 12 30
12 12 30
12 12 30
12 12 30
12 12 30
12 12 30
12 12 30
12 12 30
12 12 30
12 12 30
12 12 30
12 12 30
12 12 30
12 12 30
12 12 30
12 12 30
12 12 30
12 12 30
12 12 30
12 12 30
12 12 30
12 12 30
12 12 30
12 12 30
12 12 30
12 12 30
12 12 30
12 12 30
12 12 30
12 12 30
12 12 30
12 12 30
12 12 30
12 12 30
12 12 30
12 12 30
12 12 30
12 12 30
12 12 30
12 12 30
12 12 30
12 12 30
12 12 30
12 12 30
12 12 30
12 12 30
12 12 30
12 12 30
12 12 30
12 12 30
12 12 30
12 12 30
12 12 30
12 12 30
12 12 30
12 12 30
12 12 30
12 12 30
12 12 30
12 12 30
12 12 30
12 12 30
12 12 30
12 12 30
12 12 30
12 12 30
12 12 30
12 12 30
12 12 30
12 12 30
12 12 30
12 12 30
12 12 30
12 12 30
12 12 30
12 12 30
12 12 30
12 12 30
12 12 30
12 12 30
12 12 30
12 12 30
12 12 30
12 12 30
12 12 30
12 12 30
12 12 30
12 12 30
12 12 30
12 12 30
12 12 30
12 12 30
12 12 30
12 12 30
12 12 30
12 12 30
12 12 30
12 12 30
12 12 30
12 12 30
12 12 30
12 12 30
12 12 30
12 12 30
12 12 30
12 12 30
12 12 30
12 12 30
12 12 30
12 12 30
12 12 30
12 12 30
12 12 30
12 12 30
12 12 30
12 12 30
12 12 30
12 12 30
12 12 30
12 12 30
12 12 30
12 12 30
12 12 30
12 12 30
12 12 30
12 12 30
12 12 30
12 12 30
12 12 30
12 12 30
12 12 30
12 12 30
12 12 30
12 12 30
12 12 30
12 12 30
12 12 30
12 12 30
12 12 30
12 12 30
12 12 30
12 12 30
12 12 30
12 12 30
12 12 30
12 12 30
12 12 30
12 12 30
12 12 30
12 12 30
12 12 30
12 12 30
12 12 30
12 12 30
12 12 30
12 12 30
12 12 30
12 12 30
12 12 30
12 12 30
12 12 30
12 12 30
12 12 30
12 12 30
12 12 30
12 12 30
12 12 30
12 12 30
12 12 30
12 12 30
12 12 30
12 12 30
12 12 30
12 12 30
12 12 30
12 12 30
12 12 30
12 12 30
12 12 30
12 12 30
12 12 30
12 12 30
12 12 30
12 12 30
12 12 30
12 12 30
12 12 30
12 12 30
12 12 30
12 12 30
12 12 30
12 12 30
12 12 30
12 12 30
12 12 30
12 12 30
12 12 30
12 12 30
12 12 30
12 12 30
12 12 30
12 12 30
12 12 30
12 12 30
12 12 30
12 12 30
12 12 30
12 12 30
12 12 30
12 12 30
12 12 30
12 12 30
12 12 30
12 12 30
12 12 30
12 12 30
12 12 30
12 12 30
12 12 30
12 12 30
12 12 30
12 12 30
12 12 30
12 12 30
12 12 30
12 12 30
12 12 30
12 12 30
12 12 30
12 12 30
12 12 30
12 12 30
12 12 30
12 12 30
12 12 30
12 12 30
12 12 30
12 12 30
12 12 30
12 12 30
12 12 30
12 12 30
12 12 30
12 12 30
12 12 30
12 12 30
12 12 30
12 12 30
12 12 30
12 12 30
12 12 30
12 12 30
12 12 30
12 12 30
12 12 30
12 12 30
12 12 30
12 12 30
12 12 30
12 12 30
12 12 30
12 12 30
12 12 30
12 12 30
12 12 30
12 12 30
12 12 30
12 12 30
12 12 30
12 12 30
12 12 30
12 12 30
12 12 30
12 12 30
12 12 30
12 12 30
12 12 30
12 12 30
12 12 30
12 12 30
12 12 30
12 12 30
12 12 30
12 12 30
12 12 30
12 12 30
12 12 30
12 12 30
12 12 30
12 12 30
12 12 30
12 12 30
12 12 30
12 12 30
12 12 30
12 12 30
12 12 30
12 12 30
12 12 30
12 12 30
12 12 30
12 12 30
12 12 30
12 12 30
12 12 30
12 12 30
12 12 30
12 12 30
12 12 30
12 12 30
12 12 30
12 12 30
12 12 30
12 12 30
12 12 30
12 12 30
12 12 30
12 12 30
12 12 30
12 12 30
12 12 30
12 12 30
12 12 30
12 12 30
12 12 30
12 12 30
12 12 30
12 12 30
12 12 30
12 12 30
12 12 30
12 12 30
12 12 30
12 12 30
12 12 30
12 12 30
12 12 30
12 12 30
12 12 30
12 12 30
12 12 30
12 12 30
12 12 30
12 12 30
12 12 30
12 12 30
12 12 30
12 12 30
12 12 30
12 12 30
12 12 30
12 12 30
12 12 30
12 12 30
12 12 30
12 12 30
12 12 30
12 12 30
12 12 30
12 12 30
12 12 30
12 12 30
12 12 30
12 12 30
12 12 30
12 12 30
12 12 30
12 12 30
12 12 30
12 12 30
12 12 30
12 12 30
12 12 30
12 12 30
12 12 30
12 12 30
12 12 30
12 12 30
12 12 30
12 12 30
12 12 30
12 12 30
12 12 30
12 12 30
12 12 30
12 12 30
12 12 30
12 12 30
12 12 30
12 12 30
12 12 30
12 12 30
12 12 30
12 12 30
12 12 30
12 12 30
12 12 30
12 12 30
12 12 30
12 12 30
12 12 30
12 12 30
12 12 30
12 12 30
12 12 30
12 12 30
12 12 30
12 12 30
12 12 30
12 12 30
12 12 30
12 12 30
12 12 30
12 12 30
12 12 30
12 12 30
12 12 30
12 12 30
12 12 30
12 12 30
12 12 30
12 12 30
12 12 30
12 12 30
12 12 30
12 12 30
12 12 30
12 12 30
12 12 30
12 12 30
12 12 30
12 12 30
12 12 30
12 12 30
12 12 30
12 12 30
12 12 30
12 12 30
12 12 30
12 12 30
12 12 30
12 12 30
12 12 30
12 12 30
12 12 30
12 12 30
12 12 30
12 12 30
12 12 30
12 12 30
12 12 30
12 12 30
12 12 30
12 12 30
12 12 30
12 12 30
12 12 30
12 12 30
12 12 30
12 12 30
12 12 30
12 12 30
12 12 30
12 12 30
12 12 30
12 12 30
12 12 30
12 12 30
12 12 30
12 12 30
12 12 30
12 12 30
12 12 30
12 12 30
12 12 30
12 12 30
12 12 30
12 12 30
12 12 30
12 12 30
12 12 30
12 12 30
12 12 30
12 12 30
12 12 30
12 12 30
12 12 30
12 12 30
12 12 30
12 12 30
12 12 30
12 12 30
12 12 30
12 12 30
12 12 30
12 12 30
12 12 30
12 12 30
12 12 30
12 12 30
12 12 30
12 12 30
12 12 30
12 12 30
12 12 30
12 12 30
12 12 30
12 12 30
12 12 30
12 12 30
12 12 30
12 12 30
12 12 30
12 12 30
12 12 30
12 12 30
12 12 30
12 12 30
12 12 30
12 12 30
12 12 30
12 12 30
12 12 30
12 12 30
12 12 30
12 12 30
12 12 30
12 12 30
12 12 30
12 12 30
12 12 30
12 12 30
12 12 30
12 12 30
12 12 30
12 12 30
12 12 30
12 12 30
12 12 30
12 12 30
12 12 30
12 12 30
12 12 30
12 12 30
12 12 30
12 12 30
12 12 30
12 12 30
12 12 30
12 12 30
12 12 30
12 12 30
12 12 30
12 12 30
12 12 30
12 12 30
12 12 30
12 12 30
12 12 30
12 12 30
12 12 30
12 12 30
12 12 30
12 12 30
12 12 30
12 12 30
12 12 30
12 12 30
12 12 30
12 12 30
12 12 30
12 12 30
12 12 30
12 12 30
12 12 30
12 12 30
12 12 30
12 12 30
12 12 30
12 12 30
12 12 30
12 12 30
12 12 30
12 12 30
12 12 30
12 12 30
12 12 30
12 12 30
12 12 30
12 12 30
12 12 30
12 12 30
12 12 30
12 12 30
12 12 30
12 12 30
12 12 30
12 12 30
12 12 30
12 12 30
12 12 30
12 12 30
12 12 30
12 12 30
12 12 30
12 12 30
12 12 30
12 12 30
12 12 30
12 12 30
12 12 30
12 12 30
12 12 30
12 12 30
12 12 30
12 12 30
12 12 30
12 12 30
12 12 30
12 12 30
12 12 30
12 12 30
12 12 30
12 12 30
12 12 30
12 12 30
12 12 30
12 12 30
12 12 30
12 12 30
12 12 30
12 12 30
12 12 30
12 12 30
12 12 30
12 12 30
12 12 30
12 12 30
12 12 30
12 12 30
12 12 30
12 12 30
12 12 30
12 12 30
12 12 30
12 12 30
12 12 30
12 12 30
12 12 30
12 12 30
12 12 30
12 12 30
12 12 30
12 12 30
12 12 30
12 12 30
12 12 30
12 12 30
12 12 30
12 12 30
12 12 30
12 12 30
12 12 30
12 12 30
12 12 30
12 12 30
12 12 30
12 12 30
12 12 30
12 12 30
12 12 30
12 12 30
12 12 30
12 12 30
12 12 30
12 12 30
12 12 30
12 12 30
12 12 30
12 12 30
12 12 30
12 12 30
12 12 30
12 12 30
12 12 30
12 12 30
12 12 30
12 12 30
12 12 30
12 12 30
12 12 30
12 12 30
12 12 30
12 12 30
12 12 30
12 12 30
12 12 30
12 12 30
12 12 30
12 12 30
12 12 30
12 12 30
12 12 30
12 12 30
12 12 30
12 12 30
12 12 30
12 12 30
12 12 30
12 12 30
12 12 30
12 12 30
12 12 30
12 12 30
12 12 30
12 12 30
12 12 30
12 12 30
12 12 30
12 12 30
12 12 30
12 12 30
12 12 30
12 12 30
12 12 30
12 12 30
12 12 30
12 12 30
12 12 30
12 12 30
12 12 30
12 12 30
12 12 30
12 12 30
12 12 30
12 12 30
12 12 30
12 12 30
12 12 30
12 12 30
12 12 30
12 12 30
12 12 30
12 12 30
12 12 30
12 12 30
12 12 30
12 12 30
12 12 30
12 12 30
12 12 30
12 12 30
12 12 30
12 12 30
12 12 30
12 12 30
12 12 30
12 12 30
12 12 30
12 12 30
12 12 30
12 12 30
12 12 30
12 12 30
12 12 30
12 12 30
12 12 30
12 12 30
12 12 30
12 12 30
12 12 30
12 12 30
12 12 30
12 12 30
12 12 30
12 12 30
12 12 30
12 12 30
12 12 30
12 12 30
12 12 30
12 12 30
12 12 30
12 12 30
12 12 30
12 12 30
12 12 30
12 12 30
12 12 30
12 12 30
12 12 30
12 12 30
12 12 30
12 12 30
12 12 30
12 12 30
12 12 30
12 12 30
12 12 30
12 12 30
12 12 30
12 12 30
12 12 30
12 12 30
12 12 30
12 12 30
12 12 30
12 12 30
12 12 30
12 12 30
12 12 30
12 12 30
12 12 30
12 12 30
12 12 30
12 12 30
12 12 30
12 12 30
12 12 30
12 12 30
12 12 30
12 12 30
12 12 30
12 12 30
12 12 30
12 12 30
12 12 30
12 12 30
12 12 30
12 12 30
12 12 30
12 12 30
12 12 30
12 12 30
12 12 30
12 12 30
12 12 30
12 12 30
12 12 30
12 12 30
12 12 30
12 12 30
12 12 30
12 12 30
12 12 30
12 12 30
12 12 30
12 12 30
12 12 30
12 12 30
12 12 30
12 12 30
12 12 30
12 12 30
12 12 30
12 12 30
12 12 30
12 12 30
12 12 30
12 12 30
12 12 30
12 12 30
12 12 30
12 12 30
12 12 30
12 12 30
12 12 30
12 12 30
12 12 30
12 12 30
12 12 30
12 12 30
12 12 30
12 12 30
12 12 30
12 12 30
12 12 30
12 12 30
12 12 30
12 12 30
12 12 30
12 12 30
12 12 30
12 12 30
12 12 30
12 12 30
12 12 30
12 12 30
12 12 30
12 12 30
12 12 30
12 12 30
12 12 30
12 12 30
12 12 30
12 12 30
12 12 30
12 12 30
12 12 30
12 12 30
12 12 30
12 12 30
12 12 30
12 12 30
12 12 30
12 12 30
12 12 30
12 12 30
12 12 30
12 12 30
12 12 30
12 12 30
12 12 30
12 12 30
12 12 30
12 12 30
12 12 30
12 12 30
12 12 30
12 12 30
12 12 30
12 12 30
12 12 30
12 12 30
12 12 30
12 12 30
12 12 30
12 12 30
12 12 30
12 12 30
12 12 30
12 12 30
12 12 30
12 12 30
12 12 30
12 12 30
12 12 30
12 12 30
12 12 30
12 12 30
12 12 30
12 12 30
12 12 30
12 12 30
12 12 30
12 12 30
12 12 30
12 12 30
12 12 30
12 12 30
12 12 30
12 12 30
12 12 30
12 12 30
12 12 30
12 12 30
12 12 30
12 12 30
12 12 30
12 12 30
12 12 30
12 12 30
12 12 30
12 12 30
12 12 30
12 12 30
12 12 30
12 12 30
12 12 30
12 12 30
12 12 30
12 12 30
12 12 30
12 12 30
12 12 30
12 12 30
12 12 30
12 12 30
12 12 30
12 12 30
12 12 30
12 12 30
12 12 30
12 12 30
12 12 30
12 12 30
12 12 30
12 12 30
12 12 30
12 12 30
12 12 30
12 12 30
12 12 30
12 12 30
12 12 30
12 12 30
12 12 30
12 12 30
12 12 30
12 12 30
12 12 30
12 12 30
12 12 30
12 12 30
12 12 30
12 12 30
12 12 30
12 12 30
12 12 30
12 12 30
12 12 30
12 12 30
12 12 30
12 12 30
12 12 30
12 12 30
12 12 30
12 12 30
12 12 30
12 12 30
12 12 30
12 12 30
12 12 30
12 12 30
12 12 30
12 12 30
12 12 30
12 12 30
12 12 30
12 12 30
12 12 30
12 12 30
12 12 30
12 12 30
12 12 30
12 12 30
12 12 30
12 12 30
12 12 30
12 12 30
12 12 30
12 12 30
12 12 30
12 12 30
12 12 30
12 12 30
12 12 30
12 12 30
12 12 30
12 12 30
12 12 30
12 12 30
12 12 30
12 12 30
12 12 30
12 12 30
12 12 30
12 12 30
12 12 30
12 12 30
12 12 30
12 12 30
12 12 30
12 12 30
12 12 30
12 12 30
12 12 30
12 12 30
12 12 30
12 12 30
12 12 30
12 12 30
12 12 30
12 12 30
12 12 30
12 12 30
12 12 30
12 12 30
12 12 30
12 12 30
12 12 30
12 12 30
12 12 30
12 12 30
12 12 30
12 12 30
12 12 30
12 12 30
12 12 30
12 12 30
12 12 30
12 12 30
12 12 30
12 12 30
12 12 30
12 12 30
12 12 30
12 12 30
12 12 30
12 12 30
12 12 30
12 12 30
12 12 30
12 12 30
12 12 30
12 12 30
12 12 30
12 12 30
12 12 30
12 12 30
12 12 30
12 12 30
12 12 30
12 12 30
12 12 30
12 12 30
12 12 30
12 12 30
12 12 30
12 12 30
12 12 30
12 12 30
12 12 30
12 12 30
12 12 30
12 12 30
12 12 30
12 12 30
12 12 30
12 12 30
12 12 30
12 12 30
12 12 30
12 12 30
12 12 30
12 12 30
12 12 30
12 12 30
12 12 30
12 12 30
12 12 30
12 12 30
12 12 30
12 12 30
12 12 30
12 12 30
12 12 30
12 12 30
12 12 30
12 12 30
12 12 30
12 12 30
12 12 30
12 12 30
12 12 30
12 12 30
12 12 30
12 12 30
12 12 30
12 12 30
12 12 30
12 12 30
12 12 30
12 12 30
12 12 30
12 12 30
12 12 30
12 12 30
12 12 30
12 12 30
12 12 30
12 12 30
12 12 30
12 12 30
12 12 30
12 12 30
12 12 30
12 12 30
12 12 30
12 12 30
12 12 30
12 12 30
12 12 30
12 12 30
12 12 30
12 12 30
12 12 30
12 12 30
12 12 30
12 12 30
12 12 30
12 12 30
12 12 30
12 12 30
12 12 30
12 12 30
12 12 30
12 12 30
12 12 30
12 12 30
12 12 30
12 12 30
12 12 30
12 12 30
12 12 30
12 12 30
12 12 30
12 12 30
12 12 30
12 12 30
12 12 30
12 12 30
12 12 30
12 12 30
12 12 30
12 12 30
12 12 30
12 12 30
12 12 30
12 12 30
12 12 30
12 12 30
12 12 30
12 12 30
12 12 30
12 12 30
12 12 30
12 12 30
12 12 30
12 12 30
12 12 30
12 12 30
12 12 30
12 12 30
12 12 30
12 12 30
12 12 30
12 12 30
12 12 30
12 12 30
12 12 30
12 12 30
12 12 30
12 12 30
12 12 30
12 12 30
12 12 30
12 12 30
12 12 30
12 12 30
12 12 30
12 12 30
12 12 30
12 12 30
12 12 30
12 12 30
12 12 30
12 12 30
12 12 30
12 12 30
12 12 30
12 12 30
12 12 30
12 12 30
12 12 30
12 12 30
12 12 30
12 12 30
12 12 30
12 12 30
12 12 30
12 12 30
12 12 30
12 12 30
12 12 30
12 12 30
12 12 30
12 12 30
12 12 30
12 12 30
12 12 30
12 12 30
12 12 30
12 12 30
12 12 30
12 12 30
12 12 30
12 12 30
12 12 30
12 12 30
12 12 30
12 12 30
12 12 30
12 12 30
12 12 30
12 12 30
12 12 30
12 12 30
12 12 30
12 12 30
12 12 30
12 12 30
12 12 30
12 12 30
12 12 30
12 12 30
12 12 30
12 12 30
12 12 30
12 12 30
12 12 30
12 12 30
12 12 30
12 12 30
12 12 30
12 12 30
12 12 30
12 12 30
12 12 30
12 12 30
12 12 30
12 12 30
12 12 30
12 12 30
12 12 30
12 12 30
12 12 30
12 12 30
12 12 30
12 12 30
12 12 30
12 12 30
12 12 30
12 12 30
12 12 30
12 12 30
12 12 30
12 12 30
12 12 30
12 12 30
12 12 30
12 12 30
12 12 30
12 12 30
12 12 30
12 12 30
12 12 30
12 12 30
12 12 30
12 12 30
12 12 30
12 12 30
12 12 30
12 12 30
12 12 30
12 12 30
12 12 30
12 12 30
12 12 30
12 12 30
12 12 30
12 12 30
12 12 30
12 12 30
12 12 30
12 12 30
12 12 30
12 12 30
12 12 30
12 12 30
12 12 30
12 12 30
12 12 30
12 12 30
12 12 30
12 12 30
12 12 30
12 12 30
12 12 30
12 12 30
12 12 30
12 12 30
12 12 30
12 12 30
12 12 30
12 12 30
12 12 30
12 12 30
12 12 30
12 12 30
12 12 30
12 12 30
12 12 30
12 12 30
12 12 30
12 12 30
12 12 30
12 12 30
12 12 30
12 12 30
12 12 30
12 12 30
12 12 30
12 12 30
12 12 30
12 12 30
12 12 30
12 12 30
12 12 30
12 12 30
12 12 30
12 12 30
12 12 30
12 12 30
12 12 30
12 12 30
12 12 30
12 12 30
12 12 30
12 12 30
12 12 30
12 12 30
12 12 30
12 12 30
12 12 30
12 12 30
12 12 30
12 12 30
12 12 30
12 12 30
12 12 30
12 12 30
12 12 30
12 12 30
12 12 30
12 12 30
12 12 30
12 12 30
12 12 30
12 12 30
12 12 30
12 12 30
12 12 30
12 12 30
12 12 30
12 12 30
12 12 30
12 12 30
12 12 30
12 12 30
12 12 30
12 12 30
12 12 30
12 12 30
12 12 30
12 12 30
12 12 30
12 12 30
12 12 30
12 12 30
12 12 30
12 12 30
12 12 30
12 12 30
12 12 30
12 12 30
12 12 30
12 12 30
12 12 30
12 12 30
12 12 30
12 12 30
12 12 30
12 12 30
12 12 30
12 12 30
12 12 30
12 12 30
12 12 30
12 12 30
12 12 30
12 12 30
12 12 30
12 12 30
12 12 30
12 12 30
12 12 30
12 12 30
12 12 30
12 12 30
12 12 30
12 12 30
12 12 30
12 12 30
12 12 30
12 12 30
12 12 30
12 12 30
12 12 30
12 12 30
12 12 30
12 12 30
12 12 30
12 12 30
12 12 30
12 12 30
12 12 30
12 12 30
12 12 30
12 12 30
12 12 30
12 12 30
12 12 30
12 12 30
12 12 30
12 12 30
12 12 30
12 12 30
12 12 30
12 12 30
12 12 30
12 12 30
12 12 30
12 12 30
12 12 30
12 12 30
12 12 30
12 12 30
12 12 30
12 12 30
12 12 30
12 12 30
12 12 30
12 12 30
12 12 30
12 12 30
12 12 30
12 12 30
12 12 30
12 12 30
12 12 30
12 12 30
12 12 30
12 12 30
12 12 30
12 12 30
12 12 30
12 12 30
12 12 30
12 12 30
12 12 30
12 12 30
12 12 30
12 12 30
12 12 30
12 12 30
12 12 30
12 12 30
12 12 30
12 12 30
12 12 30
12 12 30
12 12 30
12 12 30
12 12 30
12 12 30
12 12 30
12 12 30
12 12 30
12 12 30
12 12 30
12 12 30
12 12 30
12 12 30
12 12 30
12 12 30
12 12 30
12 12 30
12 12 30
12 12 30
12 12 30
12 12 30
12 12 30
12 12 30
12 12 30
12 12 30
12 12 30
12 12 30
12 12 30
12 12 30
12 12 30
12 12 30
12 12 30
12 12 30
12 12 30
12 12 30
12 12 30
12 12 30
12 12 30
12 12 30
12 12 30
12 12 30
12 12 30
12 12 30
12 12 30
12 12 30
12 12 30
12 12 30
12 12 30
12 12 30
12 12 30
12 12 30
12 12 30
12 12 30
12 12 30
12 12 30
12 12 30
12 12 30
12 12 30
12 12 30
12 12 30
12 12 30
12 12 30
12 12 30
12 12 30
12 12 30
12 12 30
12 12 30
12 12 30
12 12 30
12 12 30
12 12 30
12 12 30
12 12 30
12 12 30
12 12 30
12 12 30
12 12 30
12 12 30
12 12 30
12 12 30
12 12 30
12 12 30
12 12 30
12 12 30
12 12 30
12 12 30
12 12 30
12 12 30
12 12 30
12 12 30
12 12 30
12 12 30
12 12 30
12 12 30
12 12 30
12 12 30
12 12 30
12 12 30
12 12 30
12 12 30
12 12 30
12 12 30
12 12 30
12 12 30
12 12 30
12 12 30
12 12 30
12 12 30
12 12 30
12 12 30
12 12 30
12 12 30
12 12 30
12 12 30
12 12 30
12 12 30
12 12 30
12 12 30
12 12 30
12 12 30
12 12 30
12 12 30
12 12 30
12 12 30
12 12 30
12 12 30
12 12 30
12 12 30
12 12 30
12 12 30
12 12 30
12 12 30
12 12 30
12 12 30
12 12 30
12 12 30
12 12 30
12 12 30
12 12 30
12 12 30
12 12 30
12 12 30
12 12 30
12 12 30
12 12 30
12 12 30
12 12 30
12 12 30
12 12 30
12 12 30
12 12 30
12 12 30
12 12 30
12 12 30
12 12 30
12 12 30
12 12 30
12 12 30
12 12 30
12 12 30
12 12 30
12 12 30
12 12 30
12 12 30
12 12 30
12 12 30
12 12 30
12 12 30
12 12 30
12 12 30
12 12 30
12 12 30
12 12 30
12 12 30
12 12 30
12 12 30
12 12 30
12 12 30
12 12 30
12 12 30
12 12 30
12 12 30
12 12 30
12 12 30
12 12 30
12 12 30
12 12 30
12 12 30
12 12 30
12 12 30
12 12 30
12 12 30
12 12 30
12 12 30
12 12 30
12 12 30
12 12 30
12 12 30
12 12 30
12 12 30
12 12 30
12 12 30
12 12 30
12 12 30
12 12 30
12 12 30
12 12 30
12 12 30
12 12 30
12 12 30
12 12 30
12 12 30
12 12 30
12 12 30
12 12 30
12 12 30
12 12 30
12 12 30
12 12 30
12 12 30
12 12 30
12 12 30
12 12 30
12 12 30
12 12 30
12 12 30
12 12 30
12 12 30
12 12 30
12 12 30
12 12 30
12 12 30
12 12 30
12 12 30
12 12 30
12 12 30
12 12 30
12 12 30
12 12 30
12 12 30
12 12 30
12 12 30
12 12 30
12 12 30
12 12 30
12 12 30
12 12 30
12 12 30
12 12 30
12 12 30
12 12 30
12 12 30
12 12 30
12 12 30
12 12 30
12 12 30
12 12 30
12 12 30
12 12 30
12 12 30
12 12 30
12 12 30
12 12 30
12 12 30
12 12 30
12 12 30
12 12 30
12 12 30
12 12 30
12 12 30
12 12 30
12 12 30
12 12 30
12 12 30
12 12 30
12 12 30
12 12 30
12 12 30
12 12 30
12 12 30
12 12 30
12 12 30
12 12 30
12 12 30
12 12 30
12 12 30
12 12 30
12 12 30
12 12 30
12 12 30
12 12 30
12 12 30
12 12 30
12 12 30
12 12 30
12 12 30
12 12 30
12 12 30
12 12 30
12 12 30
12 12 30
12 12 30
12 12 30
12 12 30
12 12 30
12 12 30
12 12 30
12 12 30
12 12 30
12 12 30
12 12 30
12 12 30
12 12 30
12 12 30
12 12 30
12 12 30
12 12 30
12 12 30
12 12 30
12 12 30
12 12 30
12 12 30
12 12 30
12 12 30
12 12 30
12 12 30
12 12 30
12 12 30
12 12 30
12 12 30
12 12 30
12 12 30
12 12 30
12 12 30
12 12 30
12 12 30
12 12 30
12 12 30
12 12 30
12 12 30
12 12 30
12 12 30
12 12 30
12 12 30
12 12 30
12 12 30
12 12 30
12 12 30
12 12 30
12 12 30
12 12 30
12 12 30
12 12 30
12 12 30
12 12 30
12 12 30
12 12 30
12 12 30
12 12 30
12 12 30
12 12 30
12 12 30
12 12 30
12 12 30
12 12 30
12 12 30
12 12 30
12 12 30
12 12 30
12 12 30
12 12 30
12 12 30
12 12 30
12 12 30
12 12 30
12 12 30
12 12 30
12 12 30
12 12 30
12 12 30
12 12 30
12 12 30
12 12 30
12 12 30
12 12 30
12 12 30
12 12 30
12 12 30
12 12 30
12 12 30
12 12 30
12 12 30
12 12 30
12 12 30
12 12 30
12 12 30
12 12 30
12 12 30
12 12 30
12 12 30
12 12 30
12 12 30
12 12 30
12 12 30
12 12 30
12 12 30
12 12 30
12 12 30
12 12 30
12 12 30
12 12 30
12 12 30
12 12 30
12 12 30
12 12 30
12 12 30
12 12 30
12 12 30
12 12 30
12 12 30
12 12 30
12 12 30
12 12 30
12 12 30
12 12 30
12 12 30
12 12 30
12 12 30
12 12 30
12 12 30
12 12 30
12 12 30
12 12 30
12 12 30
12 12 30
12 12 30
12 12 30
12 12 30
12 12 30
12 12 30
12 12 30
12 12 30
12 12 30
12 12 30
12 12 30
12 12 30
12 12 30
12 12 30
12 12 30
12 12 30
12 12 30
12 12 30
12 12 30
12 12 30
12 12 30
12 12 30
12 12 30
12 12 30
12 12 30
12 12 30
12 12 30
12 12 30
12 12 30
12 12 30
12 12 30
12 12 30
12 12 30
12 12 30
12 12 30
12 12 30
12 12 30
12 12 30
12 12 30
12 12 30
12 12 30
12 12 30
12 12 30
12 12 30
12 12 30
12 12 30
12 12 30
12 12 30
12 12 30
12 12 30
12 12 30
12 12 30
12 12 30
12 12 30
12 12 30
12 12 30
12 12 30
12 12 30
12 12 30
12 12 30
12 12 30
12 12 30
12 12 30
12 12 30
12 12 30
12 12 30
12 12 30
12 12 30
12 12 30
12 12 30
12 12 30
12 12 30
12 12 30
12 12 30
12 12 30
12 12 30
12 12 30
12 12 30
12 12 30
12 12 30
12 12 30
12 12 30
12 12 30
12 12 30
12 12 30
12 12 30
12 12 30
12 12 30
12 12 30
12 12 30
12 12 30
12 12 30
12 12 30
12 12 30
12 12 30
12 12 30
12 12 30
12 12 30
12 12 30
12 12 30
12 12 30
12 12 30
12 12 30
12 12 30
12 12 30
12 12 30
12 12 30
12 12 30
12 12 30
12 12 30
12 12 30
12 12 30
12 12 30
12 12 30
12 12 30
12 12 30
12 12 30
12 12 30
12 12 30
12 12 30
12 12 30
12 12 30
12 12 30
12 12 30
12 12 30
12 12 30
12 12 30
12 12 30
12 12 30
12 12 30
12 12 30
12 12 30
12 12 30
12 12 30
12 12 30
12 12 30
12 12 30
12 12 30
12 12 30
12 12 30
12 12 30
12 12 30
12 12 30
12 12 30
12 12 30
12 12 30
12 12 30
12 12 30
12 12 30
12 12 30
12 12 30
12 12 30
12 12 30
12 12 30
12 12 30
12 12 30
12 12 30
12 12 30
12 12 30
12 12 30
12 12 30
12 12 30
12 12 30
12 12 30
12 12 30
12 12 30
12 12 30
12 12 30
12 12 30
12 12 30
12 12 30
12 12 30
12 12 30
12 12 30
12 12 30
12 12 30
12 12 30
12 12 30
12 12 30
12 12 30
12 12 30
12 12 30
12 12 30
12 12 30
12 12 30
12 12 30
12 12 30
12 12 30
12 12 30
12 12 30
12 12 30
12 12 30
12 12 30
12 12 30
12 12 30
12 12 30
12 12 30
12 12 30
12 12 30
12 12 30
12 12 30
12 12 30
12 12 30
12 12 30
12 12 30
12 12 30
12 12 30
12 12 30
12 12 30
12 12 30
12 12 30
12 12 30
12 12 30
12 12 30
12 12 30
12 12 30
12 12 30
12 12 30
12 12 30
12 12 30
12 12 30
12 12 30
12 12 30
12 12 30
12 12 30
12 12 30
12 12 30
12 12 30
12 12 30
12 12 30
12 12 30
12 12 30
12 12 30
12 12 30
12 12 30
12 12 30
12 12 30
12 12 30
12 12 30
12 12 30
12 12 30
12 12 30
12 12 30
12 12 30
12 12 30
12 12 30
12 12 30
12 12 30
12 12 30
12 12 30
12 12 30
12 12 30
12 12 30
12 12 30
12 12 30
12 12 30
12 12 30
12 12 30
12 12 30
12 12 30
12 12 30
12 12 30
12 12 30
12 12 30
12 12 30
12 12 30
12 12 30
12 12 30
12 12 30
12 12 30
12 12 30
12 12 30
12 12 30
12 12 30
12 12 30
12 12 30
12 12 30
12 12 30
12 12 30
12 12 30
12 12 30
12 12 30
12 12 30
12 12 30
12 12 30
12 12 30
12 12 30
12 12 30
12 12 30
12 12 30
12 12 30
12 12 30
12 12 30
12 12 30
12 12 30
12 12 30
12 12 30
12 12 30
12 12 30
12 12 30
12 12 30
12 12 30
12 12 30
12 12 30
12 12 30
12 12 30
12 12 30
12 12 30
12 12 30
12 12 30
12 12 30
12 12 30
12 12 30
12 12 30
12 12 30
12 12 30
12 12 30
12 12 30
12 12 30
12 12 30
12 12 30
12 12 30
12 12 30
12 12 30
12 12 30
12 12 30
12 12 30
12 12 30
12 12 30
12 12 30
12 12 30
12 12 30
12 12 30
12 12 30
12 12 30
12 12 30
12 12 30
12 12 30
12 12 30
12 12 30
12 12 30
12 12 30
12 12 30
12 12 30
12 12 30
12 12 30
12 12 30
12 12 30
12 12 30
12 12 30
12 12 30
12 12 30
12 12 30
12 12 30
12 12 30
12 12 30
12 12 30
12 12 30
12 12 30
12 12 30
12 12 30
12 12 30
12 12 30
12 12 30
12 12 30
12 12 30
12 12 30
12 12 30
12 12 30
12 12 30
12 12 30
12 12 30
12 12 30
12 12 30
12 12 30
12 12 30
12 12 30
12 12 30
12 12 30
12 12 30
12 12 30
12 12 30
12 12 30
12 12 30
12 12 30
12 12 30
12 12 30
12 12 30
12 12 30
12 12 30
12 12 30
12 12 30
12 12 30
12 12 30
12 12 30
12 12 30
12 12 30
12 12 30
12 12 30
12 12 30
12 12 30
12 12 30
12 12 30
12 12 30
12 12 30
12 12 30
12 12 30
12 12 30
12 12 30
12 12 30
12 12 30
12 12 30
12 12 30
12 12 30
12 12 30
12 12 30
12 12 30
12 12 30
12 12 30
12 12 30
12 12 30
12 12 30
12 12 30
12 12 30
12 12 30
12 12 30
12 12 30
12 12 30
12 12 30
12 12 30
12 12 30
12 12 30
12 12 30
12 12 30
12 12 30
12 12 30
12 12 30
12 12 30
12 12 30
12 12 30
12 12 30
12 12 30
12 12 30
12 12 30
12 12 30
12 12 30
12 12 30
12 12 30
12 12 30
12 12 30
12 12 30
12 12 30
12 12 30
12 12 30
12 12 30
12 12 30
12 12 30
12 12 30
12 12 30
12 12 30
12 12 30
12 12 30
12 12 30
12 12 30
12 12 30
12 12 30
12 12 30
12 12 30
12 12 30
12 12 30
12 12 30
12 12 30
12 12 30
12 12 30
12 12 30
12 12 30
12 12 30
12 12 30
12 12 30
12 12 30
12 12 30
12 12 30
12 12 30
12 12 30
12 12 30
12 12 30
12 12 30
12 12 30
12 12 30
12 12 30
12 12 30
12 12 30
12 12 30
12 12 30
12 12 30
12 12 30
12 12 30
12 12 30
12 12 30
12 12 30
12 12 30
12 12 30
12 12 30
12 12 30
12 12 30
12 12 30
12 12 30
12 12 30
12 12 30
12 12 30
12 12 30
12 12 30
12 12 30
12 12 30
12 12 30
12 12 30
12 12 30
12 12 30
12 12 30
12 12 30
12 12 30
12 12 30
12 12 30
12 12 30
12 12 30
12 12 30
12 12 30
12 12 30
12 12 30
12 12 30
12 12 30
12 12 30
12 12 30
12 12 30
12 12 30
12 12 30
12 12 30
12 12 30
12 12 30
12 12 30
12 12 30
12 12 30
12 12 30
12 12 30
12 12 30
12 12 30
12 12 30
12 12 30
12 12 30
12 12 30
12 12 30
12 12 30
12 12 30
12 12 30
12 12 30
12 12 30
12 12 30
12 12 30
12 12 30
12 12 30
12 12 30
12 12 30
12 12 30
12 12 30
12 12 30
12 12 30
12 12 30
12 12 30
12 12 30
12 12 30
12 12 30
12 12 30
12 12 30
12 12 30
12 12 30
12 12 30
12 12 30
12 12 30
12 12 30
12 12 30
12 12 30
12 12 30
12 12 30
12 12 30
12 12 30
12 12 30
12 12 30
12 12 30
12 12 30
12 12 30
12 12 30
12 12 30
12 12 30
12 12 30
12 12 30
12 12 30
12 12 30
12 12 30
12 12 30
12 12 30
12 12 30
12 12 30
12 12 30
12 12 30
12 12 30
12 12 30
12 12 30
12 12 30
12 12 30
12 12 30
12 12 30
12 12 30
12 12 30
12 12 30
12 12 30
12 12 30
12 12 30
12 12 30
12 12 30
12 12 30
12 12 30
12 12 30
12 12 30
12 12 30
12 12 30
12 12 30
12 12 30
12 12 30
12 12 30
12 12 30
12 12 30
12 12 30
12 12 30
12 12 30
12 12 30
12 12 30
12 12 30
12 12 30
12 12 30
12 12 30
12 12 30
12 12 30
12 12 30
12 12 30
12 12 30
12 12 30
12 12 30
12 12 30
12 12 30
12 12 30
12 12 30
12 12 30
12 12 30
12 12 30
12 12 30
12 12 30
12 12 30
12 12 30
12 12 30
12 12 30
12 12 30
12 12 30
12 12 30
12 12 30
12 12 30
12 12 30
12 12 30
12 12 30
12 12 30
12 12 30
12 12 30
12 12 30
12 12 30
12 12 30
12 12 30
12 12 30
12 12 30
12 12 30
12 12 30
12 12 30
12 12 30
12 12 30
12 12 30
12 12 30
12 12 30
12 12 30
12 12 30
12 12 30
12 12 30
12 12 30
12 12 30
12 12 30
12 12 30
12 12 30
12 12 30
12 12 30
12 12 30
12 12 30
12 12 30
12 12 30
12 12 30
12 12 30
12 12 30
12 12 30
12 12 30
12 12 30
12 12 30
12 12 30
12 12 30
12 12 30
12 12 30
12 12 30
12 12 30
12 12 30
12 12 30
12 12 30
12 12 30
12 12 30
12 12 30
12 12 30
12 12 30
12 12 30
12 12 30
12 12 30
12 12 30
12 12 30
12 12 30
12 12 30
12 12 30
12 12 30
12 12 30
12 12 30
12 12 30
12 12 30
12 12 30
12 12 30
12 12 30
12 12 30
12 12 30
12 12 30
12 12 30
12 12 30
12 12 30
12 12 30
12 12 30
12 12 30
12 12 30
12 12 30
12 12 30
12 12 30
12 12 30
12 12 30
12 12 30
12 12 30
12 12 30
12 12 30
12 12 30
12 12 30
12 12 30
12 12 30
12 12 30
12 12 30
12 12 30
12 12 30
12 12 30
12 12 30
12 12 30
12 12 30
12 12 30
12 12 30
12 12 30
12 12 30
12 12 30
12 12 30
12 12 30
12 12 30
12 12 30
12 12 30
12 12 30
12 12 30
12 12 30
12 12 30
12 12 30
12 12 30
12 12 30
12 12 30
12 12 30
12 12 30
12 12 30
12 12 30
12 12 30
12 12 30
12 12 30
12 12 30
12 12 30
12 12 30
12 12 30
12 12 30
12 12 30
12 12 30
12 12 30
12 12 30
12 12 30
12 12 30
12 12 30
12 12 30
12 12 30
12 12 30
12 12 30
12 12 30
12 12 30
12 12 30
12 12 30
12 12 30
12 12 30
12 12 30
12 12 30
12 12 30
12 12 30
12 12 30
12 12 30
12 12 30
12 12 30
12 12 30
12 12 30
12 12 30
12 12 30
12 12 30
12 12 30
12 12 30
12 12 30
12 12 30
12 12 30
12 12 30
12 12 30
12 12 30
12 12 30
12 12 30
12 12 30
12 12 30
12 12 30
12 12 30
12 12 30
12 12 30
12 12 30
12 12 30
12 12 30
12 12 30
12 12 30
12 12 30
12 12 30
12 12 30
12 12 30
12 12 30
12 12 30
12 12 30
12 12 30
12 12 30
12 12 30
12 12 30
12 12 30
12 12 30
12 12 30
12 12 30
12 12 30
12 12 30
12 12 30
12 12 30
12 12 30
12 12 30
12 12 30
12 12 30
12 12 30
12 12 30
12 12 30
12 12 30
12 12 30
12 12 30
12 12 30
12 12 30
12 12 30
12 12 30
12 12 30
12 12 30
12 12 30
12 12 30
12 12 30
12 12 30
12 12 30
12 12 30
12 12 30
12 12 30
12 12 30
12 12 30
12 12 30
12 12 30
12 12 30
12 12 30
12 12 30
12 12 30
12 12 30
12 12 30
12 12 30
12 12 30
12 12 30
12 12 30
12 12 30
12 12 30
12 12 30
12 12 30
12 12 30
12 12 30
12 12 30
12 12 30
12 12 30
12 12 30
12 12 30
12 12 30
12 12 30
12 12 30
12 12 30
12 12 30
12 12 30
12 12 30
12 12 30
12 12 30
12 12 30
12 12 30
12 12 30
12 12 30
12 12 30
12 12 30
12 12 30
12 12 30
12 12 30
12 12 30
12 12 30
12 12 30
12 12 30
12 12 30
12 12 30
12 12 30
12 12 30
12 12 30
12 12 30
12 12 30
12 12 30
12 12 30
12 12 30
12 12 30
12 12 30
12 12 30
12 12 30
12 12 30
12 12 30
12 12 30
12 12 30
12 12 30
12 12 30
12 12 30
12 12 30
12 12 30
12 12 30
12 12 30
12 12 30
12 12 30
12 12 30
12 12 30
12 12 30
12 12 30
12 12 30
12 12 30
12 12 30
12 12 30
12 12 30
12 12 30
12 12 30
12 12 30
12 12 30
12 12 30
12 12 30
12 12 30
12 12 30
12 12 30
12 12 30
12 12 30
12 12 30
12 12 30
12 12 30
12 12 30
12 12 30
12 12 30
12 12 30
12 12 30
12 12 30
12 12 30
12 12 30
12 12 30
12 12 30
12 12 30
12 12 30
12 12 30
12 12 30
12 12 30
12 12 30
12 12 30
12 12 30
12 12 30
12 12 30
12 12 30
12 12 30
12 12 30
12 12 30
12 12 30
12 12 30
12 12 30
12 12 30
12 12 30
12 12 30
12 12 30
12 12 30
12 12 30
12 12 30
12 12 30
12 12 30
12 12 30
12 12 30
12 12 30
12 12 30
12 12 30
12 12 30
12 12 30
12 12 30
12 12 30
12 12 30
12 12 30
12 12 30
12 12 30
12 12 30
12 12 30
12 12 30
12 12 30
12 12 30
12 12 30
12 12 30
12 12 30
12 12 30
12 12 30
12 12 30
12 12 30
12 12 30
12 12 30
12 12 30
12 12 30
12 12 30
12 12 30
12 12 30
12 12 30
12 12 30
12 12 30
12 12 30
12 12 30
12 12 30
12 12 30
12 12 30
12 12 30
12 12 30
12 12 30
12 12 30
12 12 30
12 12 30
12 12 30
12 12 30
12 12 30
12 12 30
12 12 30
12 12 30
12 12 30
12 12 30
12 12 30
12 12 30
12 12 30
12 12 30
12 12 30
12 12 30
12 12 30
12 12 30
12 12 30
12 12 30
12 12 30
12 12 30
12 12 30
12 12 30
12 12 30
12 12 30
12 12 30
12 12 30
12 12 30
12 12 30
12 12 30
12 12 30
12 12 30
12 12 30
12 12 30
12 12 30
12 12 30
12 12 30
12 12 30
12 12 30
12 12 30
12 12 30
12 12 30
12 12 30
12 12 30
12 12 30
12 12 30
12 12 30
12 12 30
12 12 30
12 12 30
12 12 30
12 12 30
12 12 30
12 12 30
12 12 30
12 12 30
12 12 30
12 12 30
12 12 30
12 12 30
12 12 30
12 12 30
12 12 30
12 12 30
12 12 30
12 12 30
12 12 30
12 12 30
12 12 30
12 12 30
12 12 30
12 12 30
12 12 30
12 12 30
12 12 30
12 12 30
12 12 30
12 12 30
12 12 30
12 12 30
12 12 30
12 12 30
12 12 30
12 12 30
12 12 30
12 12 30
12 12 30
12 12 30
12 12 30
12 12 30
12 12 30
12 12 30
12 12 30
12 12 30
12 12 30
12 12 30
12 12 30
12 12 30
12 12 30
12 12 30
12 12 30
12 12 30
12 12 30
12 12 30
12 12 30
12 12 30
12 12 30
12 12 30
12 12 30
12 12 30
12 12 30
12 12 30
12 12 30
12 12 30
12 12 30
12 12 30
12 12 30
12 12 30
12 12 30
12 12 30
12 12 30
12 12 30
12 12 30
12 12 30
12 12 30
12 12 30
12 12 30
12 12 30
12 12 30
12 12 30
12 12 30
12 12 30
12 12 30
12 12 30
12 12 30
12 12 30
12 12 30
12 12 30
12 12 30
12 12 30
12 12 30
12 12 30
12 12 30
12 12 30
12 12 30
12 12 30
12 12 30
12 12 30
12 12 30
12 12 30
12 12 30
12 12 30
12 12 30
12 12 30
12 12 30
12 12 30
12 12 30
12 12 30
12 12 30
12 12 30
12 12 30
12 12 30
12 12 30
12 12 30
12 12 30
12 12 30
12 12 30
12 12 30
12 12 30
12 12 30
12 12 30
12 12 30
12 12 30
12 12 30
12 12 30
12 12 30
12 12 30
12 12 30
12 12 30
12 12 30
12 12 30
12 12 30
12 12 30
12 12 30
12 12 30
12 12 30
12 12 30
12 12 30
12 12 30
12 12 30
12 12 30
12 12 30
12 12 30
12 12 30
12 12 30
12 12 30
12 12 30
12 12 30
12 12 30
12 12 30
12 12 30
12 12 30
12 12 30
12 12 30
12 12 30
12 12 30
12 12 30
12 12 30
12 12 30
12 12 30
12 12 30
12 12 30
12 12 30
12 12 30
12 12 30
12 12 30
12 12 30
12 12 30
12 12 30
12 12 30
12 12 30
12 12 30
12 12 30
12 12 30
12 12 30
12 12 30
12 12 30
12 12 30
12 12 30
12 12 30
12 12 30
12 12 30
12 12 30
12 12 30
12 12 30
12 12 30
12 12 30
12 12 30
12 12 30
12 12 30
12 12 30
12 12 30
12 12 30
12 12 30
12 12 30
12 12 30
12 12 30
12 12 30
12 12 30
12 12 30
12 12 30
12 12 30
12 12 30
12 12 30
12 12 30
12 12 30
12 12 30
12 12 30
12 12 30
12 12 30
12 12 30
12 12 30
12 12 30
12 12 30
12 12 30
12 12 30
12 12 30
12 12 30
12 12 30
12 12 30
12 12 30
12 12 30
12 12 30
12 12 30
12 12 30
12 12 30
12 12 30
12 12 30
12 12 30
12 12 30
12 12 30
12 12 30
12 12 30
12 12 30
12 12 30
12 12 30
12 12 30
12 12 30
12 12 30
12 12 30
12 12 30
12 12 30
12 12 30
12 12 30
12 12 30
12 12 30
12 12 30
12 12 30
12 12 30
12 12 30
12 12 30
12 12 30
12 12 30
12 12 30
12 12 30
12 12 30
12 12 30
12 12 30
12 12 30
12 12 30
12 12 30
12 12 30
12 12 30
12 12 30
12 12 30
12 12 30
12 12 30
12 12 30
12 12 30
12 12 30
12 12 30
12 12 30
12 12 30
12 12 30
12 12 30
12 12 30
12 12 30
12 12 30
12 12 30
12 12 30
12 12 30
12 12 30
12 12 30
12 12 30
12 12 30
12 12 30
12 12 30
12 12 30
12 12 30
12 12 30
12 12 30
12 12 30
12 12 30
12 12 30
12 12 30
12 12 30
12 12 30
12 12 30
12 12 30
12 12 30
12 12 30
12 12 30
12 12 30
12 12 30
12 12 30
12 12 30
12 12 30
12 12 30
12 12 30
12 12 30
12 12 30
12 12 30
12 12 30
12 12 30
12 12 30
12 12 30
12 12 30
12 12 30
12 12 30
12 12 30
12 12 30
12 12 30
12 12 30
12 12 30
12 12 30
12 12 30
12 12 30
12 12 30
12 12 30
12 12 30
12 12 30
12 12 30
12 12 30
12 12 30
12 12 30
12 12 30
12 12 30
12 12 30
12 12 30
12 12 30
12 12 30
12 12 30
12 12 30
12 12 30
12 12 30
12 12 30
12 12 30
12 12 30
12 12 30
12 12 30
12 12 30
12 12 30
12 12 30
12 12 30
12 12 30
12 12 30
12 12 30
12 12 30
12 12 30
12 12 30
12 12 30
12 12 30
12 12 30
12 12 30
12 12 30
12 12 30
12 12 30
12 12 30
12 12 30
12 12 30
12 12 30
12 12 30
12 12 30
12 12 30
12 12 30
12 12 30
12 12 30
12 12 30
12 12 30
12 12 30
12 12 30
12 12 30
12 12 30
12 12 30
12 12 30
12 12 30
12 12 30
12 12 30
12 12 30
12 12 30
12 12 30
12 12 30
12 12 30
12 12 30
12 12 30
12 12 30
12 12 30
12 12 30
12 12 30
12 12 30
12 12 30
12 12 30
12 12 30
12 12 30
12 12 30
12 12 30
12 12 30
12 12 30
12 12 30
12 12 30
12 12 30
12 12 30
12 12 30
12 12 30
12 12 30
12 12 30
12 12 30
12 12 30
12 12 30
12 12 30
12 12 30
12 12 30
12 12 30
12 12 30
12 12 30
12 12 30
12 12 30
12 12 30
12 12 30
12 12 30
12 12 30
12 12 30
12 12 30
12 12 30
12 12 30
12 12 30
12 12 30
12 12 30
12 12 30
12 12 30
12 12 30
12 12 30
12 12 30
12 12 30
12 12 30
12 12 30
12 12 30
12 12 30
12 12 30
12 12 30
12 12 30
12 12 30
12 12 30
12 12 30
12 12 30
12 12 30
12 12 30
12 12 30
12 12 30
12 12 30
12 12 30
12 12 30
12 12 30
12 12 30
12 12 30
12 12 30
12 12 30
12 12 30
12 12 30
12 12 30
12 12 30
12 12 30
12 12 30
12 12 30
12 12 30
12 12 30
12 12 30
12 12 30
12 12 30
12 12 30
12 12 30
12 12 30
12 12 30
12 12 30
12 12 30
12 12 30
12 12 30
12 12 30
12 12 30
12 12 30
12 12 30
12 12 30
12 12 30
12 12 30
12 12 30
12 12 30
12 12 30
12 12 30
12 12 30
12 12 30
12 12 30
12 12 30
12 12 30
12 12 30
12 12 30
12 12 30
12 12 30
12 12 30
12 12 30
12 12 30
12 12 30
12 12 30
12 12 30
12 12 30
12 12 30
12 12 30
12 12 30
12 12 30
12 12 30
12 12 30
12 12 30
12 12 30
12 12 30
12 12 30
12 12 30
12 12 30
12 12 30
12 12 30
12 12 30
12 12 30
12 12 30
12 12 30
12 12 30
12 12 30
12 12 30
12 12 30
12 12 30
12 12 30
12 12 30
12 12 30
12 12 30
12 12 30
12 12 30
12 12 30
12 12 30
12 12 30
12 12 30
12 12 30
12 12 30
12 12 30
12 12 30
12 12 30
12 12 30
12 12 30
12 12 30
12 12 30
12 12 30
12 12 30
12 12 30
12 12 30
12 12 30
12 12 30
12 12 30
12 12 30
12 12 30
12 12 30
12 12 30
12 12 30
12 12 30
12 12 30
12 12 30
12 12 30
12 12 30
12 12 30
12 12 30
12 12 30
12 12 30
12 12 30
12 12 30
12 12 30
12 12 30
12 12 30
12 12 30
12 12 30
12 12 30
12 12 30
12 12 30
12 12 30
12 12 30
12 12 30
12 12 30
12 12 30
12 12 30
12 12 30
12 12 30
12 12 30
12 12 30
12 12 30
12 12 30
12 12 30
12 12 30
12 12 30
12 12 30
12 12 30
12 12 30
12 12 30
12 12 30
12 12 30
12 12 30
12 12 30
12 12 30
12 12 30
12 12 30
12 12 30
12 12 30
12 12 30
12 12 30
12 12 30
12 12 30
12 12 30
12 12 30
12 12 30
12 12 30
12 12 30
12 12 30
12 12 30
12 12 30
12 12 30
12 12 30
12 12 30
12 12 30
12 12 30
12 12 30
12 12 30
12 12 30
12 12 30
12 12 30
12 12 30
12 12 30
12 12 30
12 12 30
12 12 30
12 12 30
12 12 30
12 12 30
12 12 30
12 12 30
12 12 30
12 12 30
12 12 30
12 12 30
12 12 30
12 12 30
12 12 30
12 12 30
12 12 30
12 12 30
12 12 30
12 12 30
12 12 30
12 12 30
12 12 30
12 12 30
12 12 30
12 12 30
12 12 30
12 12 30
12 12 30
12 12 30
12 12 30
12 12 30
12 12 30
12 12 30
12 12 30
12 12 30
12 12 30
12 12 30
12 12 30
12 12 30
12 12 30
12 12 30
12 12 30
12 12 30
12 12 30
12 12 30
12 12 30
12 12 30
12 12 30
12 12 30
12 12 30
12 12 30
12 12 30
12 12 30
12 12 30
12 12 30
12 12 30
12 12 30
12 12 30
12 12 30
12 12 30
12 12 30
12 12 30
12 12 30
12 12 30
12 12 30
12 12 30
12 12 30
12 12 30
12 12 30
12 12 30
12 12 30
12 12 30
12 12 30
12 12 30
12 12 30
12 12 30
12 12 30
12 12 30
12 12 30
12 12 30
12 12 30
12 12 30
12 12 30
12 12 30
12 12 30
12 12 30
12 12 30
12 12 30
12 12 30
12 12 30
12 12 30
12 12 30
12 12 30
12 12 30
12 12 30
12 12 30
12 12 30
12 12 30
12 12 30
12 12 30
12 12 30
12 12 30
12 12 30
12 12 30
12 12 30
12 12 30
12 12 30
12 12 30
12 12 30
12 12 30
12 12 30
12 12 30
12 12 30
12 12 30
12 12 30
12 12 30
12 12 30
12 12 30
12 12 30
12 12 30
12 12 30
12 12 30
12 12 30
12 12 30
12 12 30
12 12 30
12 12 30
12 12 30
12 12 30
12 12 30
12 12 30
12 12 30
12 12 30
12 12 30
12 12 30
12 12 30
12 12 30
12 12 30
12 12 30
12 12 30
12 12 30
12 12 30
12 12 30
12 12 30
12 12 30
12 12 30
12 12 30
12 12 30
12 12 30
12 12 30
12 12 30
12 12 30
12 12 30
12 12 30
12 12 30
12 12 30
12 12 30
12 12 30
12 12 30
12 12 30
12 12 30
12 12 30
12 12 30
12 12 30
12 12 30
12 12 30
12 12 30
12 12 30
12 12 30
12 12 30
12 12 30
12 12 30
12 12 30
12 12 30
12 12 30
12 12 30
12 12 30
12 12 30
12 12 30
12 12 30
12 12 30
12 12 30
12 12 30
12 12 30
12 12 30
12 12 30
12 12 30
12 12 30
12 12 30
12 12 30
12 12 30
12 12 30
12 12 30
12 12 30
12 12 30
12 12 30
12 12 30
12 12 30
12 12 30
12 12 30
12 12 30
12 12 30
12 12 30
12 12 30
12 12 30
12 12 30
12 12 30
12 12 30
12 12 30
12 12 30
12 12 30
12 12 30
12 12 30
12 12 30
12 12 30
12 12 30
12 12 30
12 12 30
12 12 30
12 12 30
12 12 30
12 12 30
12 12 30
12 12 30
12 12 30
12 12 30
12 12 30
12 12 30
12 12 30
12 12 30
12 12 30
12 12 30
12 12 30
12 12 30
12 12 30
12 12 30
12 12 30
12 12 30
12 12 30
12 12 30
12 12 30
12 12 30
12 12 30
12 12 30
12 12 30
12 12 30
12 12 30
12 12 30
12 12 30
12 12 30
12 12 30
12 12 30
12 12 30
12 12 30
12 12 30
12 12 30
12 12 30
12 12 30
12 12 30
12 12 30
12 12 30
12 12 30
12 12 30
12 12 30
12 12 30
12 12 30
12 12 30
12 12 30
12 12 30
12 12 30
12 12 30
12 12 30
12 12 30
12 12 30
12 12 30
12 12 30
12 12 30
12 12 30
12 12 30
12 12 30
12 12 30
12 12 30
12 12 30
12 12 30
12 12 30
12 12 30
12 12 30
12 12 30
12 12 30
12 12 30
12 12 30
12 12 30
12 12 30
12 12 30
12 12 30
12 12 30
12 12 30
12 12 30
12 12 30
12 12 30
12 12 30
12 12 30
12 12 30
12 12 30
12 12 30
12 12 30
12 12 30
12 12 30
12 12 30
12 12 30
12 12 30
12 12 30
12 12 30
12 12 30
12 12 30
12 12 30
12 12 30
12 12 30
12 12 30
12 12 30
12 12 30
12 12 30
12 12 30
12 12 30
12 12 30
12 12 30
12 12 30
12 12 30
12 12 30
12 12 30
12 12 30
12 12 30
12 12 30
12 12 30
12 12 30
12 12 30
12 12 30
12 12 30
12 12 30
12 12 30
12 12 30
12 12 30
12 12 30
12 12 30
12 12 30
12 12 30
12 12 30
12 12 30
12 12 30
12 12 30
12 12 30
12 12 30
12 12 30
12 12 30
12 12 30
12 12 30
12 12 30
12 12 30
12 12 30
12 12 30
12 12 30
12 12 30
12 12 30
12 12 30
12 12 30
12 12 30
12 12 30
12 12 30
12 12 30
12 12 30
12 12 30
12 12 30
12 12 30
12 12 30
12 12 30
12 12 30
12 12 30
12 12 30
12 12 30
12 12 30
12 12 30
12 12 30
12 12 30
12 12 30
12 12 30
12 12 30
12 12 30
12 12 30
12 12 30
12 12 30
12 12 30
12 12 30
12 12 30
12 12 30
12 12 30
12 12 30
12 12 30
12 12 30
12 12 30
12 12 30
12 12 30
12 12 30
12 12 30
12 12 30
12 12 30
12 12 30
12 12 30
12 12 30
12 12 30
12 12 30
12 12 30
12 12 30
12 12 30
12 12 30
12 12 30
12 12 30
12 12 30
12 12 30
12 12 30
12 12 30
12 12 30
12 12 30
12 12 30
12 12 30
12 12 30
12 12 30
12 12 30
12 12 30
12 12 30
12 12 30
12 12 30
12 12 30
12 12 30
12 12 30
12 12 30
12 12 30
12 12 30
12 12 30
12 12 30
12 12 30
12 12 30
12 12 30
12 12 30
12 12 30
12 12 30
12 12 30
12 12 30
12 12 30
12 12 30
12 12 30
12 12 30
12 12 30
12 12 30
12 12 30
12 12 30
12 12 30
12 12 30
12 12 30
12 12 30
12 12 30
12 12 30
12 12 30
12 12 30
12 12 30
12 12 30
12 12 30
12 12 30
12 12 30
12 12 30
12 12 30
12 12 30
12 12 30
12 12 30
12 12 30
12 12 30
12 12 30
12 12 30
12 12 30
12 12 30
12 12 30
12 12 30
12 12 30
12 12 30
12 12 30
12 12 30
12 12 30
12 12 30
12 12 30
12 12 30
12 12 30
12 12 30
12 12 30
12 12 30
12 12 30
12 12 30
12 12 30
12 12 30
12 12 30
12 12 30
12 12 30
12 12 30
12 12 30
12 12 30
12 12 30
12 12 30
12 12 30
12 12 30
12 12 30
12 12 30
12 12 30
12 12 30
12 12 30
12 12 30
12 12 30
12 12 30
12 12 30
12 12 30
12 12 30
12 12 30
12 12 30
12 12 30
12 12 30
12 12 30
12 12 30
12 12 30
12 12 30
12 12 30
12 12 30
12 12 30
12 12 30
12 12 30
12 12 30
12 12 30
12 12 30
12 12 30
12 12 30
12 12 30
12 12 30
12 12 30
12 12 30
12 12 30
12 12 30
12 12 30
12 12 30
12 12 30
12 12 30
12 12 30
12 12 30
12 12 30
12 12 30
12 12 30
12 12 30
12 12 30
12 12 30
12 12 30
12 12 30
12 12 30
12 12 30
12 12 30
12 12 30
12 12 30
12 12 30
12 12 30
12 12 30
12 12 30
12 12 30
12 12 30
12 12 30
12 12 30
12 12 30
12 12 30
12 12 30
12 12 30
12 12 30
12 12 30
12 12 30
12 12 30
12 12 30
12 12 30
12 12 30
12 12 30
12 12 30
12 12 30
12 12 30
12 12 30
12 12 30
12 12 30
12 12 30
12 12 30
12 12 30
12 12 30
12 12 30
12 12 30
12 12 30
12 12 30
12 12 30
12 12 30
12 12 30
12 12 30
12 12 30
12 12 30
12 12 30
12 12 30
12 12 30
12 12 30
12 12 30
12 12 30
12 12 30
12 12 30
12 12 30
12 12 30
12 12 30
12 12 30
12 12 30
12 12 30
12 12 30
12 12 30
12 12 30
12 12 30
12 12 30
12 12 30
12 12 30
12 12 30
12 12 30
12 12 30
12 12 30
12 12 30
12 12 30
12 12 30
12 12 30
12 12 30
12 12 30
12 12 30
12 12 30
12 12 30
12 12 30
12 12 30
12 12 30
12 12 30
12 12 30
12 12 30
12 12 30
12 12 30
12 12 30
12 12 30
12 12 30
12 12 30
12 12 30
12 12 30
12 12 30
12 12 30
12 12 30
12 12 30
12 12 30
12 12 30
12 12 30
12 12 30
12 12 30
12 12 30
12 12 30
12 12 30
12 12 30
12 12 30
12 12 30
12 12 30
12 12 30
12 12 30
12 12 30
12 12 30
12 12 30
12 12 30
12 12 30
12 12 30
12 12 30
12 12 30
12 12 30
12 12 30
12 12 30
12 12 30
12 12 30
12 12 30
12 12 30
12 12 30
12 12 30
12 12 30
12 12 30
12 12 30
12 12 30
12 12 30
12 12 30
12 12 30
12 12 30
12 12 30
12 12 30
12 12 30
12 12 30
12 12 30
12 12 30
12 12 30
12 12 30
12 12 30
12 12 30
12 12 30
12 12 30
12 12 30
12 12 30
12 12 30
12 12 30
12 12 30
12 12 30
12 12 30
12 12 30
12 12 30
12 12 30
12 12 30
12 12 30
12 12 30
12 12 30
12 12 30
12 12 30
12 12 30
12 12 30
12 12 30
12 12 30
12 12 30
12 12 30
12 12 30
12 12 30
12 12 30
12 12 30
12 12 30
12 12 30
12 12 30
12 12 30
12 12 30
12 12 30
12 12 30
12 12 30
12 12 30
12 12 30
12 12 30
12 12 30
12 12 30
12 12 30
12 12 30
12 12 30
12 12 30
12 12 30
12 12 30
12 12 30
12 12 30
12 12 30
12 12 30
12 12 30
12 12 30
12 12 30
12 12 30
12 12 30
12 12 30
12 12 30
12 12 30
12 12 30
12 12 30
12 12 30
12 12 30
12 12 30
12 12 30
12 12 30
12 12 30
12 12 30
12 12 30
12 12 30
12 12 30
12 12 30
12 12 30
12 12 30
12 12 30
12 12 30
12 12 30
12 12 30
12 12 30
12 12 30
12 12 30
12 12 30
12 12 30
12 12 30
12 12 30
12 12 30
12 12 30
12 12 30
12 12 30
12 12 30
12 12 30
12 12 30
12 12 30
12 12 30
12 12 30
12 12 30
12 12 30
12 12 30
12 12 30
12 12 30
12 12 30
12 12 30
12 12 30
12 12 30
12 12 30
12 12 30
12 12 30
12 12 30
12 12 30
12 12 30
12 12 30
12 12 30
12 12 30
12 12 30
12 12 30
12 12 30
12 12 30
12 12 30
12 12 30
12 12 30
12 12 30
12 12 30
12 12 30
12 12 30
12 12 30
12 12 30
12 12 30
12 12 30
12 12 30
12 12 30
12 12 30
12 12 30
12 12 30
12 12 30
12 12 30
12 12 30
12 12 30
12 12 30
12 12 30
12 12 30
12 12 30
12 12 30
12 12 30
12 12 30
12 12 30
12 12 30
12 12 30
12 12 30
12 12 30
12 12 30
12 12 30
12 12 30
12 12 30
12 12 30
12 12 30
12 12 30
12 12 30
12 12 30
12 12 30
12 12 30
12 12 30
12 12 30
12 12 30
12 12 30
12 12 30
12 12 30
12 12 30
12 12 30
12 12 30
12 12 30
12 12 30
12 12 30
12 12 30
12 12 30
12 12 30
12 12 30
12 12 30
12 12 30
12 12 30
12 12 30
12 12 30
12 12 30
12 12 30
12 12 30
12 12 30
12 12 30
12 12 30
12 12 30
12 12 30
12 12 30
12 12 30
12 12 30
12 12 30
12 12 30
12 12 30
12 12 30
12 12 30
12 12 30
12 12 30
12 12 30
12 12 30
12 12 30
12 12 30
12 12 30
12 12 30
12 12 30
12 12 30
12 12 30
12 12 30
12 12 30
12 12 30
12 12 30
12 12 30
12 12 30
12 12 30
12 12 30
12 12 30
12 12 30
12 12 30
12 12 30
12 12 30
12 12 30
12 12 30
12 12 30
12 12 30
12 12 30
12 12 30
12 12 30
12 12 30
12 12 30
12 12 30
12 12 30
12 12 30
12 12 30
12 12 30
12 12 30
12 12 30
12 12 30
12 12 30
12 12 30
12 12 30
12 12 30
12 12 30
12 12 30
12 12 30
12 12 30
12 12 30
12 12 30
12 12 30
12 12 30
12 12 30
12 12 30
12 12 30
12 12 30
12 12 30
12 12 30
12 12 30
12 12 30
12 12 30
12 12 30
12 12 30
12 12 30
12 12 30
12 12 30
12 12 30
12 12 30
12 12 30
12 12 30
12 12 30
12 12 30
12 12 30
12 12 30
12 12 30
12 12 30
12 12 30
12 12 30
12 12 30
12 12 30
12 12 30
12 12 30
12 12 30
12 12 30
12 12 30
12 12 30
12 12 30
12 12 30
12 12 30
12 12 30
12 12 30
12 12 30
12 12 30
12 12 30
12 12 30
12 12 30
12 12 30
12 12 30
12 12 30
12 12 30
12 12 30
12 12 30
12 12 30
12 12 30
12 12 30
12 12 30
12 12 30
12 12 30
12 12 30
12 12 30
12 12 30
12 12 30
12 12 30
12 12 30
12 12 30
12 12 30
12 12 30
12 12 30
12 12 30
12 12 30
12 12 30
12 12 30
12 12 30
12 12 30
12 12 30
12 12 30
12 12 30
12 12 30
12 12 30
12 12 30
12 12 30
12 12 30
12 12 30
12 12 30
12 12 30
12 12 30
12 12 30
12 12 30
12 12 30
12 12 30
12 12 30
12 12 30
12 12 30
12 12 30
12 12 30
12 12 30
12 12 30
12 12 30
12 12 30
12 12 30
12 12 30
12 12 30
12 12 30
12 12 30
12 12 30
12 12 30
12 12 30
12 12 30
12 12 30
12 12 30
12 12 30
12 12 30
12 12 30
12 12 30
12 12 30
12 12 30
12 12 30
12 12 30
12 12 30
12 12 30
12 12 30
12 12 30
12 12 30
12 12 30
12 12 30
12 12 30
12 12 30
12 12 30
12 12 30
12 12 30
12 12 30
12 12 30
12 12 30
12 12 30
12 12 30
12 12 30
12 12 30
12 12 30
12 12 30
12 12 30
12 12 30
12 12 30
12 12 30
12 12 30
12 12 30
12 12 30
12 12 30
12 12 30
12 12 30
12 12 30
12 12 30
12 12 30
12 12 30
12 12 30
12 12 30
12 12 30
12 12 30
12 12 30
12 12 30
12 12 30
12 12 30
12 12 30
12 12 30
12 12 30
12 12 30
12 12 30
12 12 30
12 12 30
12 12 30
12 12 30
12 12 30
12 12 30
12 12 30
12 12 30
12 12 30
12 12 30
12 12 30
12 12 30
12 12 30
12 12 30
12 12 30
12 12 30
12 12 30
12 12 30
12 12 30
12 12 30
12 12 30
12 12 30
12 12 30
12 12 30
12 12 30
12 12 30
12 12 30
12 12 30
12 12 30
12 12 30
12 12 30
12 12 30
12 12 30
12 12 30
12 12 30
12 12 30
12 12 30
12 12 30
12 12 30
12 12 30
12 12 30
12 12 30
12 12 30
12 12 30
12 12 30
12 12 30
12 12 30
12 12 30
12 12 30
12 12 30
12 12 30
12 12 30
12 12 30
12 12 30
12 12 30
12 12 30
12 12 30
12 12 30
12 12 30
12 12 30
12 12 30
12 12 30
12 12 30
12 12 30
12 12 30
12 12 30
12 12 30
12 12 30
12 12 30
12 12 30
12 12 30
12 12 30
12 12 30
12 12 30
12 12 30
12 12 30
12 12 30
12 12 30
12 12 30
12 12 30
12 12 30
12 12 30
12 12 30
12 12 30
12 12 30
12 12 30
12 12 30
12 12 30
12 12 30
12 12 30
12 12 30
12 12 30
12 12 30
12 12 30
12 12 30
12 12 30
12 12 30
12 12 30
12 12 30
12 12 30
12 12 30
12 12 30
12 12 30
12 12 30
12 12 30
12 12 30
12 12 30
12 12 30
12 12 30
12 12 30
12 12 30
12 12 30
12 12 30
12 12 30
12 12 30
12 12 30
12 12 30
12 12 30
12 12 30
12 12 30
12 12 30
12 12 30
12 12 30
12 12 30
12 12 30
12 12 30
12 12 30
12 12 30
12 12 30
12 12 30
12 12 30
12 12 30
12 12 30
12 12 30
12 12 30
12 12 30
12 12 30
12 12 30
12 12 30
12 12 30
12 12 30
12 12 30
12 12 30
12 12 30
12 12 30
12 12 30
12 12 30
12 12 30
12 12 30
12 12 30
12 12 30
12 12 30
12 12 30
12 12 30
12 12 30
12 12 30
12 12 30
12 12 30
12 12 30
12 12 30
12 12 30
12 12 30
12 12 30
12 12 30
12 12 30
12 12 30
12 12 30
12 12 30
12 12 30
12 12 30
12 12 30
12 12 30
12 12 30
12 12 30
12 12 30
12 12 30
12 12 30
12 12 30
12 12 30
12 12 30
12 12 30
12 12 30
12 12 30
12 12 30
12 12 30
12 12 30
12 12 30
12 12 30
12 12 30
12 12 30
12 12 30
12 12 30
12 12 30
12 12 30
12 12 30
12 12 30
12 12 30
12 12 30
12 12 30
12 12 30
12 12 30
12 12 30
12 12 30
12 12 30
12 12 30
12 12 30
12 12 30
12 12 30
12 12 30
12 12 30
12 12 30
12 12 30
12 12 30
12 12 30
12 12 30
12 12 30
12 12 30
12 12 30
12 12 30
12 12 30
12 12 30
12 12 30
12 12 30
12 12 30
12 12 30
12 12 30
12 12 30
12 12 30
12 12 30
12 12 30
12 12 30
12 12 30
12 12 30
12 12 30
12 12 30
12 12 30
12 12 30
12 12 30
12 12 30
12 12 30
12 12 30
12 12 30
12 12 30
12 12 30
12 12 30
12 12 30
12 12 30
12 12 30
12 12 30
12 12 30
12 12 30
12 12 30
12 12 30
12 12 30
12 12 30
12 12 30
12 12 30
12 12 30
12 12 30
12 12 30
12 12 30
12 12 30
12 12 30
12 12 30
12 12 30
12 12 30
12 12 30
12 12 30
12 12 30
12 12 30
12 12 30
12 12 30
12 12 30
12 12 30
12 12 30
12 12 30
12 12 30
12 12 30
12 12 30
12 12 30
12 12 30
12 12 30
12 12 30
12 12 30
12 12 30
12 12 30
12 12 30
12 12 30
12 12 30
12 12 30
12 12 30
12 12 30
12 12 30
12 12 30
12 12 30
12 12 30
12 12 30
12 12 30
12 12 30
12 12 30
12 12 30
12 12 30
12 12 30
12 12 30
12 12 30
12 12 30
12 12 30
12 12 30
12 12 30
12 12 30
12 12 30
12 12 30
12 12 30
12 12 30
12 12 30
12 12 30
12 12 30
12 12 30
12 12 30
12 12 30
12 12 30
12 12 30
12 12 30
12 12 30
12 12 30
12 12 30
12 12 30
12 12 30
12 12 30
12 12 30
12 12 30
12 12 30
12 12 30
12 12 30
12 12 30
12 12 30
12 12 30
12 12 30
12 12 30
12 12 30
12 12 30
12 12 30
12 12 30
12 12 30
12 12 30
12 12 30
12 12 30
12 12 30
12 12 30
12 12 30
12 12 30
12 12 30
12 12 30
12 12 30
12 12 30
12 12 30
12 12 30
12 12 30
12 12 30
12 12 30
12 12 30
12 12 30
12 12 30
12 12 30
12 12 30
12 12 30
12 12 30
12 12 30
12 12 30
12 12 30
12 12 30
12 12 30
12 12 30
12 12 30
12 12 30
12 12 30
12 12 30
12 12 30
12 12 30
12 12 30
12 12 30
12 12 30
12 12 30
12 12 30
12 12 30
12 12 30
12 12 30
12 12 30
12 12 30
12 12 30
12 12 30
12 12 30
12 12 30
12 12 30
12 12 30
12 12 30
12 12 30
12 12 30
12 12 30
12 12 30
12 12 30
12 12 30
12 12 30
12 12 30
12 12 30
12 12 30
12 12 30
12 12 30
12 12 30
12 12 30
12 12 30
12 12 30
12 12 30
12 12 30
12 12 30
12 12 30
12 12 30
12 12 30
12 12 30
12 12 30
12 12 30
12 12 30
12 12 30
12 12 30
12 12 30
12 12 30
12 12 30
12 12 30
12 12 30
12 12 30
12 12 30
12 12 30
12 12 30
12 12 30
12 12 30
12 12 30
12 12 30
12 12 30
12 12 30
12 12 30
12 12 30
12 12 30
12 12 30
12 12 30
12 12 30
12 12 30
12 12 30
12 12 30
12 12 30
12 12 30
12 12 30
12 12 30
12 12 30
12 12 30
12 12 30
12 12 30
12 12 30
12 12 30
12 12 30
12 12 30
12 12 30
12 12 30
12 12 30
12 12 30
12 12 30
12 12 30
12 12 30
12 12 30
12 12 30
12 12 30
12 12 30
12 12 30
12 12 30
12 12 30
12 12 30
12 12 30
12 12 30
12 12 30
12 12 30
12 12 30
12 12 30
12 12 30
12 12 30
12 12 30
12 12 30
12 12 30
12 12 30
12 12 30
12 12 30
12 12 30
12 12 30
12 12 30
12 12 30
12 12 30
12 12 30
12 12 30
12 12 30
12 12 30
12 12 30
12 12 30
12 12 30
12 12 30
12 12 30
12 12 30
12 12 30
12 12 30
12 12 30
12 12 30
12 12 30
12 12 30
12 12 30
12 12 30
12 12 30
12 12 30
12 12 30
12 12 30
12 12 30
12 12 30
12 12 30
12 12 30
12 12 30
12 12 30
12 12 30
12 12 30
12 12 30
12 12 30
12 12 30
12 12 30
12 12 30
12 12 30
12 12 30
12 12 30
12 12 30
12 12 30
12 12 30
12 12 30
12 12 30
12 12 30
12 12 30
12 12 30
12 12 30
12 12 30
12 12 30
12 12 30
12 12 30
12 12 30
12 12 30
12 12 30
12 12 30
12 12 30
12 12 30
12 12 30
12 12 30
12 12 30
12 12 30
12 12 30
12 12 30
12 12 30
12 12 30
12 12 30
12 12 30
12 12 30
12 12 30
12 12 30
12 12 30
12 12 30
12 12 30
12 12 30
12 12 30
12 12 30
12 12 30
12 12 30
12 12 30
12 12 30
12 12 30
12 12 30
12 12 30
12 12 30
12 12 30
12 12 30
12 12 30
12 12 30
12 12 30
12 12 30
12 12 30
12 12 30
12 12 30
12 12 30
12 12 30
12 12 30
12 12 30
12 12 30
12 12 30
12 12 30
12 12 30
12 12 30
12 12 30
12 12 30
12 12 30
12 12 30
12 12 30
12 12 30
12 12 30
12 12 30
12 12 30
12 12 30
12 12 30
12 12 30
12 12 30
12 12 30
12 12 30
12 12 30
12 12 30
12 12 30
12 12 30
12 12 30
12 12 30
12 12 30
12 12 30
12 12 30
12 12 30
12 12 30
12 12 30
12 12 30
12 12 30
12 12 30
12 12 30
12 12 30
12 12 30
12 12 30
12 12 30
12 12 30
12 12 30
12 12 30
12 12 30
12 12 30
12 12 30
12 12 30
12 12 30
12 12 30
12 12 30
12 12 30
12 12 30
12 12 30
12 12 30
12 12 30
12 12 30
12 12 30
12 12 30
12 12 30
12 12 30
12 12 30
12 12 30
12 12 30
12 12 30
12 12 30
12 12 30
12 12 30
12 12 30
12 12 30
12 12 30
12 12 30
12 12 30
12 12 30
12 12 30
12 12 30
12 12 30
12 12 30
12 12 30
12 12 30
12 12 30
12 12 30
12 12 30
12 12 30
12 12 30
12 12 30
12 12 30
12 12 30
12 12 30
12 12 30
12 12 30
12 12 30
12 12 30
12 12 30
12 12 30
12 12 30
12 12 30
12 12 30
12 12 30
12 12 30
12 12 30
12 12 30
12 12 30
12 12 30
12 12 30
12 12 30
12 12 30
12 12 30
12 12 30
12 12 30
12 12 30
12 12 30
12 12 30
12 12 30
12 12 30
12 12 30
12 12 30
12 12 30
12 12 30
12 12 30
12 12 30
12 12 30
12 12 30
12 12 30
12 12 30
12 12 30
12 12 30
12 12 30
12 12 30
12 12 30
12 12 30
12 12 30
12 12 30
12 12 30
12 12 30
12 12 30
12 12 30
12 12 30
12 12 30
12 12 30
12 12 30
12 12 30
12 12 30
12 12 30
12 12 30
12 12 30
12 12 30
12 12 30
12 12 30
12 12 30
12 12 30
12 12 30
12 12 30
12 12 30
12 12 30
12 12 30
12 12 30
12 12 30
12 12 30
12 12 30
12 12 30
12 12 30
12 12 30
12 12 30
12 12 30
12 12 30
12 12 30
12 12 30
12 12 30
12 12 30
12 12 30
12 12 30
12 12 30
12 12 30
12 12 30
12 12 30
12 12 30
12 12 30
12 12 30
12 12 30
12 12 30
12 12 30
12 12 30
12 12 30
12 12 30
12 12 30
12 12 30
12 12 30
12 12 30
12 12 30
12 12 30
12 12 30
12 12 30
12 12 30
12 12 30
12 12 30
12 12 30
12 12 30
12 12 30
12 12 30
12 12 30
12 12 30
12 12 30
12 12 30
12 12 30
12 12 30
12 12 30
12 12 30
12 12 30
12 12 30
12 12 30
12 12 30
12 12 30
12 12 30
12 12 30
12 12 30
12 12 30
12 12 30
12 12 30
12 12 30
12 12 30
12 12 30
12 12 30
12 12 30
12 12 30
12 12 30
12 12 30
12 12 30
12 12 30
12 12 30
12 12 30
12 12 30
12 12 30
12 12 30
12 12 30
12 12 30
12 12 30
12 12 30
12 12 30
12 12 30
12 12 30
12 12 30
12 12 30
12 12 30
12 12 30
12 12 30
12 12 30
12 12 30
12 12 30
12 12 30
12 12 30
12 12 30
12 12 30
12 12 30
12 12 30
12 12 30
12 12 30
12 12 30
12 12 30
12 12 30
12 12 30
12 12 30
12 12 30
12 12 30
12 12 30
12 12 30
12 12 30
12 12 30
12 12 30
12 12 30
12 12 30
12 12 30
12 12 30
12 12 30
12 12 30
12 12 30
12 12 30
12 12 30
12 12 30
12 12 30
12 12 30
12 12 30
12 12 30
12 12 30
12 12 30
12 12 30
12 12 30
12 12 30
12 12 30
12 12 30
12 12 30
12 12 30
12 12 30
12 12 30
12 12 30
12 12 30
12 12 30
12 12 30
12 12 30
12 12 30
12 12 30
12 12 30
12 12 30
12 12 30
12 12 30
12 12 30
12 12 30
12 12 30
12 12 30
12 12 30
12 12 30
12 12 30
12 12 30
12 12 30
12 12 30
12 12 30
12 12 30
12 12 30
12 12 30
12 12 30
12 12 30
12 12 30
12 12 30
12 12 30
12 12 30
12 12 30
12 12 30
12 12 30
12 12 30
12 12 30
12 12 30
12 12 30
12 12 30
12 12 30
12 12 30
12 12 30
12 12 30
12 12 30
12 12 30
12 12 30
12 12 30
12 12 30
12 12 30
12 12 30
12 12 30
12 12 30
12 12 30
12 12 30
12 12 30
12 12 30
12 12 30
12 12 30
12 12 30
12 12 30
12 12 30
12 12 30
12 12 30
12 12 30
12 12 30
12 12 30
12 12 30
12 12 30
12 12 30
12 12 30
12 12 30
12 12 30
12 12 30
12 12 30
12 12 30
12 12 30
12 12 30
12 12 30
12 12 30
12 12 30
12 12 30
12 12 30
12 12 30
12 12 30
12 12 30
12 12 30
12 12 30
12 12 30
12 12 30
12 12 30
12 12 30
12 12 30
12 12 30
12 12 30
12 12 30
12 12 30
12 12 30
12 12 30
12 12 30
12 12 30
12 12 30
12 12 30
12 12 30
12 12 30
12 12 30
12 12 30
12 12 30
12 12 30
12 12 30
12 12 30
12 12 30
12 12 30
12 12 30
12 12 30
12 12 30
12 12 30
12 12 30
12 12 30
12 12 30
12 12 30
12 12 30
12 12 30
12 12 30
12 12 30
12 12 30
12 12 30
12 12 30
12 12 30
12 12 30
12 12 30
12 12 30
12 12 30
12 12 30
12 12 30
12 12 30
12 12 30
12 12 30
12 12 30
12 12 30
12 12 30
12 12 30
12 12 30
12 12 30
12 12 30
12 12 30
12 12 30
12 12 30
12 12 30
12 12 30
12 12 30
12 12 30
12 12 30
12 12 30
12 12 30
12 12 30
12 12 30
12 12 30
12 12 30
12 12 30
12 12 30
12 12 30
12 12 30
12 12 30
12 12 30
12 12 30
12 12 30
12 12 30
12 12 30
12 12 30
12 12 30
12 12 30
12 12 30
12 12 30
12 12 30
12 12 30
12 12 30
12 12 30
12 12 30
12 12 30
12 12 30
12 12 30
12 12 30
12 12 30
12 12 30
12 12 30
12 12 30
12 12 30
12 12 30
12 12 30
12 12 30
12 12 30
12 12 30
12 12 30
12 12 30
12 12 30
12 12 30
12 12 30
12 12 30
12 12 30
12 12 30
12 12 30
12 12 30
12 12 30
12 12 30
12 12 30
12 12 30
12 12 30
12 12 30
12 12 30
12 12 30
12 12 30
12 12 30
12 12 30
12 12 30
12 12 30
12 12 30
12 12 30
12 12 30
12 12 30
12 12 30
12 12 30
12 12 30
12 12 30
12 12 30
12 12 30
12 12 30
12 12 30
12 12 30
12 12 30
12 12 30
12 12 30
12 12 30
12 12 30
12 12 30
12 12 30
12 12 30
12 12 30
12 12 30
12 12 30
12 12 30
12 12 30
12 12 30
12 12 30
12 12 30
12 12 30
12 12 30
12 12 30
12 12 30
12 12 30
12 12 30
12 12 30
12 12 30
12 12 30
12 12 30
12 12 30
12 12 30
12 12 30
12 12 30
12 12 30
12 12 30
12 12 30
12 12 30
12 12 30
12 12 30
12 12 30
12 12 30
12 12 30
12 12 30
12 12 30
12 12 30
12 12 30
12 12 30
12 12 30
12 12 30
12 12 30
12 12 30
12 12 30
12 12 30
12 12 30
12 12 30
12 12 30
12 12 30
12 12 30
12 12 30
12 12 30
12 12 30
12 12 30
12 12 30
12 12 30
12 12 30
12 12 30
12 12 30
12 12 30
12 12 30
12 12 30
12 12 30
12 12 30
12 12 30
12 12 30
12 12 30
12 12 30
12 12 30
12 12 30
12 12 30
12 12 30
12 12 30
12 12 30
12 12 30
12 12 30
12 12 30
12 12 30
12 12 30
12 12 30
12 12 30
12 12 30
12 12 30
12 12 30
12 12 30
12 12 30
12 12 30
12 12 30
12 12 30
12 12 30
12 12 30
12 12 30
12 12 30
12 12 30
12 12 30
12 12 30
12 12 30
12 12 30
12 12 30
12 12 30
12 12 30
12 12 30
12 12 30
12 12 30
12 12 30
12 12 30
12 12 30
12 12 30
12 12 30
12 12 30
12 12 30
12 12 30
12 12 30
12 12 30
12 12 30
12 12 30
12 12 30
12 12 30
12 12 30
12 12 30
12 12 30
12 12 30
12 12 30
12 12 30
12 12 30
12 12 30
12 12 30
12 12 30
12 12 30
12 12 30
12 12 30
12 12 30
12 12 30
12 12 30
12 12 30
12 12 30
12 12 30
12 12 30
12 12 30
12 12 30
12 12 30
12 12 30
12 12 30
12 12 30
12 12 30
12 12 30
12 12 30
12 12 30
12 12 30
12 12 30
12 12 30
12 12 30
12 12 30
12 12 30
12 12 30
12 12 30
12 12 30
12 12 30
12 12 30
12 12 30
12 12 30
12 12 30
12 12 30
12 12 30
12 12 30
12 12 30
12 12 30
12 12 30
12 12 30
12 12 30
12 12 30
12 12 30
12 12 30
12 12 30
12 12 30
12 12 30
12 12 30
51 127 230
51 127 230
51 127 230
51 127 230
51 127 230
51 127 230
51 127 230
51 127 230
51 127 230
51 127 230
51 127 230
51 127 230
51 127 230
12 12 30
12 12 30
12 12 30
12 12 30
12 12 30
12 12 30
12 12 30
12 12 30
12 12 30
12 12 30
12 12 30
12 12 30
12 12 30
12 12 30
12 12 30
12 12 30
12 12 30
12 12 30
12 12 30
12 12 30
12 12 30
12 12 30
12 12 30
12 12 30
12 12 30
12 12 30
12 12 30
12 12 30
12 12 30
12 12 30
12 12 30
12 12 30
12 12 30
12 12 30
12 12 30
12 12 30
12 12 30
12 12 30
12 12 30
12 12 30
12 12 30
12 12 30
12 12 30
12 12 30
12 12 30
12 12 30
12 12 30
12 12 30
12 12 30
12 12 30
12 12 30
12 12 30
12 12 30
12 12 30
12 12 30
12 12 30
12 12 30
12 12 30
12 12 30
12 12 30
12 12 30
12 12 30
12 12 30
12 12 30
12 12 30
12 12 30
12 12 30
12 12 30
12 12 30
12 12 30
12 12 30
12 12 30
12 12 30
12 12 30
12 12 30
12 12 30
12 12 30
12 12 30
12 12 30
12 12 30
12 12 30
12 12 30
12 12 30
12 12 30
12 12 30
12 12 30
12 12 30
12 12 30
12 12 30
12 12 30
12 12 30
12 12 30
12 12 30
12 12 30
12 12 30
12 12 30
12 12 30
12 12 30
12 12 30
12 12 30
12 12 30
12 12 30
12 12 30
12 12 30
12 12 30
12 12 30
12 12 30
12 12 30
12 12 30
12 12 30
12 12 30
12 12 30
12 12 30
12 12 30
12 12 30
12 12 30
12 12 30
12 12 30
12 12 30
12 12 30
12 12 30
12 12 30
12 12 30
12 12 30
12 12 30
12 12 30
12 12 30
12 12 30
12 12 30
12 12 30
12 12 30
12 12 30
12 12 30
12 12 30
12 12 30
12 12 30
12 12 30
12 12 30
12 12 30
12 12 30
12 12 30
12 12 30
12 12 30
12 12 30
12 12 30
12 12 30
12 12 30
12 12 30
12 12 30
12 12 30
12 12 30
12 12 30
12 12 30
12 12 30
12 12 30
12 12 30
12 12 30
12 12 30
12 12 30
12 12 30
12 12 30
12 12 30
12 12 30
12 12 30
12 12 30
12 12 30
12 12 30
12 12 30
12 12 30
12 12 30
12 12 30
12 12 30
12 12 30
12 12 30
12 12 30
12 12 30
12 12 30
12 12 30
12 12 30
12 12 30
12 12 30
12 12 30
12 12 30
12 12 30
12 12 30
12 12 30
12 12 30
12 12 30
12 12 30
12 12 30
12 12 30
12 12 30
12 12 30
12 12 30
12 12 30
12 12 30
12 12 30
12 12 30
12 12 30
12 12 30
12 12 30
12 12 30
12 12 30
12 12 30
12 12 30
12 12 30
12 12 30
12 12 30
12 12 30
12 12 30
12 12 30
12 12 30
12 12 30
12 12 30
12 12 30
12 12 30
12 12 30
12 12 30
12 12 30
12 12 30
12 12 30
12 12 30
12 12 30
12 12 30
12 12 30
12 12 30
12 12 30
12 12 30
12 12 30
12 12 30
12 12 30
12 12 30
12 12 30
12 12 30
12 12 30
12 12 30
12 12 30
12 12 30
12 12 30
12 12 30
12 12 30
12 12 30
12 12 30
12 12 30
12 12 30
12 12 30
12 12 30
12 12 30
12 12 30
12 12 30
12 12 30
12 12 30
12 12 30
12 12 30
12 12 30
12 12 30
12 12 30
12 12 30
12 12 30
12 12 30
12 12 30
12 12 30
12 12 30
12 12 30
12 12 30
12 12 30
12 12 30
12 12 30
12 12 30
12 12 30
12 12 30
12 12 30
12 12 30
12 12 30
12 12 30
12 12 30
12 12 30
12 12 30
12 12 30
12 12 30
12 12 30
12 12 30
12 12 30
12 12 30
12 12 30
12 12 30
12 12 30
12 12 30
12 12 30
12 12 30
12 12 30
12 12 30
12 12 30
12 12 30
12 12 30
12 12 30
12 12 30
12 12 30
12 12 30
12 12 30
12 12 30
12 12 30
12 12 30
12 12 30
12 12 30
12 12 30
12 12 30
12 12 30
12 12 30
12 12 30
12 12 30
12 12 30
12 12 30
12 12 30
12 12 30
12 12 30
12 12 30
12 12 30
12 12 30
12 12 30
12 12 30
12 12 30
12 12 30
12 12 30
12 12 30
12 12 30
12 12 30
12 12 30
12 12 30
12 12 30
12 12 30
12 12 30
12 12 30
12 12 30
12 12 30
12 12 30
12 12 30
12 12 30
12 12 30
12 12 30
12 12 30
12 12 30
12 12 30
12 12 30
12 12 30
12 12 30
12 12 30
12 12 30
12 12 30
12 12 30
12 12 30
12 12 30
12 12 30
12 12 30
12 12 30
12 12 30
12 12 30
12 12 30
12 12 30
12 12 30
12 12 30
12 12 30
12 12 30
12 12 30
12 12 30
12 12 30
12 12 30
12 12 30
12 12 30
12 12 30
12 12 30
12 12 30
12 12 30
12 12 30
12 12 30
12 12 30
12 12 30
12 12 30
12 12 30
12 12 30
12 12 30
12 12 30
12 12 30
12 12 30
51 127 230
51 127 230
51 127 230
51 127 230
51 127 230
51 127 230
51 127 230
51 127 230
51 127 230
51 127 230
51 127 230
51 127 230
51 127 230
51 127 230
51 127 230
51 127 230
51 127 230
51 127 230
12 12 30
12 12 30
12 12 30
12 12 30
12 12 30
12 12 30
12 12 30
12 12 30
12 12 30
12 12 30
12 12 30
12 12 30
12 12 30
12 12 30
12 12 30
12 12 30
12 12 30
12 12 30
12 12 30
12 12 30
12 12 30
12 12 30
12 12 30
12 12 30
12 12 30
12 12 30
12 12 30
12 12 30
12 12 30
12 12 30
12 12 30
12 12 30
12 12 30
12 12 30
12 12 30
12 12 30
12 12 30
12 12 30
12 12 30
12 12 30
12 12 30
12 12 30
12 12 30
12 12 30
12 12 30
12 12 30
12 12 30
12 12 30
12 12 30
12 12 30
12 12 30
12 12 30
12 12 30
12 12 30
12 12 30
12 12 30
12 12 30
12 12 30
12 12 30
12 12 30
12 12 30
12 12 30
12 12 30
12 12 30
12 12 30
12 12 30
12 12 30
12 12 30
12 12 30
12 12 30
12 12 30
12 12 30
12 12 30
12 12 30
12 12 30
12 12 30
12 12 30
12 12 30
12 12 30
12 12 30
12 12 30
12 12 30
12 12 30
12 12 30
12 12 30
12 12 30
12 12 30
12 12 30
12 12 30
12 12 30
12 12 30
12 12 30
12 12 30
12 12 30
12 12 30
12 12 30
12 12 30
12 12 30
12 12 30
12 12 30
12 12 30
12 12 30
12 12 30
12 12 30
12 12 30
12 12 30
12 12 30
12 12 30
12 12 30
12 12 30
12 12 30
12 12 30
12 12 30
12 12 30
12 12 30
12 12 30
12 12 30
12 12 30
12 12 30
12 12 30
12 12 30
12 12 30
12 12 30
12 12 30
12 12 30
12 12 30
12 12 30
12 12 30
12 12 30
12 12 30
12 12 30
12 12 30
12 12 30
12 12 30
12 12 30
12 12 30
12 12 30
12 12 30
12 12 30
12 12 30
12 12 30
12 12 30
12 12 30
12 12 30
12 12 30
12 12 30
12 12 30
12 12 30
12 12 30
12 12 30
12 12 30
12 12 30
12 12 30
12 12 30
12 12 30
12 12 30
12 12 30
12 12 30
12 12 30
12 12 30
12 12 30
12 12 30
12 12 30
12 12 30
12 12 30
12 12 30
12 12 30
12 12 30
12 12 30
12 12 30
12 12 30
12 12 30
12 12 30
12 12 30
12 12 30
12 12 30
12 12 30
12 12 30
12 12 30
12 12 30
12 12 30
12 12 30
12 12 30
12 12 30
12 12 30
12 12 30
12 12 30
12 12 30
12 12 30
12 12 30
12 12 30
12 12 30
12 12 30
12 12 30
12 12 30
12 12 30
12 12 30
12 12 30
12 12 30
12 12 30
12 12 30
12 12 30
12 12 30
12 12 30
12 12 30
12 12 30
12 12 30
12 12 30
12 12 30
12 12 30
12 12 30
12 12 30
12 12 30
12 12 30
12 12 30
12 12 30
12 12 30
12 12 30
12 12 30
12 12 30
12 12 30
12 12 30
12 12 30
12 12 30
12 12 30
12 12 30
12 12 30
12 12 30
12 12 30
12 12 30
12 12 30
12 12 30
12 12 30
12 12 30
12 12 30
12 12 30
12 12 30
12 12 30
12 12 30
12 12 30
12 12 30
12 12 30
12 12 30
12 12 30
12 12 30
12 12 30
12 12 30
12 12 30
12 12 30
12 12 30
12 12 30
12 12 30
12 12 30
12 12 30
12 12 30
12 12 30
12 12 30
12 12 30
12 12 30
12 12 30
12 12 30
12 12 30
12 12 30
12 12 30
12 12 30
12 12 30
12 12 30
12 12 30
12 12 30
12 12 30
12 12 30
12 12 30
12 12 30
12 12 30
12 12 30
12 12 30
12 12 30
12 12 30
12 12 30
12 12 30
12 12 30
12 12 30
12 12 30
12 12 30
12 12 30
12 12 30
12 12 30
12 12 30
12 12 30
12 12 30
12 12 30
12 12 30
12 12 30
12 12 30
12 12 30
12 12 30
12 12 30
12 12 30
12 12 30
12 12 30
12 12 30
12 12 30
12 12 30
12 12 30
12 12 30
12 12 30
12 12 30
12 12 30
12 12 30
12 12 30
12 12 30
12 12 30
12 12 30
12 12 30
12 12 30
12 12 30
12 12 30
12 12 30
12 12 30
12 12 30
12 12 30
12 12 30
12 12 30
12 12 30
12 12 30
12 12 30
12 12 30
12 12 30
12 12 30
12 12 30
12 12 30
12 12 30
12 12 30
12 12 30
12 12 30
12 12 30
12 12 30
12 12 30
12 12 30
12 12 30
12 12 30
12 12 30
12 12 30
12 12 30
12 12 30
12 12 30
12 12 30
12 12 30
12 12 30
12 12 30
12 12 30
12 12 30
12 12 30
12 12 30
12 12 30
12 12 30
12 12 30
12 12 30
12 12 30
12 12 30
12 12 30
12 12 30
12 12 30
12 12 30
12 12 30
12 12 30
12 12 30
12 12 30
12 12 30
12 12 30
12 12 30
12 12 30
12 12 30
12 12 30
12 12 30
12 12 30
12 12 30
12 12 30
12 12 30
12 12 30
51 127 230
51 127 230
51 127 230
51 127 230
51 127 230
51 127 230
51 127 230
51 127 230
51 127 230
51 127 230
51 127 230
51 127 230
51 127 230
51 127 230
51 127 230
51 127 230
51 127 230
51 127 230
51 127 230
51 127 230
51 127 230
51 127 230
12 12 30
12 12 30
12 12 30
12 12 30
12 12 30
12 12 30
12 12 30
12 12 30
12 12 30
12 12 30
12 12 30
12 12 30
12 12 30
12 12 30
12 12 30
12 12 30
12 12 30
12 12 30
12 12 30
12 12 30
12 12 30
12 12 30
12 12 30
12 12 30
12 12 30
12 12 30
12 12 30
12 12 30
12 12 30
12 12 30
12 12 30
12 12 30
12 12 30
12 12 30
12 12 30
12 12 30
12 12 30
12 12 30
12 12 30
12 12 30
12 12 30
12 12 30
12 12 30
12 12 30
12 12 30
12 12 30
12 12 30
12 12 30
12 12 30
12 12 30
12 12 30
12 12 30
12 12 30
12 12 30
12 12 30
12 12 30
12 12 30
12 12 30
12 12 30
12 12 30
12 12 30
12 12 30
12 12 30
12 12 30
12 12 30
12 12 30
12 12 30
12 12 30
12 12 30
12 12 30
12 12 30
12 12 30
12 12 30
12 12 30
12 12 30
12 12 30
12 12 30
12 12 30
12 12 30
12 12 30
12 12 30
12 12 30
12 12 30
12 12 30
12 12 30
12 12 30
12 12 30
12 12 30
12 12 30
12 12 30
12 12 30
12 12 30
12 12 30
12 12 30
12 12 30
12 12 30
12 12 30
12 12 30
12 12 30
12 12 30
12 12 30
12 12 30
12 12 30
12 12 30
12 12 30
12 12 30
12 12 30
12 12 30
12 12 30
12 12 30
12 12 30
12 12 30
12 12 30
12 12 30
12 12 30
12 12 30
12 12 30
12 12 30
12 12 30
12 12 30
12 12 30
12 12 30
12 12 30
12 12 30
12 12 30
12 12 30
12 12 30
12 12 30
12 12 30
12 12 30
12 12 30
12 12 30
12 12 30
12 12 30
12 12 30
12 12 30
12 12 30
12 12 30
12 12 30
12 12 30
12 12 30
12 12 30
12 12 30
12 12 30
12 12 30
12 12 30
12 12 30
12 12 30
12 12 30
12 12 30
12 12 30
12 12 30
12 12 30
12 12 30
12 12 30
12 12 30
12 12 30
12 12 30
12 12 30
12 12 30
12 12 30
12 12 30
12 12 30
12 12 30
12 12 30
12 12 30
12 12 30
12 12 30
12 12 30
12 12 30
12 12 30
12 12 30
12 12 30
12 12 30
12 12 30
12 12 30
12 12 30
12 12 30
12 12 30
12 12 30
12 12 30
12 12 30
12 12 30
12 12 30
12 12 30
12 12 30
12 12 30
12 12 30
12 12 30
12 12 30
12 12 30
12 12 30
12 12 30
12 12 30
12 12 30
12 12 30
12 12 30
12 12 30
12 12 30
12 12 30
12 12 30
12 12 30
12 12 30
12 12 30
12 12 30
12 12 30
12 12 30
12 12 30
12 12 30
12 12 30
12 12 30
12 12 30
12 12 30
12 12 30
12 12 30
12 12 30
12 12 30
12 12 30
12 12 30
12 12 30
12 12 30
12 12 30
12 12 30
12 12 30
12 12 30
12 12 30
12 12 30
12 12 30
12 12 30
12 12 30
12 12 30
12 12 30
12 12 30
12 12 30
12 12 30
12 12 30
12 12 30
12 12 30
12 12 30
12 12 30
12 12 30
12 12 30
12 12 30
12 12 30
12 12 30
12 12 30
12 12 30
12 12 30
12 12 30
12 12 30
12 12 30
12 12 30
12 12 30
12 12 30
12 12 30
12 12 30
12 12 30
12 12 30
12 12 30
12 12 30
12 12 30
12 12 30
12 12 30
12 12 30
12 12 30
12 12 30
12 12 30
12 12 30
12 12 30
12 12 30
12 12 30
12 12 30
12 12 30
12 12 30
12 12 30
12 12 30
12 12 30
12 12 30
12 12 30
12 12 30
12 12 30
12 12 30
12 12 30
12 12 30
12 12 30
12 12 30
12 12 30
12 12 30
12 12 30
12 12 30
12 12 30
12 12 30
12 12 30
12 12 30
12 12 30
12 12 30
12 12 30
12 12 30
12 12 30
12 12 30
12 12 30
12 12 30
12 12 30
12 12 30
12 12 30
12 12 30
12 12 30
12 12 30
12 12 30
12 12 30
12 12 30
12 12 30
12 12 30
12 12 30
12 12 30
12 12 30
12 12 30
12 12 30
12 12 30
12 12 30
12 12 30
12 12 30
12 12 30
12 12 30
12 12 30
12 12 30
12 12 30
12 12 30
12 12 30
12 12 30
12 12 30
12 12 30
12 12 30
12 12 30
12 12 30
12 12 30
12 12 30
12 12 30
12 12 30
12 12 30
12 12 30
12 12 30
12 12 30
12 12 30
12 12 30
12 12 30
12 12 30
12 12 30
12 12 30
12 12 30
12 12 30
12 12 30
12 12 30
12 12 30
12 12 30
12 12 30
12 12 30
12 12 30
12 12 30
12 12 30
12 12 30
12 12 30
12 12 30
12 12 30
12 12 30
12 12 30
12 12 30
12 12 30
12 12 30
12 12 30
12 12 30
12 12 30
12 12 30
12 12 30
12 12 30
12 12 30
51 127 230
51 127 230
51 127 230
51 127 230
51 127 230
51 127 230
51 127 230
51 127 230
51 127 230
51 127 230
51 127 230
51 127 230
51 127 230
51 127 230
51 127 230
51 127 230
51 127 230
51 127 230
51 127 230
51 127 230
51 127 230
51 127 230
51 127 230
51 127 230
51 127 230
51 127 230
12 12 30
12 12 30
12 12 30
12 12 30
12 12 30
12 12 30
12 12 30
12 12 30
12 12 30
12 12 30
12 12 30
12 12 30
12 12 30
12 12 30
12 12 30
12 12 30
12 12 30
12 12 30
12 12 30
12 12 30
12 12 30
12 12 30
12 12 30
12 12 30
12 12 30
12 12 30
12 12 30
12 12 30
12 12 30
12 12 30
12 12 30
12 12 30
12 12 30
12 12 30
12 12 30
12 12 30
12 12 30
12 12 30
12 12 30
12 12 30
12 12 30
12 12 30
12 12 30
12 12 30
12 12 30
12 12 30
12 12 30
12 12 30
12 12 30
12 12 30
12 12 30
12 12 30
12 12 30
12 12 30
12 12 30
12 12 30
12 12 30
12 12 30
12 12 30
12 12 30
12 12 30
12 12 30
12 12 30
12 12 30
12 12 30
12 12 30
12 12 30
12 12 30
12 12 30
12 12 30
12 12 30
12 12 30
12 12 30
12 12 30
12 12 30
12 12 30
12 12 30
12 12 30
12 12 30
12 12 30
12 12 30
12 12 30
12 12 30
12 12 30
12 12 30
12 12 30
12 12 30
12 12 30
12 12 30
12 12 30
12 12 30
12 12 30
12 12 30
12 12 30
12 12 30
12 12 30
12 12 30
12 12 30
12 12 30
12 12 30
12 12 30
12 12 30
12 12 30
12 12 30
12 12 30
12 12 30
12 12 30
12 12 30
12 12 30
12 12 30
12 12 30
12 12 30
12 12 30
12 12 30
12 12 30
12 12 30
12 12 30
12 12 30
12 12 30
12 12 30
12 12 30
12 12 30
12 12 30
12 12 30
12 12 30
12 12 30
12 12 30
12 12 30
12 12 30
12 12 30
12 12 30
12 12 30
12 12 30
12 12 30
12 12 30
12 12 30
12 12 30
12 12 30
12 12 30
12 12 30
12 12 30
12 12 30
12 12 30
12 12 30
12 12 30
12 12 30
12 12 30
12 12 30
12 12 30
12 12 30
12 12 30
12 12 30
12 12 30
12 12 30
12 12 30
12 12 30
12 12 30
12 12 30
12 12 30
12 12 30
12 12 30
12 12 30
12 12 30
12 12 30
12 12 30
12 12 30
12 12 30
12 12 30
12 12 30
12 12 30
12 12 30
12 12 30
12 12 30
12 12 30
12 12 30
12 12 30
12 12 30
12 12 30
12 12 30
12 12 30
12 12 30
12 12 30
12 12 30
12 12 30
12 12 30
12 12 30
12 12 30
12 12 30
12 12 30
12 12 30
12 12 30
12 12 30
12 12 30
12 12 30
12 12 30
12 12 30
12 12 30
12 12 30
12 12 30
12 12 30
12 12 30
12 12 30
12 12 30
12 12 30
12 12 30
12 12 30
12 12 30
12 12 30
12 12 30
12 12 30
12 12 30
12 12 30
12 12 30
12 12 30
12 12 30
12 12 30
12 12 30
12 12 30
12 12 30
12 12 30
12 12 30
12 12 30
12 12 30
12 12 30
12 12 30
12 12 30
12 12 30
12 12 30
12 12 30
12 12 30
12 12 30
12 12 30
12 12 30
12 12 30
12 12 30
12 12 30
12 12 30
12 12 30
12 12 30
12 12 30
12 12 30
12 12 30
12 12 30
12 12 30
12 12 30
12 12 30
12 12 30
12 12 30
12 12 30
12 12 30
12 12 30
12 12 30
12 12 30
12 12 30
12 12 30
12 12 30
12 12 30
12 12 30
12 12 30
12 12 30
12 12 30
12 12 30
12 12 30
12 12 30
12 12 30
12 12 30
12 12 30
12 12 30
12 12 30
12 12 30
12 12 30
12 12 30
12 12 30
12 12 30
12 12 30
12 12 30
12 12 30
12 12 30
12 12 30
12 12 30
12 12 30
12 12 30
12 12 30
12 12 30
12 12 30
12 12 30
12 12 30
12 12 30
12 12 30
12 12 30
12 12 30
12 12 30
12 12 30
12 12 30
12 12 30
12 12 30
12 12 30
12 12 30
12 12 30
12 12 30
12 12 30
12 12 30
12 12 30
12 12 30
12 12 30
12 12 30
12 12 30
12 12 30
12 12 30
12 12 30
12 12 30
12 12 30
12 12 30
12 12 30
12 12 30
12 12 30
12 12 30
12 12 30
12 12 30
12 12 30
12 12 30
12 12 30
12 12 30
12 12 30
12 12 30
12 12 30
12 12 30
12 12 30
12 12 30
12 12 30
12 12 30
12 12 30
12 12 30
12 12 30
12 12 30
12 12 30
12 12 30
12 12 30
12 12 30
12 12 30
12 12 30
12 12 30
12 12 30
12 12 30
12 12 30
12 12 30
12 12 30
12 12 30
12 12 30
12 12 30
12 12 30
12 12 30
12 12 30
12 12 30
12 12 30
12 12 30
12 12 30
12 12 30
12 12 30
12 12 30
12 12 30
12 12 30
12 12 30
12 12 30
12 12 30
12 12 30
12 12 30
12 12 30
12 12 30
12 12 30
12 12 30
12 12 30
12 12 30
51 127 230
51 127 230
51 127 230
51 127 230
51 127 230
51 127 230
51 127 230
51 127 230
51 127 230
51 127 230
51 127 230
51 127 230
51 127 230
51 127 230
51 127 230
51 127 230
51 127 230
51 127 230
51 127 230
51 127 230
51 127 230
51 127 230
51 127 230
51 127 230
51 127 230
51 127 230
51 127 230
51 127 230
12 12 30
12 12 30
12 12 30
12 12 30
12 12 30
12 12 30
12 12 30
12 12 30
12 12 30
12 12 30
12 12 30
12 12 30
12 12 30
12 12 30
12 12 30
12 12 30
12 12 30
12 12 30
12 12 30
12 12 30
12 12 30
12 12 30
12 12 30
12 12 30
12 12 30
12 12 30
12 12 30
12 12 30
12 12 30
12 12 30
12 12 30
12 12 30
12 12 30
12 12 30
12 12 30
12 12 30
12 12 30
12 12 30
12 12 30
12 12 30
12 12 30
12 12 30
12 12 30
12 12 30
12 12 30
12 12 30
12 12 30
12 12 30
12 12 30
12 12 30
12 12 30
12 12 30
12 12 30
12 12 30
12 12 30
12 12 30
12 12 30
12 12 30
12 12 30
12 12 30
12 12 30
12 12 30
12 12 30
12 12 30
12 12 30
12 12 30
12 12 30
12 12 30
12 12 30
12 12 30
12 12 30
12 12 30
12 12 30
12 12 30
12 12 30
12 12 30
12 12 30
12 12 30
12 12 30
12 12 30
12 12 30
12 12 30
12 12 30
12 12 30
12 12 30
12 12 30
12 12 30
12 12 30
12 12 30
12 12 30
12 12 30
12 12 30
12 12 30
12 12 30
12 12 30
12 12 30
12 12 30
12 12 30
12 12 30
12 12 30
12 12 30
12 12 30
12 12 30
12 12 30
12 12 30
12 12 30
12 12 30
12 12 30
12 12 30
12 12 30
12 12 30
12 12 30
12 12 30
12 12 30
12 12 30
12 12 30
12 12 30
12 12 30
12 12 30
12 12 30
12 12 30
12 12 30
12 12 30
12 12 30
12 12 30
12 12 30
12 12 30
12 12 30
12 12 30
12 12 30
12 12 30
12 12 30
12 12 30
12 12 30
12 12 30
12 12 30
12 12 30
12 12 30
12 12 30
12 12 30
12 12 30
12 12 30
12 12 30
12 12 30
12 12 30
12 12 30
12 12 30
12 12 30
12 12 30
12 12 30
12 12 30
12 12 30
12 12 30
12 12 30
12 12 30
12 12 30
12 12 30
12 12 30
12 12 30
12 12 30
12 12 30
12 12 30
12 12 30
12 12 30
12 12 30
12 12 30
12 12 30
12 12 30
12 12 30
12 12 30
12 12 30
12 12 30
12 12 30
12 12 30
12 12 30
12 12 30
12 12 30
12 12 30
12 12 30
12 12 30
12 12 30
12 12 30
12 12 30
12 12 30
12 12 30
12 12 30
12 12 30
12 12 30
12 12 30
12 12 30
12 12 30
12 12 30
12 12 30
12 12 30
12 12 30
12 12 30
12 12 30
12 12 30
12 12 30
12 12 30
12 12 30
12 12 30
12 12 30
12 12 30
12 12 30
12 12 30
12 12 30
12 12 30
12 12 30
12 12 30
12 12 30
12 12 30
12 12 30
12 12 30
12 12 30
12 12 30
12 12 30
12 12 30
12 12 30
12 12 30
12 12 30
12 12 30
12 12 30
12 12 30
12 12 30
12 12 30
12 12 30
12 12 30
12 12 30
12 12 30
12 12 30
12 12 30
12 12 30
12 12 30
12 12 30
12 12 30
12 12 30
12 12 30
12 12 30
12 12 30
12 12 30
12 12 30
12 12 30
12 12 30
12 12 30
12 12 30
12 12 30
12 12 30
12 12 30
12 12 30
12 12 30
12 12 30
12 12 30
12 12 30
12 12 30
12 12 30
12 12 30
12 12 30
12 12 30
12 12 30
12 12 30
12 12 30
12 12 30
12 12 30
12 12 30
12 12 30
12 12 30
12 12 30
12 12 30
12 12 30
12 12 30
12 12 30
12 12 30
12 12 30
12 12 30
12 12 30
12 12 30
12 12 30
12 12 30
12 12 30
12 12 30
12 12 30
12 12 30
12 12 30
12 12 30
12 12 30
12 12 30
12 12 30
12 12 30
12 12 30
12 12 30
12 12 30
12 12 30
12 12 30
12 12 30
12 12 30
12 12 30
12 12 30
12 12 30
12 12 30
12 12 30
12 12 30
12 12 30
12 12 30
12 12 30
12 12 30
12 12 30
12 12 30
12 12 30
12 12 30
12 12 30
12 12 30
12 12 30
12 12 30
12 12 30
12 12 30
12 12 30
12 12 30
12 12 30
12 12 30
12 12 30
12 12 30
12 12 30
12 12 30
12 12 30
12 12 30
12 12 30
12 12 30
12 12 30
12 12 30
12 12 30
12 12 30
12 12 30
12 12 30
12 12 30
12 12 30
12 12 30
12 12 30
12 12 30
12 12 30
12 12 30
12 12 30
12 12 30
12 12 30
12 12 30
12 12 30
12 12 30
12 12 30
12 12 30
12 12 30
12 12 30
12 12 30
12 12 30
12 12 30
12 12 30
12 12 30
12 12 30
12 12 30
12 12 30
12 12 30
12 12 30
12 12 30
12 12 30
12 12 30
12 12 30
12 12 30
12 12 30
12 12 30
12 12 30
12 12 30
12 12 30
51 127 230
51 127 230
51 127 230
51 127 230
51 127 230
51 127 230
51 127 230
51 127 230
51 127 230
51 127 230
51 127 230
51 127 230
51 127 230
51 127 230
51 127 230
51 127 230
51 127 230
51 127 230
51 127 230
51 127 230
51 127 230
51 127 230
51 127 230
51 127 230
51 127 230
51 127 230
51 127 230
51 127 230
51 127 230
51 127 230
12 12 30
12 12 30
12 12 30
12 12 30
12 12 30
12 12 30
12 12 30
12 12 30
12 12 30
12 12 30
12 12 30
12 12 30
12 12 30
12 12 30
12 12 30
12 12 30
12 12 30
12 12 30
12 12 30
12 12 30
12 12 30
12 12 30
12 12 30
12 12 30
12 12 30
12 12 30
12 12 30
12 12 30
12 12 30
12 12 30
12 12 30
12 12 30
12 12 30
12 12 30
12 12 30
12 12 30
12 12 30
12 12 30
12 12 30
12 12 30
12 12 30
12 12 30
12 12 30
12 12 30
12 12 30
12 12 30
12 12 30
12 12 30
12 12 30
12 12 30
12 12 30
12 12 30
12 12 30
12 12 30
12 12 30
12 12 30
12 12 30
12 12 30
12 12 30
12 12 30
12 12 30
12 12 30
12 12 30
12 12 30
12 12 30
12 12 30
12 12 30
12 12 30
12 12 30
12 12 30
12 12 30
12 12 30
12 12 30
12 12 30
12 12 30
12 12 30
12 12 30
12 12 30
12 12 30
12 12 30
12 12 30
12 12 30
12 12 30
12 12 30
12 12 30
12 12 30
12 12 30
12 12 30
12 12 30
12 12 30
12 12 30
12 12 30
12 12 30
12 12 30
12 12 30
12 12 30
12 12 30
12 12 30
12 12 30
12 12 30
12 12 30
12 12 30
12 12 30
12 12 30
12 12 30
12 12 30
12 12 30
12 12 30
12 12 30
12 12 30
12 12 30
12 12 30
12 12 30
12 12 30
12 12 30
12 12 30
12 12 30
12 12 30
12 12 30
12 12 30
12 12 30
12 12 30
12 12 30
12 12 30
12 12 30
12 12 30
12 12 30
12 12 30
12 12 30
12 12 30
12 12 30
12 12 30
12 12 30
12 12 30
12 12 30
12 12 30
12 12 30
12 12 30
12 12 30
12 12 30
12 12 30
12 12 30
12 12 30
12 12 30
12 12 30
12 12 30
12 12 30
12 12 30
12 12 30
12 12 30
12 12 30
12 12 30
12 12 30
12 12 30
12 12 30
12 12 30
12 12 30
12 12 30
12 12 30
12 12 30
12 12 30
12 12 30
12 12 30
12 12 30
12 12 30
12 12 30
12 12 30
12 12 30
12 12 30
12 12 30
12 12 30
12 12 30
12 12 30
12 12 30
12 12 30
12 12 30
12 12 30
12 12 30
12 12 30
12 12 30
12 12 30
12 12 30
12 12 30
12 12 30
12 12 30
12 12 30
12 12 30
12 12 30
12 12 30
12 12 30
12 12 30
12 12 30
12 12 30
12 12 30
12 12 30
12 12 30
12 12 30
12 12 30
12 12 30
12 12 30
12 12 30
12 12 30
12 12 30
12 12 30
12 12 30
12 12 30
12 12 30
12 12 30
12 12 30
12 12 30
12 12 30
12 12 30
12 12 30
12 12 30
12 12 30
12 12 30
12 12 30
12 12 30
12 12 30
12 12 30
12 12 30
12 12 30
12 12 30
12 12 30
12 12 30
12 12 30
12 12 30
12 12 30
12 12 30
12 12 30
12 12 30
12 12 30
12 12 30
12 12 30
12 12 30
12 12 30
12 12 30
12 12 30
12 12 30
12 12 30
12 12 30
12 12 30
12 12 30
12 12 30
12 12 30
12 12 30
12 12 30
12 12 30
12 12 30
12 12 30
12 12 30
12 12 30
12 12 30
12 12 30
12 12 30
12 12 30
12 12 30
12 12 30
12 12 30
12 12 30
12 12 30
12 12 30
12 12 30
12 12 30
12 12 30
12 12 30
12 12 30
12 12 30
12 12 30
12 12 30
12 12 30
12 12 30
12 12 30
12 12 30
12 12 30
12 12 30
12 12 30
12 12 30
12 12 30
12 12 30
12 12 30
12 12 30
12 12 30
12 12 30
12 12 30
12 12 30
12 12 30
12 12 30
12 12 30
12 12 30
12 12 30
12 12 30
12 12 30
12 12 30
12 12 30
12 12 30
12 12 30
12 12 30
12 12 30
12 12 30
12 12 30
12 12 30
12 12 30
12 12 30
12 12 30
12 12 30
12 12 30
12 12 30
12 12 30
12 12 30
12 12 30
12 12 30
12 12 30
12 12 30
12 12 30
12 12 30
12 12 30
12 12 30
12 12 30
12 12 30
12 12 30
12 12 30
12 12 30
12 12 30
12 12 30
12 12 30
12 12 30
12 12 30
12 12 30
12 12 30
12 12 30
12 12 30
12 12 30
12 12 30
12 12 30
12 12 30
230 51 51
230 51 51
230 51 51
230 51 51
230 51 51
230 51 51
230 51 51
230 51 51
230 51 51
230 51 51
230 51 51
230 51 51
12 12 30
12 12 30
12 12 30
12 12 30
12 12 30
12 12 30
12 12 30
12 12 30
12 12 30
12 12 30
12 12 30
12 12 30
12 12 30
12 12 30
12 12 30
12 12 30
12 12 30
12 12 30
12 12 30
12 12 30
12 12 30
51 127 230
51 127 230
51 127 230
51 127 230
51 127 230
51 127 230
51 127 230
51 127 230
51 127 230
51 127 230
51 127 230
51 127 230
51 127 230
51 127 230
51 127 230
51 127 230
51 127 230
51 127 230
51 127 230
51 127 230
51 127 230
51 127 230
51 127 230
51 127 230
51 127 230
51 127 230
51 127 230
51 127 230
51 127 230
51 127 230
51 127 230
51 127 230
12 12 30
12 12 30
12 12 30
12 12 30
12 12 30
12 12 30
12 12 30
12 12 30
12 12 30
12 12 30
12 12 30
12 12 30
12 12 30
12 12 30
12 12 30
12 12 30
12 12 30
12 12 30
12 12 30
12 12 30
12 12 30
12 12 30
12 12 30
12 12 30
12 12 30
12 12 30
12 12 30
12 12 30
12 12 30
12 12 30
12 12 30
12 12 30
12 12 30
12 12 30
12 12 30
12 12 30
12 12 30
12 12 30
12 12 30
12 12 30
12 12 30
12 12 30
12 12 30
12 12 30
12 12 30
12 12 30
12 12 30
12 12 30
12 12 30
12 12 30
12 12 30
12 12 30
12 12 30
12 12 30
12 12 30
12 12 30
12 12 30
12 12 30
12 12 30
12 12 30
12 12 30
12 12 30
12 12 30
12 12 30
12 12 30
12 12 30
12 12 30
12 12 30
12 12 30
12 12 30
12 12 30
12 12 30
12 12 30
12 12 30
12 12 30
12 12 30
12 12 30
12 12 30
12 12 30
12 12 30
12 12 30
12 12 30
12 12 30
12 12 30
12 12 30
12 12 30
12 12 30
12 12 30
12 12 30
12 12 30
12 12 30
12 12 30
12 12 30
12 12 30
12 12 30
12 12 30
12 12 30
12 12 30
12 12 30
12 12 30
12 12 30
12 12 30
12 12 30
12 12 30
12 12 30
12 12 30
12 12 30
12 12 30
12 12 30
12 12 30
12 12 30
12 12 30
12 12 30
12 12 30
12 12 30
12 12 30
12 12 30
12 12 30
12 12 30
12 12 30
12 12 30
12 12 30
12 12 30
12 12 30
12 12 30
12 12 30
12 12 30
12 12 30
12 12 30
12 12 30
12 12 30
12 12 30
12 12 30
12 12 30
12 12 30
12 12 30
12 12 30
12 12 30
12 12 30
12 12 30
12 12 30
12 12 30
12 12 30
12 12 30
12 12 30
12 12 30
12 12 30
12 12 30
12 12 30
12 12 30
12 12 30
12 12 30
12 12 30
12 12 30
12 12 30
12 12 30
12 12 30
12 12 30
12 12 30
12 12 30
12 12 30
12 12 30
12 12 30
12 12 30
12 12 30
12 12 30
12 12 30
12 12 30
12 12 30
12 12 30
12 12 30
12 12 30
12 12 30
12 12 30
12 12 30
12 12 30
12 12 30
12 12 30
12 12 30
12 12 30
12 12 30
12 12 30
12 12 30
12 12 30
12 12 30
12 12 30
12 12 30
12 12 30
12 12 30
12 12 30
12 12 30
12 12 30
12 12 30
12 12 30
12 12 30
12 12 30
12 12 30
12 12 30
12 12 30
12 12 30
12 12 30
12 12 30
12 12 30
12 12 30
12 12 30
12 12 30
12 12 30
12 12 30
12 12 30
12 12 30
12 12 30
12 12 30
12 12 30
12 12 30
12 12 30
12 12 30
12 12 30
12 12 30
12 12 30
12 12 30
12 12 30
12 12 30
12 12 30
12 12 30
12 12 30
12 12 30
12 12 30
12 12 30
12 12 30
12 12 30
12 12 30
12 12 30
12 12 30
12 12 30
12 12 30
12 12 30
12 12 30
12 12 30
12 12 30
12 12 30
12 12 30
12 12 30
12 12 30
12 12 30
12 12 30
12 12 30
12 12 30
12 12 30
12 12 30
12 12 30
12 12 30
12 12 30
12 12 30
12 12 30
12 12 30
12 12 30
12 12 30
12 12 30
12 12 30
12 12 30
12 12 30
12 12 30
12 12 30
12 12 30
12 12 30
12 12 30
12 12 30
12 12 30
12 12 30
12 12 30
12 12 30
12 12 30
12 12 30
12 12 30
12 12 30
12 12 30
12 12 30
12 12 30
12 12 30
12 12 30
12 12 30
12 12 30
12 12 30
12 12 30
12 12 30
12 12 30
12 12 30
12 12 30
12 12 30
12 12 30
12 12 30
12 12 30
12 12 30
12 12 30
12 12 30
12 12 30
12 12 30
12 12 30
12 12 30
12 12 30
12 12 30
12 12 30
12 12 30
12 12 30
12 12 30
12 12 30
12 12 30
12 12 30
12 12 30
12 12 30
12 12 30
12 12 30
12 12 30
12 12 30
12 12 30
12 12 30
12 12 30
12 12 30
12 12 30
12 12 30
12 12 30
12 12 30
12 12 30
12 12 30
12 12 30
12 12 30
12 12 30
12 12 30
12 12 30
12 12 30
12 12 30
12 12 30
230 51 51
230 51 51
230 51 51
230 51 51
230 51 51
230 51 51
230 51 51
230 51 51
230 51 51
230 51 51
230 51 51
230 51 51
230 51 51
230 51 51
230 51 51
230 51 51
230 51 51
230 51 51
12 12 30
12 12 30
12 12 30
12 12 30
12 12 30
12 12 30
12 12 30
12 12 30
12 12 30
12 12 30
12 12 30
12 12 30
12 12 30
12 12 30
12 12 30
12 12 30
12 12 30
51 127 230
51 127 230
51 127 230
51 127 230
51 127 230
51 127 230
51 127 230
51 127 230
51 127 230
51 127 230
51 127 230
51 127 230
51 127 230
51 127 230
51 127 230
51 127 230
51 127 230
51 127 230
51 127 230
51 127 230
51 127 230
51 127 230
51 127 230
51 127 230
51 127 230
51 127 230
51 127 230
51 127 230
51 127 230
51 127 230
51 127 230
51 127 230
51 127 230
51 127 230
12 12 30
12 12 30
12 12 30
12 12 30
12 12 30
12 12 30
12 12 30
12 12 30
12 12 30
12 12 30
12 12 30
12 12 30
12 12 30
12 12 30
12 12 30
12 12 30
12 12 30
12 12 30
12 12 30
12 12 30
12 12 30
12 12 30
12 12 30
12 12 30
12 12 30
12 12 30
12 12 30
12 12 30
12 12 30
12 12 30
12 12 30
12 12 30
12 12 30
12 12 30
12 12 30
12 12 30
12 12 30
12 12 30
12 12 30
12 12 30
12 12 30
12 12 30
12 12 30
12 12 30
12 12 30
12 12 30
12 12 30
12 12 30
12 12 30
12 12 30
12 12 30
12 12 30
12 12 30
12 12 30
12 12 30
12 12 30
12 12 30
12 12 30
12 12 30
12 12 30
12 12 30
12 12 30
12 12 30
12 12 30
12 12 30
12 12 30
12 12 30
12 12 30
12 12 30
12 12 30
12 12 30
12 12 30
12 12 30
12 12 30
12 12 30
12 12 30
12 12 30
12 12 30
12 12 30
12 12 30
12 12 30
12 12 30
12 12 30
12 12 30
12 12 30
12 12 30
12 12 30
12 12 30
12 12 30
12 12 30
12 12 30
12 12 30
12 12 30
12 12 30
12 12 30
12 12 30
12 12 30
12 12 30
12 12 30
12 12 30
12 12 30
12 12 30
12 12 30
12 12 30
12 12 30
12 12 30
12 12 30
12 12 30
12 12 30
12 12 30
12 12 30
12 12 30
12 12 30
12 12 30
12 12 30
12 12 30
12 12 30
12 12 30
12 12 30
12 12 30
12 12 30
12 12 30
12 12 30
12 12 30
12 12 30
12 12 30
12 12 30
12 12 30
12 12 30
12 12 30
12 12 30
12 12 30
12 12 30
12 12 30
12 12 30
12 12 30
12 12 30
12 12 30
12 12 30
12 12 30
12 12 30
12 12 30
12 12 30
12 12 30
12 12 30
12 12 30
12 12 30
12 12 30
12 12 30
12 12 30
12 12 30
12 12 30
12 12 30
12 12 30
12 12 30
12 12 30
12 12 30
12 12 30
12 12 30
12 12 30
12 12 30
12 12 30
12 12 30
12 12 30
12 12 30
12 12 30
12 12 30
12 12 30
12 12 30
12 12 30
12 12 30
12 12 30
12 12 30
12 12 30
12 12 30
12 12 30
12 12 30
12 12 30
12 12 30
12 12 30
12 12 30
12 12 30
12 12 30
12 12 30
12 12 30
12 12 30
12 12 30
12 12 30
12 12 30
12 12 30
12 12 30
12 12 30
12 12 30
12 12 30
12 12 30
12 12 30
12 12 30
12 12 30
12 12 30
12 12 30
12 12 30
12 12 30
12 12 30
12 12 30
12 12 30
12 12 30
12 12 30
12 12 30
12 12 30
12 12 30
12 12 30
12 12 30
12 12 30
12 12 30
12 12 30
12 12 30
12 12 30
12 12 30
12 12 30
12 12 30
12 12 30
12 12 30
12 12 30
12 12 30
12 12 30
12 12 30
12 12 30
12 12 30
12 12 30
12 12 30
12 12 30
12 12 30
12 12 30
12 12 30
12 12 30
12 12 30
12 12 30
12 12 30
12 12 30
12 12 30
12 12 30
12 12 30
12 12 30
12 12 30
12 12 30
12 12 30
12 12 30
12 12 30
12 12 30
12 12 30
12 12 30
12 12 30
12 12 30
12 12 30
12 12 30
12 12 30
12 12 30
12 12 30
12 12 30
12 12 30
12 12 30
12 12 30
12 12 30
12 12 30
12 12 30
12 12 30
12 12 30
12 12 30
12 12 30
12 12 30
12 12 30
12 12 30
12 12 30
12 12 30
12 12 30
12 12 30
12 12 30
12 12 30
12 12 30
12 12 30
12 12 30
12 12 30
12 12 30
12 12 30
12 12 30
12 12 30
12 12 30
12 12 30
12 12 30
12 12 30
12 12 30
12 12 30
12 12 30
12 12 30
12 12 30
12 12 30
12 12 30
12 12 30
12 12 30
12 12 30
12 12 30
12 12 30
12 12 30
12 12 30
12 12 30
12 12 30
12 12 30
12 12 30
12 12 30
12 12 30
12 12 30
12 12 30
12 12 30
12 12 30
12 12 30
12 12 30
12 12 30
12 12 30
12 12 30
12 12 30
12 12 30
12 12 30
12 12 30
12 12 30
12 12 30
12 12 30
12 12 30
12 12 30
12 12 30
230 51 51
230 51 51
230 51 51
230 51 51
230 51 51
230 51 51
230 51 51
230 51 51
230 51 51
230 51 51
230 51 51
230 51 51
230 51 51
230 51 51
230 51 51
230 51 51
230 51 51
230 51 51
230 51 51
230 51 51
230 51 51
230 51 51
12 12 30
12 12 30
12 12 30
12 12 30
12 12 30
12 12 30
12 12 30
12 12 30
12 12 30
12 12 30
12 12 30
12 12 30
12 12 30
12 12 30
51 127 230
51 127 230
51 127 230
51 127 230
51 127 230
51 127 230
51 127 230
51 127 230
51 127 230
51 127 230
51 127 230
51 127 230
51 127 230
51 127 230
51 127 230
51 127 230
51 127 230
51 127 230
51 127 230
51 127 230
51 127 230
51 127 230
51 127 230
51 127 230
51 127 230
51 127 230
51 127 230
51 127 230
51 127 230
51 127 230
51 127 230
51 127 230
51 127 230
51 127 230
51 127 230
51 127 230
12 12 30
12 12 30
12 12 30
12 12 30
12 12 30
12 12 30
12 12 30
12 12 30
12 12 30
12 12 30
12 12 30
12 12 30
12 12 30
12 12 30
12 12 30
12 12 30
12 12 30
12 12 30
12 12 30
12 12 30
12 12 30
12 12 30
12 12 30
12 12 30
12 12 30
12 12 30
12 12 30
12 12 30
12 12 30
12 12 30
12 12 30
12 12 30
12 12 30
12 12 30
12 12 30
12 12 30
12 12 30
12 12 30
12 12 30
12 12 30
12 12 30
12 12 30
12 12 30
12 12 30
12 12 30
12 12 30
12 12 30
12 12 30
12 12 30
12 12 30
12 12 30
12 12 30
12 12 30
12 12 30
12 12 30
12 12 30
12 12 30
12 12 30
12 12 30
12 12 30
12 12 30
12 12 30
12 12 30
12 12 30
12 12 30
12 12 30
12 12 30
12 12 30
12 12 30
12 12 30
12 12 30
12 12 30
12 12 30
12 12 30
12 12 30
12 12 30
12 12 30
12 12 30
12 12 30
12 12 30
12 12 30
12 12 30
12 12 30
12 12 30
12 12 30
12 12 30
12 12 30
12 12 30
12 12 30
12 12 30
12 12 30
12 12 30
12 12 30
12 12 30
12 12 30
12 12 30
12 12 30
12 12 30
12 12 30
12 12 30
12 12 30
12 12 30
12 12 30
12 12 30
12 12 30
12 12 30
12 12 30
12 12 30
12 12 30
12 12 30
12 12 30
12 12 30
12 12 30
12 12 30
12 12 30
12 12 30
12 12 30
12 12 30
12 12 30
12 12 30
12 12 30
12 12 30
12 12 30
12 12 30
12 12 30
12 12 30
12 12 30
12 12 30
12 12 30
12 12 30
12 12 30
12 12 30
12 12 30
12 12 30
12 12 30
12 12 30
12 12 30
12 12 30
12 12 30
12 12 30
12 12 30
12 12 30
12 12 30
12 12 30
12 12 30
12 12 30
12 12 30
12 12 30
12 12 30
12 12 30
12 12 30
12 12 30
12 12 30
12 12 30
12 12 30
12 12 30
12 12 30
12 12 30
12 12 30
12 12 30
12 12 30
12 12 30
12 12 30
12 12 30
12 12 30
12 12 30
12 12 30
12 12 30
12 12 30
12 12 30
12 12 30
12 12 30
12 12 30
12 12 30
12 12 30
12 12 30
12 12 30
12 12 30
12 12 30
12 12 30
12 12 30
12 12 30
12 12 30
12 12 30
12 12 30
12 12 30
12 12 30
12 12 30
12 12 30
12 12 30
12 12 30
12 12 30
12 12 30
12 12 30
12 12 30
12 12 30
12 12 30
12 12 30
12 12 30
12 12 30
12 12 30
12 12 30
12 12 30
12 12 30
12 12 30
12 12 30
12 12 30
12 12 30
12 12 30
12 12 30
12 12 30
12 12 30
12 12 30
12 12 30
12 12 30
12 12 30
12 12 30
12 12 30
12 12 30
12 12 30
12 12 30
12 12 30
12 12 30
12 12 30
12 12 30
12 12 30
12 12 30
12 12 30
12 12 30
12 12 30
12 12 30
12 12 30
12 12 30
12 12 30
12 12 30
12 12 30
12 12 30
12 12 30
12 12 30
12 12 30
12 12 30
12 12 30
12 12 30
12 12 30
12 12 30
12 12 30
12 12 30
12 12 30
12 12 30
12 12 30
12 12 30
12 12 30
12 12 30
12 12 30
12 12 30
12 12 30
12 12 30
12 12 30
12 12 30
12 12 30
12 12 30
12 12 30
12 12 30
12 12 30
12 12 30
12 12 30
12 12 30
12 12 30
12 12 30
12 12 30
12 12 30
12 12 30
12 12 30
12 12 30
12 12 30
12 12 30
12 12 30
12 12 30
12 12 30
12 12 30
12 12 30
12 12 30
12 12 30
12 12 30
12 12 30
12 12 30
12 12 30
12 12 30
12 12 30
12 12 30
12 12 30
12 12 30
12 12 30
12 12 30
12 12 30
12 12 30
12 12 30
12 12 30
12 12 30
12 12 30
12 12 30
12 12 30
12 12 30
12 12 30
12 12 30
12 12 30
12 12 30
12 12 30
12 12 30
12 12 30
12 12 30
12 12 30
12 12 30
12 12 30
12 12 30
12 12 30
12 12 30
12 12 30
12 12 30
12 12 30
12 12 30
12 12 30
12 12 30
12 12 30
12 12 30
12 12 30
12 12 30
230 51 51
230 51 51
230 51 51
230 51 51
230 51 51
230 51 51
230 51 51
230 51 51
230 51 51
230 51 51
230 51 51
230 51 51
230 51 51
230 51 51
230 51 51
230 51 51
230 51 51
230 51 51
230 51 51
230 51 51
230 51 51
230 51 51
230 51 51
230 51 51
12 12 30
12 12 30
12 12 30
12 12 30
12 12 30
12 12 30
12 12 30
12 12 30
12 12 30
12 12 30
12 12 30
12 12 30
51 127 230
51 127 230
51 127 230
51 127 230
51 127 230
51 127 230
51 127 230
51 127 230
51 127 230
51 127 230
51 127 230
51 127 230
51 127 230
51 127 230
51 127 230
51 127 230
51 127 230
51 127 230
51 127 230
51 127 230
51 127 230
51 127 230
51 127 230
51 127 230
51 127 230
51 127 230
51 127 230
51 127 230
51 127 230
51 127 230
51 127 230
51 127 230
51 127 230
51 127 230
51 127 230
51 127 230
51 127 230
51 127 230
12 12 30
12 12 30
12 12 30
12 12 30
12 12 30
12 12 30
12 12 30
12 12 30
12 12 30
12 12 30
12 12 30
12 12 30
12 12 30
12 12 30
12 12 30
12 12 30
12 12 30
12 12 30
12 12 30
12 12 30
12 12 30
12 12 30
12 12 30
12 12 30
12 12 30
12 12 30
12 12 30
12 12 30
12 12 30
12 12 30
12 12 30
12 12 30
12 12 30
12 12 30
12 12 30
12 12 30
12 12 30
12 12 30
12 12 30
12 12 30
12 12 30
12 12 30
12 12 30
12 12 30
12 12 30
12 12 30
12 12 30
12 12 30
12 12 30
12 12 30
12 12 30
12 12 30
12 12 30
12 12 30
12 12 30
12 12 30
12 12 30
12 12 30
12 12 30
12 12 30
12 12 30
12 12 30
12 12 30
12 12 30
12 12 30
12 12 30
12 12 30
12 12 30
12 12 30
12 12 30
12 12 30
12 12 30
12 12 30
12 12 30
12 12 30
12 12 30
12 12 30
12 12 30
12 12 30
12 12 30
12 12 30
12 12 30
12 12 30
12 12 30
12 12 30
12 12 30
12 12 30
12 12 30
12 12 30
12 12 30
12 12 30
12 12 30
12 12 30
12 12 30
12 12 30
12 12 30
12 12 30
12 12 30
12 12 30
12 12 30
12 12 30
12 12 30
12 12 30
12 12 30
12 12 30
12 12 30
12 12 30
12 12 30
12 12 30
12 12 30
12 12 30
12 12 30
12 12 30
12 12 30
12 12 30
12 12 30
12 12 30
12 12 30
12 12 30
12 12 30
12 12 30
12 12 30
12 12 30
12 12 30
12 12 30
12 12 30
12 12 30
12 12 30
12 12 30
12 12 30
12 12 30
12 12 30
12 12 30
12 12 30
12 12 30
12 12 30
12 12 30
12 12 30
12 12 30
12 12 30
12 12 30
12 12 30
12 12 30
12 12 30
12 12 30
12 12 30
12 12 30
12 12 30
12 12 30
12 12 30
12 12 30
12 12 30
12 12 30
12 12 30
12 12 30
12 12 30
12 12 30
12 12 30
12 12 30
12 12 30
12 12 30
12 12 30
12 12 30
12 12 30
12 12 30
12 12 30
12 12 30
12 12 30
12 12 30
12 12 30
12 12 30
12 12 30
12 12 30
12 12 30
12 12 30
12 12 30
12 12 30
12 12 30
12 12 30
12 12 30
12 12 30
12 12 30
12 12 30
12 12 30
12 12 30
12 12 30
12 12 30
12 12 30
12 12 30
12 12 30
12 12 30
12 12 30
12 12 30
12 12 30
12 12 30
12 12 30
12 12 30
12 12 30
12 12 30
12 12 30
12 12 30
12 12 30
12 12 30
12 12 30
12 12 30
12 12 30
12 12 30
12 12 30
12 12 30
12 12 30
12 12 30
12 12 30
12 12 30
12 12 30
12 12 30
12 12 30
12 12 30
12 12 30
12 12 30
12 12 30
12 12 30
12 12 30
12 12 30
12 12 30
12 12 30
12 12 30
12 12 30
12 12 30
12 12 30
12 12 30
12 12 30
12 12 30
12 12 30
12 12 30
12 12 30
12 12 30
12 12 30
12 12 30
12 12 30
12 12 30
12 12 30
12 12 30
12 12 30
12 12 30
12 12 30
12 12 30
12 12 30
12 12 30
12 12 30
12 12 30
12 12 30
12 12 30
12 12 30
12 12 30
12 12 30
12 12 30
12 12 30
12 12 30
12 12 30
12 12 30
12 12 30
12 12 30
12 12 30
12 12 30
12 12 30
12 12 30
12 12 30
12 12 30
12 12 30
12 12 30
12 12 30
12 12 30
12 12 30
12 12 30
12 12 30
12 12 30
12 12 30
12 12 30
12 12 30
12 12 30
12 12 30
12 12 30
12 12 30
12 12 30
12 12 30
12 12 30
12 12 30
12 12 30
12 12 30
12 12 30
12 12 30
12 12 30
12 12 30
12 12 30
12 12 30
12 12 30
12 12 30
12 12 30
12 12 30
12 12 30
12 12 30
12 12 30
12 12 30
12 12 30
12 12 30
12 12 30
12 12 30
12 12 30
12 12 30
12 12 30
12 12 30
12 12 30
12 12 30
12 12 30
12 12 30
12 12 30
12 12 30
12 12 30
12 12 30
12 12 30
12 12 30
12 12 30
12 12 30
12 12 30
230 51 51
230 51 51
230 51 51
230 51 51
230 51 51
230 51 51
230 51 51
230 51 51
230 51 51
230 51 51
230 51 51
230 51 51
230 51 51
230 51 51
230 51 51
230 51 51
230 51 51
230 51 51
230 51 51
230 51 51
230 51 51
230 51 51
230 51 51
230 51 51
230 51 51
230 51 51
230 51 51
230 51 51
12 12 30
12 12 30
12 12 30
12 12 30
12 12 30
12 12 30
12 12 30
12 12 30
12 12 30
12 12 30
51 127 230
51 127 230
51 127 230
51 127 230
51 127 230
51 127 230
51 127 230
51 127 230
51 127 230
51 127 230
51 127 230
51 127 230
51 127 230
51 127 230
51 127 230
51 127 230
51 127 230
51 127 230
51 127 230
51 127 230
51 127 230
51 127 230
51 127 230
51 127 230
51 127 230
51 127 230
51 127 230
51 127 230
51 127 230
51 127 230
51 127 230
51 127 230
51 127 230
51 127 230
51 127 230
51 127 230
51 127 230
51 127 230
12 12 30
12 12 30
12 12 30
12 12 30
12 12 30
12 12 30
12 12 30
12 12 30
12 12 30
12 12 30
12 12 30
12 12 30
12 12 30
12 12 30
12 12 30
12 12 30
12 12 30
12 12 30
12 12 30
12 12 30
12 12 30
12 12 30
12 12 30
12 12 30
12 12 30
12 12 30
12 12 30
12 12 30
12 12 30
12 12 30
12 12 30
12 12 30
12 12 30
12 12 30
12 12 30
12 12 30
12 12 30
12 12 30
12 12 30
12 12 30
12 12 30
12 12 30
12 12 30
12 12 30
12 12 30
12 12 30
12 12 30
12 12 30
12 12 30
12 12 30
12 12 30
12 12 30
12 12 30
12 12 30
12 12 30
12 12 30
12 12 30
12 12 30
12 12 30
12 12 30
12 12 30
12 12 30
12 12 30
12 12 30
12 12 30
12 12 30
12 12 30
12 12 30
12 12 30
12 12 30
12 12 30
12 12 30
12 12 30
12 12 30
12 12 30
12 12 30
12 12 30
12 12 30
12 12 30
12 12 30
12 12 30
12 12 30
12 12 30
12 12 30
12 12 30
12 12 30
12 12 30
12 12 30
12 12 30
12 12 30
12 12 30
12 12 30
12 12 30
12 12 30
12 12 30
12 12 30
12 12 30
12 12 30
12 12 30
12 12 30
12 12 30
12 12 30
12 12 30
12 12 30
12 12 30
12 12 30
12 12 30
12 12 30
12 12 30
12 12 30
12 12 30
12 12 30
12 12 30
12 12 30
12 12 30
12 12 30
12 12 30
12 12 30
12 12 30
12 12 30
12 12 30
12 12 30
12 12 30
12 12 30
12 12 30
12 12 30
12 12 30
12 12 30
12 12 30
12 12 30
12 12 30
12 12 30
12 12 30
12 12 30
12 12 30
12 12 30
12 12 30
12 12 30
12 12 30
12 12 30
12 12 30
12 12 30
12 12 30
12 12 30
12 12 30
12 12 30
12 12 30
12 12 30
12 12 30
12 12 30
12 12 30
12 12 30
12 12 30
12 12 30
12 12 30
12 12 30
12 12 30
12 12 30
12 12 30
12 12 30
12 12 30
12 12 30
12 12 30
12 12 30
12 12 30
12 12 30
12 12 30
12 12 30
12 12 30
12 12 30
12 12 30
12 12 30
12 12 30
12 12 30
12 12 30
12 12 30
12 12 30
12 12 30
12 12 30
12 12 30
12 12 30
12 12 30
12 12 30
12 12 30
12 12 30
12 12 30
12 12 30
12 12 30
12 12 30
12 12 30
12 12 30
12 12 30
12 12 30
12 12 30
12 12 30
12 12 30
12 12 30
12 12 30
12 12 30
12 12 30
12 12 30
12 12 30
12 12 30
12 12 30
12 12 30
12 12 30
12 12 30
12 12 30
12 12 30
12 12 30
12 12 30
12 12 30
12 12 30
12 12 30
12 12 30
12 12 30
12 12 30
12 12 30
12 12 30
12 12 30
12 12 30
12 12 30
12 12 30
12 12 30
12 12 30
12 12 30
12 12 30
12 12 30
12 12 30
12 12 30
12 12 30
12 12 30
12 12 30
12 12 30
12 12 30
12 12 30
12 12 30
12 12 30
12 12 30
12 12 30
12 12 30
12 12 30
12 12 30
12 12 30
12 12 30
12 12 30
12 12 30
12 12 30
12 12 30
12 12 30
12 12 30
12 12 30
12 12 30
12 12 30
12 12 30
12 12 30
12 12 30
12 12 30
12 12 30
12 12 30
12 12 30
12 12 30
12 12 30
12 12 30
12 12 30
12 12 30
12 12 30
12 12 30
12 12 30
12 12 30
12 12 30
12 12 30
12 12 30
12 12 30
12 12 30
12 12 30
12 12 30
12 12 30
12 12 30
12 12 30
12 12 30
12 12 30
12 12 30
12 12 30
12 12 30
12 12 30
12 12 30
12 12 30
12 12 30
12 12 30
12 12 30
12 12 30
12 12 30
12 12 30
12 12 30
12 12 30
12 12 30
12 12 30
12 12 30
12 12 30
12 12 30
12 12 30
12 12 30
12 12 30
12 12 30
12 12 30
12 12 30
12 12 30
12 12 30
12 12 30
12 12 30
12 12 30
12 12 30
12 12 30
12 12 30
12 12 30
12 12 30
12 12 30
12 12 30
12 12 30
12 12 30
12 12 30
12 12 30
230 51 51
230 51 51
230 51 51
230 51 51
230 51 51
230 51 51
230 51 51
230 51 51
230 51 51
230 51 51
230 51 51
230 51 51
230 51 51
230 51 51
230 51 51
230 51 51
230 51 51
230 51 51
230 51 51
230 51 51
230 51 51
230 51 51
230 51 51
230 51 51
230 51 51
230 51 51
230 51 51
230 51 51
230 51 51
230 51 51
12 12 30
12 12 30
12 12 30
12 12 30
12 12 30
12 12 30
12 12 30
12 12 30
51 127 230
51 127 230
51 127 230
51 127 230
51 127 230
51 127 230
51 127 230
51 127 230
51 127 230
51 127 230
51 127 230
51 127 230
51 127 230
51 127 230
51 127 230
51 127 230
51 127 230
51 127 230
51 127 230
51 127 230
51 127 230
51 127 230
51 127 230
51 127 230
51 127 230
51 127 230
51 127 230
51 127 230
51 127 230
51 127 230
51 127 230
51 127 230
51 127 230
51 127 230
51 127 230
51 127 230
51 127 230
51 127 230
51 127 230
51 127 230
12 12 30
12 12 30
12 12 30
12 12 30
12 12 30
12 12 30
12 12 30
12 12 30
12 12 30
12 12 30
12 12 30
12 12 30
12 12 30
12 12 30
12 12 30
12 12 30
12 12 30
12 12 30
12 12 30
12 12 30
12 12 30
12 12 30
12 12 30
12 12 30
12 12 30
12 12 30
12 12 30
12 12 30
12 12 30
12 12 30
12 12 30
12 12 30
12 12 30
12 12 30
12 12 30
12 12 30
12 12 30
12 12 30
12 12 30
12 12 30
12 12 30
12 12 30
12 12 30
12 12 30
12 12 30
12 12 30
12 12 30
12 12 30
12 12 30
12 12 30
12 12 30
12 12 30
12 12 30
12 12 30
12 12 30
12 12 30
12 12 30
12 12 30
12 12 30
12 12 30
12 12 30
12 12 30
12 12 30
12 12 30
12 12 30
12 12 30
12 12 30
12 12 30
12 12 30
12 12 30
12 12 30
12 12 30
12 12 30
12 12 30
12 12 30
12 12 30
12 12 30
12 12 30
12 12 30
12 12 30
12 12 30
12 12 30
12 12 30
12 12 30
12 12 30
12 12 30
12 12 30
12 12 30
12 12 30
12 12 30
12 12 30
12 12 30
12 12 30
12 12 30
12 12 30
12 12 30
12 12 30
12 12 30
12 12 30
12 12 30
12 12 30
12 12 30
12 12 30
12 12 30
12 12 30
12 12 30
12 12 30
12 12 30
12 12 30
12 12 30
12 12 30
12 12 30
12 12 30
12 12 30
12 12 30
12 12 30
12 12 30
12 12 30
12 12 30
12 12 30
12 12 30
12 12 30
12 12 30
12 12 30
12 12 30
12 12 30
12 12 30
12 12 30
12 12 30
12 12 30
12 12 30
12 12 30
12 12 30
12 12 30
12 12 30
12 12 30
12 12 30
12 12 30
12 12 30
12 12 30
12 12 30
12 12 30
12 12 30
12 12 30
12 12 30
12 12 30
12 12 30
12 12 30
12 12 30
12 12 30
12 12 30
12 12 30
12 12 30
12 12 30
12 12 30
12 12 30
12 12 30
12 12 30
12 12 30
12 12 30
12 12 30
12 12 30
12 12 30
12 12 30
12 12 30
12 12 30
12 12 30
12 12 30
12 12 30
12 12 30
12 12 30
12 12 30
12 12 30
12 12 30
12 12 30
12 12 30
12 12 30
12 12 30
12 12 30
12 12 30
12 12 30
12 12 30
12 12 30
12 12 30
12 12 30
12 12 30
12 12 30
12 12 30
12 12 30
12 12 30
12 12 30
12 12 30
12 12 30
12 12 30
12 12 30
12 12 30
12 12 30
12 12 30
12 12 30
12 12 30
12 12 30
12 12 30
12 12 30
12 12 30
12 12 30
12 12 30
12 12 30
12 12 30
12 12 30
12 12 30
12 12 30
12 12 30
12 12 30
12 12 30
12 12 30
12 12 30
12 12 30
12 12 30
12 12 30
12 12 30
12 12 30
12 12 30
12 12 30
12 12 30
12 12 30
12 12 30
12 12 30
12 12 30
12 12 30
12 12 30
12 12 30
12 12 30
12 12 30
12 12 30
12 12 30
12 12 30
12 12 30
12 12 30
12 12 30
12 12 30
12 12 30
12 12 30
12 12 30
12 12 30
12 12 30
12 12 30
12 12 30
12 12 30
12 12 30
12 12 30
12 12 30
12 12 30
12 12 30
12 12 30
12 12 30
12 12 30
12 12 30
12 12 30
12 12 30
12 12 30
12 12 30
12 12 30
12 12 30
12 12 30
12 12 30
12 12 30
12 12 30
12 12 30
12 12 30
12 12 30
12 12 30
12 12 30
12 12 30
12 12 30
12 12 30
12 12 30
12 12 30
12 12 30
12 12 30
12 12 30
12 12 30
12 12 30
12 12 30
12 12 30
12 12 30
12 12 30
12 12 30
12 12 30
12 12 30
12 12 30
12 12 30
12 12 30
12 12 30
12 12 30
12 12 30
12 12 30
12 12 30
12 12 30
12 12 30
12 12 30
12 12 30
12 12 30
12 12 30
12 12 30
12 12 30
12 12 30
12 12 30
12 12 30
12 12 30
12 12 30
12 12 30
12 12 30
12 12 30
12 12 30
12 12 30
12 12 30
12 12 30
12 12 30
12 12 30
12 12 30
12 12 30
230 51 51
230 51 51
230 51 51
230 51 51
230 51 51
230 51 51
230 51 51
230 51 51
230 51 51
230 51 51
230 51 51
230 51 51
230 51 51
230 51 51
230 51 51
230 51 51
230 51 51
230 51 51
230 51 51
230 51 51
230 51 51
230 51 51
230 51 51
230 51 51
230 51 51
230 51 51
230 51 51
230 51 51
230 51 51
230 51 51
230 51 51
230 51 51
12 12 30
12 12 30
12 12 30
12 12 30
12 12 30
12 12 30
12 12 30
51 127 230
51 127 230
51 127 230
51 127 230
51 127 230
51 127 230
51 127 230
51 127 230
51 127 230
51 127 230
51 127 230
51 127 230
51 127 230
51 127 230
51 127 230
51 127 230
51 127 230
51 127 230
51 127 230
51 127 230
51 127 230
51 127 230
51 127 230
51 127 230
51 127 230
51 127 230
51 127 230
51 127 230
51 127 230
51 127 230
51 127 230
51 127 230
51 127 230
51 127 230
51 127 230
51 127 230
51 127 230
51 127 230
51 127 230
51 127 230
12 12 30
12 12 30
12 12 30
12 12 30
12 12 30
12 12 30
12 12 30
12 12 30
12 12 30
12 12 30
12 12 30
12 12 30
12 12 30
12 12 30
12 12 30
12 12 30
12 12 30
12 12 30
12 12 30
12 12 30
12 12 30
12 12 30
12 12 30
12 12 30
12 12 30
12 12 30
12 12 30
12 12 30
12 12 30
12 12 30
12 12 30
12 12 30
12 12 30
12 12 30
12 12 30
12 12 30
12 12 30
12 12 30
12 12 30
12 12 30
12 12 30
12 12 30
12 12 30
12 12 30
12 12 30
12 12 30
12 12 30
12 12 30
12 12 30
12 12 30
12 12 30
12 12 30
12 12 30
12 12 30
12 12 30
12 12 30
12 12 30
12 12 30
12 12 30
12 12 30
12 12 30
12 12 30
12 12 30
12 12 30
12 12 30
12 12 30
12 12 30
12 12 30
12 12 30
12 12 30
12 12 30
12 12 30
12 12 30
12 12 30
12 12 30
12 12 30
12 12 30
12 12 30
12 12 30
12 12 30
12 12 30
12 12 30
12 12 30
12 12 30
12 12 30
12 12 30
12 12 30
12 12 30
12 12 30
12 12 30
12 12 30
12 12 30
12 12 30
12 12 30
12 12 30
12 12 30
12 12 30
12 12 30
12 12 30
12 12 30
12 12 30
12 12 30
12 12 30
12 12 30
12 12 30
12 12 30
12 12 30
12 12 30
12 12 30
12 12 30
12 12 30
12 12 30
12 12 30
12 12 30
12 12 30
12 12 30
12 12 30
12 12 30
12 12 30
12 12 30
12 12 30
12 12 30
12 12 30
12 12 30
12 12 30
12 12 30
12 12 30
12 12 30
12 12 30
12 12 30
12 12 30
12 12 30
12 12 30
12 12 30
12 12 30
12 12 30
12 12 30
12 12 30
12 12 30
12 12 30
12 12 30
12 12 30
12 12 30
12 12 30
12 12 30
12 12 30
12 12 30
12 12 30
12 12 30
12 12 30
12 12 30
12 12 30
12 12 30
12 12 30
12 12 30
12 12 30
12 12 30
12 12 30
12 12 30
12 12 30
12 12 30
12 12 30
12 12 30
12 12 30
12 12 30
12 12 30
12 12 30
12 12 30
12 12 30
12 12 30
12 12 30
12 12 30
12 12 30
12 12 30
12 12 30
12 12 30
12 12 30
12 12 30
12 12 30
12 12 30
12 12 30
12 12 30
12 12 30
12 12 30
12 12 30
12 12 30
12 12 30
12 12 30
12 12 30
12 12 30
12 12 30
12 12 30
12 12 30
12 12 30
12 12 30
12 12 30
12 12 30
12 12 30
12 12 30
12 12 30
12 12 30
12 12 30
12 12 30
12 12 30
12 12 30
12 12 30
12 12 30
12 12 30
12 12 30
12 12 30
12 12 30
12 12 30
12 12 30
12 12 30
12 12 30
12 12 30
12 12 30
12 12 30
12 12 30
12 12 30
12 12 30
12 12 30
12 12 30
12 12 30
12 12 30
12 12 30
12 12 30
12 12 30
12 12 30
12 12 30
12 12 30
12 12 30
12 12 30
12 12 30
12 12 30
12 12 30
12 12 30
12 12 30
12 12 30
12 12 30
12 12 30
12 12 30
12 12 30
12 12 30
12 12 30
12 12 30
12 12 30
12 12 30
12 12 30
12 12 30
12 12 30
12 12 30
12 12 30
12 12 30
12 12 30
12 12 30
12 12 30
12 12 30
12 12 30
12 12 30
12 12 30
12 12 30
12 12 30
12 12 30
12 12 30
12 12 30
12 12 30
12 12 30
12 12 30
12 12 30
12 12 30
12 12 30
12 12 30
12 12 30
12 12 30
12 12 30
12 12 30
12 12 30
12 12 30
12 12 30
12 12 30
12 12 30
12 12 30
12 12 30
12 12 30
12 12 30
12 12 30
12 12 30
12 12 30
12 12 30
12 12 30
12 12 30
12 12 30
12 12 30
12 12 30
12 12 30
12 12 30
12 12 30
12 12 30
12 12 30
12 12 30
12 12 30
12 12 30
12 12 30
12 12 30
12 12 30
12 12 30
12 12 30
12 12 30
12 12 30
12 12 30
12 12 30
12 12 30
12 12 30
12 12 30
12 12 30
12 12 30
12 12 30
12 12 30
12 12 30
230 51 51
230 51 51
230 51 51
230 51 51
230 51 51
230 51 51
230 51 51
230 51 51
230 51 51
230 51 51
230 51 51
230 51 51
230 51 51
230 51 51
230 51 51
230 51 51
230 51 51
230 51 51
230 51 51
230 51 51
230 51 51
230 51 51
230 51 51
230 51 51
230 51 51
230 51 51
230 51 51
230 51 51
230 51 51
230 51 51
230 51 51
230 51 51
230 51 51
230 51 51
12 12 30
12 12 30
12 12 30
12 12 30
12 12 30
51 127 230
51 127 230
51 127 230
51 127 230
51 127 230
51 127 230
51 127 230
51 127 230
51 127 230
51 127 230
51 127 230
51 127 230
51 127 230
51 127 230
51 127 230
51 127 230
51 127 230
51 127 230
51 127 230
51 127 230
51 127 230
51 127 230
51 127 230
51 127 230
51 127 230
51 127 230
51 127 230
51 127 230
51 127 230
51 127 230
51 127 230
51 127 230
51 127 230
51 127 230
51 127 230
51 127 230
51 127 230
51 127 230
51 127 230
51 127 230
51 127 230
51 127 230
12 12 30
12 12 30
12 12 30
12 12 30
12 12 30
12 12 30
12 12 30
12 12 30
12 12 30
12 12 30
12 12 30
12 12 30
12 12 30
12 12 30
12 12 30
12 12 30
12 12 30
12 12 30
12 12 30
12 12 30
12 12 30
12 12 30
12 12 30
12 12 30
12 12 30
12 12 30
12 12 30
12 12 30
12 12 30
12 12 30
12 12 30
12 12 30
12 12 30
12 12 30
12 12 30
12 12 30
12 12 30
12 12 30
12 12 30
12 12 30
12 12 30
12 12 30
12 12 30
12 12 30
12 12 30
12 12 30
12 12 30
12 12 30
12 12 30
12 12 30
12 12 30
12 12 30
12 12 30
12 12 30
12 12 30
12 12 30
12 12 30
12 12 30
12 12 30
12 12 30
12 12 30
12 12 30
12 12 30
12 12 30
12 12 30
12 12 30
12 12 30
12 12 30
12 12 30
12 12 30
12 12 30
12 12 30
12 12 30
12 12 30
12 12 30
12 12 30
12 12 30
12 12 30
12 12 30
12 12 30
12 12 30
12 12 30
12 12 30
12 12 30
12 12 30
12 12 30
12 12 30
12 12 30
12 12 30
12 12 30
12 12 30
12 12 30
12 12 30
12 12 30
12 12 30
12 12 30
12 12 30
12 12 30
12 12 30
12 12 30
12 12 30
12 12 30
12 12 30
12 12 30
12 12 30
12 12 30
12 12 30
12 12 30
12 12 30
12 12 30
12 12 30
12 12 30
12 12 30
12 12 30
12 12 30
12 12 30
12 12 30
12 12 30
12 12 30
12 12 30
12 12 30
12 12 30
12 12 30
12 12 30
12 12 30
12 12 30
12 12 30
12 12 30
12 12 30
12 12 30
12 12 30
12 12 30
12 12 30
12 12 30
12 12 30
12 12 30
12 12 30
12 12 30
12 12 30
12 12 30
12 12 30
12 12 30
12 12 30
12 12 30
12 12 30
12 12 30
12 12 30
12 12 30
12 12 30
12 12 30
12 12 30
12 12 30
12 12 30
12 12 30
12 12 30
12 12 30
12 12 30
12 12 30
12 12 30
12 12 30
12 12 30
12 12 30
12 12 30
12 12 30
12 12 30
12 12 30
12 12 30
12 12 30
12 12 30
12 12 30
12 12 30
12 12 30
12 12 30
12 12 30
12 12 30
12 12 30
12 12 30
12 12 30
12 12 30
12 12 30
12 12 30
12 12 30
12 12 30
12 12 30
12 12 30
12 12 30
12 12 30
12 12 30
12 12 30
12 12 30
12 12 30
12 12 30
12 12 30
12 12 30
12 12 30
12 12 30
12 12 30
12 12 30
12 12 30
12 12 30
12 12 30
12 12 30
12 12 30
12 12 30
12 12 30
12 12 30
12 12 30
12 12 30
12 12 30
12 12 30
12 12 30
12 12 30
12 12 30
12 12 30
12 12 30
12 12 30
12 12 30
12 12 30
12 12 30
12 12 30
12 12 30
12 12 30
12 12 30
12 12 30
12 12 30
12 12 30
12 12 30
12 12 30
12 12 30
12 12 30
12 12 30
12 12 30
12 12 30
12 12 30
12 12 30
12 12 30
12 12 30
12 12 30
12 12 30
12 12 30
12 12 30
12 12 30
12 12 30
12 12 30
12 12 30
12 12 30
12 12 30
12 12 30
12 12 30
12 12 30
12 12 30
12 12 30
12 12 30
12 12 30
12 12 30
12 12 30
12 12 30
12 12 30
12 12 30
12 12 30
12 12 30
12 12 30
12 12 30
12 12 30
12 12 30
12 12 30
12 12 30
12 12 30
12 12 30
12 12 30
12 12 30
12 12 30
12 12 30
12 12 30
12 12 30
12 12 30
12 12 30
12 12 30
12 12 30
12 12 30
12 12 30
12 12 30
12 12 30
12 12 30
12 12 30
12 12 30
12 12 30
12 12 30
12 12 30
12 12 30
12 12 30
12 12 30
12 12 30
12 12 30
12 12 30
12 12 30
12 12 30
12 12 30
12 12 30
12 12 30
12 12 30
12 12 30
12 12 30
12 12 30
12 12 30
12 12 30
12 12 30
12 12 30
12 12 30
12 12 30
12 12 30
12 12 30
12 12 30
12 12 30
12 12 30
12 12 30
12 12 30
12 12 30
12 12 30
230 51 51
230 51 51
230 51 51
230 51 51
230 51 51
230 51 51
230 51 51
230 51 51
230 51 51
230 51 51
230 51 51
230 51 51
230 51 51
230 51 51
230 51 51
230 51 51
230 51 51
230 51 51
230 51 51
230 51 51
230 51 51
230 51 51
230 51 51
230 51 51
230 51 51
230 51 51
230 51 51
230 51 51
230 51 51
230 51 51
230 51 51
230 51 51
230 51 51
230 51 51
12 12 30
12 12 30
12 12 30
12 12 30
12 12 30
51 127 230
51 127 230
51 127 230
51 127 230
51 127 230
51 127 230
51 127 230
51 127 230
51 127 230
51 127 230
51 127 230
51 127 230
51 127 230
51 127 230
51 127 230
51 127 230
51 127 230
51 127 230
51 127 230
51 127 230
51 127 230
51 127 230
51 127 230
51 127 230
51 127 230
51 127 230
51 127 230
51 127 230
51 127 230
51 127 230
51 127 230
51 127 230
51 127 230
51 127 230
51 127 230
51 127 230
51 127 230
51 127 230
51 127 230
51 127 230
51 127 230
51 127 230
12 12 30
12 12 30
12 12 30
12 12 30
12 12 30
12 12 30
12 12 30
12 12 30
12 12 30
12 12 30
12 12 30
12 12 30
12 12 30
12 12 30
12 12 30
12 12 30
12 12 30
12 12 30
12 12 30
12 12 30
12 12 30
12 12 30
12 12 30
12 12 30
12 12 30
12 12 30
12 12 30
12 12 30
12 12 30
12 12 30
12 12 30
12 12 30
12 12 30
12 12 30
12 12 30
12 12 30
12 12 30
12 12 30
12 12 30
12 12 30
12 12 30
12 12 30
12 12 30
12 12 30
12 12 30
12 12 30
12 12 30
12 12 30
12 12 30
12 12 30
12 12 30
12 12 30
12 12 30
12 12 30
12 12 30
12 12 30
12 12 30
12 12 30
12 12 30
12 12 30
12 12 30
12 12 30
12 12 30
12 12 30
12 12 30
12 12 30
12 12 30
12 12 30
12 12 30
12 12 30
12 12 30
12 12 30
12 12 30
12 12 30
12 12 30
12 12 30
12 12 30
12 12 30
12 12 30
12 12 30
12 12 30
12 12 30
12 12 30
12 12 30
12 12 30
12 12 30
12 12 30
12 12 30
12 12 30
12 12 30
12 12 30
12 12 30
12 12 30
12 12 30
12 12 30
12 12 30
12 12 30
12 12 30
12 12 30
12 12 30
12 12 30
12 12 30
12 12 30
12 12 30
12 12 30
12 12 30
12 12 30
12 12 30
12 12 30
12 12 30
12 12 30
12 12 30
12 12 30
12 12 30
12 12 30
12 12 30
12 12 30
12 12 30
12 12 30
12 12 30
12 12 30
12 12 30
12 12 30
12 12 30
12 12 30
12 12 30
12 12 30
12 12 30
12 12 30
12 12 30
12 12 30
12 12 30
12 12 30
12 12 30
12 12 30
12 12 30
12 12 30
12 12 30
12 12 30
12 12 30
12 12 30
12 12 30
12 12 30
12 12 30
12 12 30
12 12 30
12 12 30
12 12 30
12 12 30
12 12 30
12 12 30
12 12 30
12 12 30
12 12 30
12 12 30
12 12 30
12 12 30
12 12 30
12 12 30
12 12 30
12 12 30
12 12 30
12 12 30
12 12 30
12 12 30
12 12 30
12 12 30
12 12 30
12 12 30
12 12 30
12 12 30
12 12 30
12 12 30
12 12 30
12 12 30
12 12 30
12 12 30
12 12 30
12 12 30
12 12 30
12 12 30
12 12 30
12 12 30
12 12 30
12 12 30
12 12 30
12 12 30
12 12 30
12 12 30
12 12 30
12 12 30
12 12 30
12 12 30
12 12 30
12 12 30
12 12 30
12 12 30
12 12 30
12 12 30
12 12 30
12 12 30
12 12 30
12 12 30
12 12 30
12 12 30
12 12 30
12 12 30
12 12 30
12 12 30
12 12 30
12 12 30
12 12 30
12 12 30
12 12 30
12 12 30
12 12 30
12 12 30
12 12 30
12 12 30
12 12 30
12 12 30
12 12 30
12 12 30
12 12 30
12 12 30
12 12 30
12 12 30
12 12 30
12 12 30
12 12 30
12 12 30
12 12 30
12 12 30
12 12 30
12 12 30
12 12 30
12 12 30
12 12 30
12 12 30
12 12 30
12 12 30
12 12 30
12 12 30
12 12 30
12 12 30
12 12 30
12 12 30
12 12 30
12 12 30
12 12 30
12 12 30
12 12 30
12 12 30
12 12 30
12 12 30
12 12 30
12 12 30
12 12 30
12 12 30
12 12 30
12 12 30
12 12 30
12 12 30
12 12 30
12 12 30
12 12 30
12 12 30
12 12 30
12 12 30
12 12 30
12 12 30
12 12 30
12 12 30
12 12 30
12 12 30
12 12 30
12 12 30
12 12 30
12 12 30
12 12 30
12 12 30
12 12 30
12 12 30
12 12 30
12 12 30
12 12 30
12 12 30
12 12 30
12 12 30
12 12 30
12 12 30
12 12 30
12 12 30
12 12 30
12 12 30
12 12 30
12 12 30
12 12 30
12 12 30
12 12 30
12 12 30
12 12 30
12 12 30
12 12 30
12 12 30
12 12 30
12 12 30
12 12 30
12 12 30
12 12 30
12 12 30
12 12 30
12 12 30
12 12 30
12 12 30
12 12 30
12 12 30
12 12 30
230 51 51
230 51 51
230 51 51
230 51 51
230 51 51
230 51 51
230 51 51
230 51 51
230 51 51
230 51 51
230 51 51
230 51 51
230 51 51
230 51 51
230 51 51
230 51 51
230 51 51
230 51 51
230 51 51
230 51 51
230 51 51
230 51 51
230 51 51
230 51 51
230 51 51
230 51 51
230 51 51
230 51 51
230 51 51
230 51 51
230 51 51
230 51 51
230 51 51
230 51 51
230 51 51
230 51 51
12 12 30
12 12 30
12 12 30
12 12 30
51 127 230
51 127 230
51 127 230
51 127 230
51 127 230
51 127 230
51 127 230
51 127 230
51 127 230
51 127 230
51 127 230
51 127 230
51 127 230
51 127 230
51 127 230
51 127 230
51 127 230
51 127 230
51 127 230
51 127 230
51 127 230
51 127 230
51 127 230
51 127 230
51 127 230
51 127 230
51 127 230
51 127 230
51 127 230
51 127 230
51 127 230
51 127 230
51 127 230
51 127 230
51 127 230
51 127 230
51 127 230
51 127 230
51 127 230
51 127 230
51 127 230
51 127 230
12 12 30
12 12 30
12 12 30
12 12 30
12 12 30
12 12 30
12 12 30
12 12 30
12 12 30
12 12 30
12 12 30
12 12 30
12 12 30
12 12 30
12 12 30
12 12 30
12 12 30
12 12 30
12 12 30
12 12 30
12 12 30
12 12 30
12 12 30
12 12 30
12 12 30
12 12 30
12 12 30
12 12 30
12 12 30
12 12 30
12 12 30
12 12 30
12 12 30
12 12 30
12 12 30
12 12 30
12 12 30
12 12 30
12 12 30
12 12 30
12 12 30
12 12 30
12 12 30
12 12 30
12 12 30
12 12 30
12 12 30
12 12 30
12 12 30
12 12 30
12 12 30
12 12 30
12 12 30
12 12 30
12 12 30
12 12 30
12 12 30
12 12 30
12 12 30
12 12 30
12 12 30
12 12 30
12 12 30
12 12 30
12 12 30
12 12 30
12 12 30
12 12 30
12 12 30
12 12 30
12 12 30
12 12 30
12 12 30
12 12 30
12 12 30
12 12 30
12 12 30
12 12 30
12 12 30
12 12 30
12 12 30
12 12 30
12 12 30
12 12 30
12 12 30
12 12 30
12 12 30
12 12 30
12 12 30
12 12 30
12 12 30
12 12 30
12 12 30
12 12 30
12 12 30
12 12 30
12 12 30
12 12 30
12 12 30
12 12 30
12 12 30
12 12 30
12 12 30
12 12 30
12 12 30
12 12 30
12 12 30
12 12 30
12 12 30
12 12 30
12 12 30
12 12 30
12 12 30
12 12 30
12 12 30
12 12 30
12 12 30
12 12 30
12 12 30
12 12 30
12 12 30
12 12 30
12 12 30
12 12 30
12 12 30
12 12 30
12 12 30
12 12 30
12 12 30
12 12 30
12 12 30
12 12 30
12 12 30
12 12 30
12 12 30
12 12 30
12 12 30
12 12 30
12 12 30
12 12 30
12 12 30
12 12 30
12 12 30
12 12 30
12 12 30
12 12 30
12 12 30
12 12 30
12 12 30
12 12 30
12 12 30
12 12 30
12 12 30
12 12 30
12 12 30
12 12 30
12 12 30
12 12 30
12 12 30
12 12 30
12 12 30
12 12 30
12 12 30
12 12 30
12 12 30
12 12 30
12 12 30
12 12 30
12 12 30
12 12 30
12 12 30
12 12 30
12 12 30
12 12 30
12 12 30
12 12 30
12 12 30
12 12 30
12 12 30
12 12 30
12 12 30
12 12 30
12 12 30
12 12 30
12 12 30
12 12 30
12 12 30
12 12 30
12 12 30
12 12 30
12 12 30
12 12 30
12 12 30
12 12 30
12 12 30
12 12 30
12 12 30
12 12 30
12 12 30
12 12 30
12 12 30
12 12 30
12 12 30
12 12 30
12 12 30
12 12 30
12 12 30
12 12 30
12 12 30
12 12 30
12 12 30
12 12 30
12 12 30
12 12 30
12 12 30
12 12 30
12 12 30
12 12 30
12 12 30
12 12 30
12 12 30
12 12 30
12 12 30
12 12 30
12 12 30
12 12 30
12 12 30
12 12 30
12 12 30
12 12 30
12 12 30
12 12 30
12 12 30
12 12 30
12 12 30
12 12 30
12 12 30
12 12 30
12 12 30
12 12 30
12 12 30
12 12 30
12 12 30
12 12 30
12 12 30
12 12 30
12 12 30
12 12 30
12 12 30
12 12 30
12 12 30
12 12 30
12 12 30
12 12 30
12 12 30
12 12 30
12 12 30
12 12 30
12 12 30
12 12 30
12 12 30
12 12 30
12 12 30
12 12 30
12 12 30
12 12 30
12 12 30
12 12 30
12 12 30
12 12 30
12 12 30
12 12 30
12 12 30
12 12 30
12 12 30
12 12 30
12 12 30
12 12 30
12 12 30
12 12 30
12 12 30
12 12 30
12 12 30
12 12 30
12 12 30
12 12 30
12 12 30
12 12 30
12 12 30
12 12 30
12 12 30
12 12 30
12 12 30
12 12 30
12 12 30
12 12 30
12 12 30
12 12 30
12 12 30
12 12 30
12 12 30
12 12 30
12 12 30
12 12 30
12 12 30
12 12 30
12 12 30
12 12 30
12 12 30
12 12 30
12 12 30
12 12 30
12 12 30
12 12 30
12 12 30
12 12 30
12 12 30
230 51 51
230 51 51
230 51 51
230 51 51
230 51 51
230 51 51
230 51 51
230 51 51
230 51 51
230 51 51
230 51 51
230 51 51
230 51 51
230 51 51
230 51 51
230 51 51
230 51 51
230 51 51
230 51 51
230 51 51
230 51 51
230 51 51
230 51 51
230 51 51
230 51 51
230 51 51
230 51 51
230 51 51
230 51 51
230 51 51
230 51 51
230 51 51
230 51 51
230 51 51
230 51 51
230 51 51
230 51 51
230 51 51
12 12 30
12 12 30
51 127 230
51 127 230
51 127 230
51 127 230
51 127 230
51 127 230
51 127 230
51 127 230
51 127 230
51 127 230
51 127 230
51 127 230
51 127 230
51 127 230
51 127 230
51 127 230
51 127 230
51 127 230
51 127 230
51 127 230
51 127 230
51 127 230
51 127 230
51 127 230
51 127 230
51 127 230
51 127 230
51 127 230
51 127 230
51 127 230
51 127 230
51 127 230
51 127 230
51 127 230
51 127 230
51 127 230
51 127 230
51 127 230
51 127 230
51 127 230
51 127 230
51 127 230
51 127 230
51 127 230
12 12 30
12 12 30
12 12 30
12 12 30
12 12 30
12 12 30
12 12 30
12 12 30
12 12 30
12 12 30
12 12 30
12 12 30
12 12 30
12 12 30
12 12 30
12 12 30
12 12 30
12 12 30
12 12 30
12 12 30
12 12 30
12 12 30
12 12 30
12 12 30
12 12 30
12 12 30
12 12 30
12 12 30
12 12 30
12 12 30
12 12 30
12 12 30
12 12 30
12 12 30
12 12 30
12 12 30
12 12 30
12 12 30
12 12 30
12 12 30
12 12 30
12 12 30
12 12 30
12 12 30
12 12 30
12 12 30
12 12 30
12 12 30
12 12 30
12 12 30
12 12 30
12 12 30
12 12 30
12 12 30
12 12 30
12 12 30
12 12 30
12 12 30
12 12 30
12 12 30
12 12 30
12 12 30
12 12 30
12 12 30
12 12 30
12 12 30
12 12 30
12 12 30
12 12 30
12 12 30
12 12 30
12 12 30
12 12 30
12 12 30
12 12 30
12 12 30
12 12 30
12 12 30
12 12 30
12 12 30
12 12 30
12 12 30
12 12 30
12 12 30
12 12 30
12 12 30
12 12 30
12 12 30
12 12 30
12 12 30
12 12 30
12 12 30
12 12 30
12 12 30
12 12 30
12 12 30
12 12 30
12 12 30
12 12 30
12 12 30
12 12 30
12 12 30
12 12 30
12 12 30
12 12 30
12 12 30
12 12 30
12 12 30
12 12 30
12 12 30
12 12 30
12 12 30
12 12 30
12 12 30
12 12 30
12 12 30
12 12 30
12 12 30
12 12 30
12 12 30
12 12 30
12 12 30
12 12 30
12 12 30
12 12 30
12 12 30
12 12 30
12 12 30
12 12 30
12 12 30
12 12 30
12 12 30
12 12 30
12 12 30
12 12 30
12 12 30
12 12 30
12 12 30
12 12 30
12 12 30
12 12 30
12 12 30
12 12 30
12 12 30
12 12 30
12 12 30
12 12 30
12 12 30
12 12 30
12 12 30
12 12 30
12 12 30
12 12 30
12 12 30
12 12 30
12 12 30
12 12 30
12 12 30
12 12 30
12 12 30
12 12 30
12 12 30
12 12 30
12 12 30
12 12 30
12 12 30
12 12 30
12 12 30
12 12 30
12 12 30
12 12 30
12 12 30
12 12 30
12 12 30
12 12 30
12 12 30
12 12 30
12 12 30
12 12 30
12 12 30
12 12 30
12 12 30
12 12 30
12 12 30
12 12 30
12 12 30
12 12 30
12 12 30
12 12 30
12 12 30
12 12 30
12 12 30
12 12 30
12 12 30
12 12 30
12 12 30
12 12 30
12 12 30
12 12 30
12 12 30
12 12 30
12 12 30
12 12 30
12 12 30
12 12 30
12 12 30
12 12 30
12 12 30
12 12 30
12 12 30
12 12 30
12 12 30
12 12 30
12 12 30
12 12 30
12 12 30
12 12 30
12 12 30
12 12 30
12 12 30
12 12 30
12 12 30
12 12 30
12 12 30
12 12 30
12 12 30
12 12 30
12 12 30
12 12 30
12 12 30
12 12 30
12 12 30
12 12 30
12 12 30
12 12 30
12 12 30
12 12 30
12 12 30
12 12 30
12 12 30
12 12 30
12 12 30
12 12 30
12 12 30
12 12 30
12 12 30
12 12 30
12 12 30
12 12 30
12 12 30
12 12 30
12 12 30
12 12 30
12 12 30
12 12 30
12 12 30
12 12 30
12 12 30
12 12 30
12 12 30
12 12 30
12 12 30
12 12 30
12 12 30
12 12 30
12 12 30
12 12 30
12 12 30
12 12 30
12 12 30
12 12 30
12 12 30
12 12 30
12 12 30
12 12 30
12 12 30
12 12 30
12 12 30
12 12 30
12 12 30
12 12 30
12 12 30
12 12 30
12 12 30
12 12 30
12 12 30
12 12 30
12 12 30
12 12 30
12 12 30
12 12 30
12 12 30
12 12 30
12 12 30
12 12 30
12 12 30
12 12 30
12 12 30
12 12 30
12 12 30
12 12 30
12 12 30
12 12 30
12 12 30
12 12 30
12 12 30
12 12 30
12 12 30
12 12 30
12 12 30
12 12 30
12 12 30
12 12 30
12 12 30
12 12 30
12 12 30
230 51 51
230 51 51
230 51 51
230 51 51
230 51 51
230 51 51
230 51 51
230 51 51
230 51 51
230 51 51
230 51 51
230 51 51
230 51 51
230 51 51
230 51 51
230 51 51
230 51 51
230 51 51
230 51 51
230 51 51
230 51 51
230 51 51
230 51 51
230 51 51
230 51 51
230 51 51
230 51 51
230 51 51
230 51 51
230 51 51
230 51 51
230 51 51
230 51 51
230 51 51
230 51 51
230 51 51
230 51 51
230 51 51
12 12 30
12 12 30
51 127 230
51 127 230
51 127 230
51 127 230
51 127 230
51 127 230
51 127 230
51 127 230
51 127 230
51 127 230
51 127 230
51 127 230
51 127 230
51 127 230
51 127 230
51 127 230
51 127 230
51 127 230
51 127 230
51 127 230
51 127 230
51 127 230
51 127 230
51 127 230
51 127 230
51 127 230
51 127 230
51 127 230
51 127 230
51 127 230
51 127 230
51 127 230
51 127 230
51 127 230
51 127 230
51 127 230
51 127 230
51 127 230
51 127 230
51 127 230
51 127 230
51 127 230
51 127 230
51 127 230
12 12 30
12 12 30
12 12 30
12 12 30
12 12 30
12 12 30
12 12 30
12 12 30
12 12 30
12 12 30
12 12 30
12 12 30
12 12 30
12 12 30
12 12 30
12 12 30
12 12 30
12 12 30
12 12 30
12 12 30
12 12 30
12 12 30
12 12 30
12 12 30
12 12 30
12 12 30
12 12 30
12 12 30
12 12 30
12 12 30
12 12 30
12 12 30
12 12 30
12 12 30
12 12 30
12 12 30
12 12 30
12 12 30
12 12 30
12 12 30
12 12 30
12 12 30
12 12 30
12 12 30
12 12 30
12 12 30
12 12 30
12 12 30
12 12 30
12 12 30
12 12 30
12 12 30
12 12 30
12 12 30
12 12 30
12 12 30
12 12 30
12 12 30
12 12 30
12 12 30
12 12 30
12 12 30
12 12 30
12 12 30
12 12 30
12 12 30
12 12 30
12 12 30
12 12 30
12 12 30
12 12 30
12 12 30
12 12 30
12 12 30
12 12 30
12 12 30
12 12 30
12 12 30
12 12 30
12 12 30
12 12 30
12 12 30
12 12 30
12 12 30
12 12 30
12 12 30
12 12 30
12 12 30
12 12 30
12 12 30
12 12 30
12 12 30
12 12 30
12 12 30
12 12 30
12 12 30
12 12 30
12 12 30
12 12 30
12 12 30
12 12 30
12 12 30
12 12 30
12 12 30
12 12 30
12 12 30
12 12 30
12 12 30
12 12 30
12 12 30
12 12 30
12 12 30
12 12 30
12 12 30
12 12 30
12 12 30
12 12 30
12 12 30
12 12 30
12 12 30
12 12 30
12 12 30
12 12 30
12 12 30
12 12 30
12 12 30
12 12 30
12 12 30
12 12 30
12 12 30
12 12 30
12 12 30
12 12 30
12 12 30
12 12 30
12 12 30
12 12 30
12 12 30
12 12 30
12 12 30
12 12 30
12 12 30
12 12 30
12 12 30
12 12 30
12 12 30
12 12 30
12 12 30
12 12 30
12 12 30
12 12 30
12 12 30
12 12 30
12 12 30
12 12 30
12 12 30
12 12 30
12 12 30
12 12 30
12 12 30
12 12 30
12 12 30
12 12 30
12 12 30
12 12 30
12 12 30
12 12 30
12 12 30
12 12 30
12 12 30
12 12 30
12 12 30
12 12 30
12 12 30
12 12 30
12 12 30
12 12 30
12 12 30
12 12 30
12 12 30
12 12 30
12 12 30
12 12 30
12 12 30
12 12 30
12 12 30
12 12 30
12 12 30
12 12 30
12 12 30
12 12 30
12 12 30
12 12 30
12 12 30
12 12 30
12 12 30
12 12 30
12 12 30
12 12 30
12 12 30
12 12 30
12 12 30
12 12 30
12 12 30
12 12 30
12 12 30
12 12 30
12 12 30
12 12 30
12 12 30
12 12 30
12 12 30
12 12 30
12 12 30
12 12 30
12 12 30
12 12 30
12 12 30
12 12 30
12 12 30
12 12 30
12 12 30
12 12 30
12 12 30
12 12 30
12 12 30
12 12 30
12 12 30
12 12 30
12 12 30
12 12 30
12 12 30
12 12 30
12 12 30
12 12 30
12 12 30
12 12 30
12 12 30
12 12 30
12 12 30
12 12 30
12 12 30
12 12 30
12 12 30
12 12 30
12 12 30
12 12 30
12 12 30
12 12 30
12 12 30
12 12 30
12 12 30
12 12 30
12 12 30
12 12 30
12 12 30
12 12 30
12 12 30
12 12 30
12 12 30
12 12 30
12 12 30
12 12 30
12 12 30
12 12 30
12 12 30
12 12 30
12 12 30
12 12 30
12 12 30
12 12 30
12 12 30
12 12 30
12 12 30
12 12 30
12 12 30
12 12 30
12 12 30
12 12 30
12 12 30
12 12 30
12 12 30
12 12 30
12 12 30
12 12 30
12 12 30
12 12 30
12 12 30
12 12 30
12 12 30
12 12 30
12 12 30
12 12 30
12 12 30
12 12 30
12 12 30
12 12 30
12 12 30
12 12 30
12 12 30
12 12 30
12 12 30
12 12 30
12 12 30
12 12 30
12 12 30
12 12 30
12 12 30
12 12 30
12 12 30
12 12 30
12 12 30
12 12 30
12 12 30
12 12 30
230 51 51
230 51 51
230 51 51
230 51 51
230 51 51
230 51 51
230 51 51
230 51 51
230 51 51
230 51 51
230 51 51
230 51 51
230 51 51
230 51 51
230 51 51
230 51 51
230 51 51
230 51 51
230 51 51
230 51 51
230 51 51
230 51 51
230 51 51
230 51 51
230 51 51
230 51 51
230 51 51
230 51 51
230 51 51
230 51 51
230 51 51
230 51 51
230 51 51
230 51 51
230 51 51
230 51 51
230 51 51
230 51 51
230 51 51
230 51 51
12 12 30
51 127 230
51 127 230
51 127 230
51 127 230
51 127 230
51 127 230
51 127 230
51 127 230
51 127 230
51 127 230
51 127 230
51 127 230
51 127 230
51 127 230
51 127 230
51 127 230
51 127 230
51 127 230
51 127 230
51 127 230
51 127 230
51 127 230
51 127 230
51 127 230
51 127 230
51 127 230
51 127 230
51 127 230
51 127 230
51 127 230
51 127 230
51 127 230
51 127 230
51 127 230
51 127 230
51 127 230
51 127 230
51 127 230
51 127 230
51 127 230
51 127 230
51 127 230
51 127 230
51 127 230
12 12 30
12 12 30
12 12 30
12 12 30
12 12 30
12 12 30
12 12 30
12 12 30
12 12 30
12 12 30
12 12 30
12 12 30
12 12 30
12 12 30
12 12 30
12 12 30
12 12 30
12 12 30
12 12 30
12 12 30
12 12 30
12 12 30
12 12 30
12 12 30
12 12 30
12 12 30
12 12 30
12 12 30
12 12 30
12 12 30
12 12 30
12 12 30
12 12 30
12 12 30
12 12 30
12 12 30
12 12 30
12 12 30
12 12 30
12 12 30
12 12 30
12 12 30
12 12 30
12 12 30
12 12 30
12 12 30
12 12 30
12 12 30
12 12 30
12 12 30
12 12 30
12 12 30
12 12 30
12 12 30
12 12 30
12 12 30
12 12 30
12 12 30
12 12 30
12 12 30
12 12 30
12 12 30
12 12 30
12 12 30
12 12 30
12 12 30
12 12 30
12 12 30
12 12 30
12 12 30
12 12 30
12 12 30
12 12 30
12 12 30
12 12 30
12 12 30
12 12 30
12 12 30
12 12 30
12 12 30
12 12 30
12 12 30
12 12 30
12 12 30
12 12 30
12 12 30
12 12 30
12 12 30
12 12 30
12 12 30
12 12 30
12 12 30
12 12 30
12 12 30
12 12 30
12 12 30
12 12 30
12 12 30
12 12 30
12 12 30
12 12 30
12 12 30
12 12 30
12 12 30
12 12 30
12 12 30
12 12 30
12 12 30
12 12 30
12 12 30
12 12 30
12 12 30
12 12 30
12 12 30
12 12 30
12 12 30
12 12 30
12 12 30
12 12 30
12 12 30
12 12 30
12 12 30
12 12 30
12 12 30
12 12 30
12 12 30
12 12 30
12 12 30
12 12 30
12 12 30
12 12 30
12 12 30
12 12 30
12 12 30
12 12 30
12 12 30
12 12 30
12 12 30
12 12 30
12 12 30
12 12 30
12 12 30
12 12 30
12 12 30
12 12 30
12 12 30
12 12 30
12 12 30
12 12 30
12 12 30
12 12 30
12 12 30
12 12 30
12 12 30
12 12 30
12 12 30
12 12 30
12 12 30
12 12 30
12 12 30
12 12 30
12 12 30
12 12 30
12 12 30
12 12 30
12 12 30
12 12 30
12 12 30
12 12 30
12 12 30
12 12 30
12 12 30
12 12 30
12 12 30
12 12 30
12 12 30
12 12 30
12 12 30
12 12 30
12 12 30
12 12 30
12 12 30
12 12 30
12 12 30
12 12 30
12 12 30
12 12 30
12 12 30
12 12 30
12 12 30
12 12 30
12 12 30
12 12 30
12 12 30
12 12 30
12 12 30
12 12 30
12 12 30
12 12 30
12 12 30
12 12 30
12 12 30
12 12 30
12 12 30
12 12 30
12 12 30
12 12 30
12 12 30
12 12 30
12 12 30
12 12 30
12 12 30
12 12 30
12 12 30
12 12 30
12 12 30
12 12 30
12 12 30
12 12 30
12 12 30
12 12 30
12 12 30
12 12 30
12 12 30
12 12 30
12 12 30
12 12 30
12 12 30
12 12 30
12 12 30
12 12 30
12 12 30
12 12 30
12 12 30
12 12 30
12 12 30
12 12 30
12 12 30
12 12 30
12 12 30
12 12 30
12 12 30
12 12 30
12 12 30
12 12 30
12 12 30
12 12 30
12 12 30
12 12 30
12 12 30
12 12 30
12 12 30
12 12 30
12 12 30
12 12 30
12 12 30
12 12 30
12 12 30
12 12 30
12 12 30
12 12 30
12 12 30
12 12 30
12 12 30
12 12 30
12 12 30
12 12 30
12 12 30
12 12 30
12 12 30
12 12 30
12 12 30
12 12 30
12 12 30
12 12 30
12 12 30
12 12 30
12 12 30
12 12 30
12 12 30
12 12 30
12 12 30
12 12 30
12 12 30
12 12 30
12 12 30
12 12 30
12 12 30
12 12 30
12 12 30
12 12 30
12 12 30
12 12 30
12 12 30
12 12 30
12 12 30
12 12 30
12 12 30
12 12 30
12 12 30
12 12 30
12 12 30
12 12 30
12 12 30
12 12 30
12 12 30
12 12 30
12 12 30
12 12 30
12 12 30
12 12 30
12 12 30
12 12 30
12 12 30
12 12 30
230 51 51
230 51 51
230 51 51
230 51 51
230 51 51
230 51 51
230 51 51
230 51 51
230 51 51
230 51 51
230 51 51
230 51 51
230 51 51
230 51 51
230 51 51
230 51 51
230 51 51
230 51 51
230 51 51
230 51 51
230 51 51
230 51 51
230 51 51
230 51 51
230 51 51
230 51 51
230 51 51
230 51 51
230 51 51
230 51 51
230 51 51
230 51 51
230 51 51
230 51 51
230 51 51
230 51 51
230 51 51
230 51 51
230 51 51
230 51 51
12 12 30
51 127 230
51 127 230
51 127 230
51 127 230
51 127 230
51 127 230
51 127 230
51 127 230
51 127 230
51 127 230
51 127 230
51 127 230
51 127 230
51 127 230
51 127 230
51 127 230
51 127 230
51 127 230
51 127 230
51 127 230
51 127 230
51 127 230
51 127 230
51 127 230
51 127 230
51 127 230
51 127 230
51 127 230
51 127 230
51 127 230
51 127 230
51 127 230
51 127 230
51 127 230
51 127 230
51 127 230
51 127 230
51 127 230
51 127 230
51 127 230
51 127 230
51 127 230
51 127 230
51 127 230
12 12 30
12 12 30
12 12 30
12 12 30
12 12 30
12 12 30
12 12 30
12 12 30
12 12 30
12 12 30
12 12 30
12 12 30
12 12 30
12 12 30
12 12 30
12 12 30
12 12 30
12 12 30
12 12 30
12 12 30
12 12 30
12 12 30
12 12 30
12 12 30
12 12 30
12 12 30
12 12 30
12 12 30
12 12 30
12 12 30
12 12 30
12 12 30
12 12 30
12 12 30
12 12 30
12 12 30
12 12 30
12 12 30
12 12 30
12 12 30
12 12 30
12 12 30
12 12 30
12 12 30
12 12 30
12 12 30
12 12 30
12 12 30
12 12 30
12 12 30
12 12 30
12 12 30
12 12 30
12 12 30
12 12 30
12 12 30
12 12 30
12 12 30
12 12 30
12 12 30
12 12 30
12 12 30
12 12 30
12 12 30
12 12 30
12 12 30
12 12 30
12 12 30
12 12 30
12 12 30
12 12 30
12 12 30
12 12 30
12 12 30
12 12 30
12 12 30
12 12 30
12 12 30
12 12 30
12 12 30
12 12 30
12 12 30
12 12 30
12 12 30
12 12 30
12 12 30
12 12 30
12 12 30
12 12 30
12 12 30
12 12 30
12 12 30
12 12 30
12 12 30
12 12 30
12 12 30
12 12 30
12 12 30
12 12 30
12 12 30
12 12 30
12 12 30
12 12 30
12 12 30
12 12 30
12 12 30
12 12 30
12 12 30
12 12 30
12 12 30
12 12 30
12 12 30
12 12 30
12 12 30
12 12 30
12 12 30
12 12 30
12 12 30
12 12 30
12 12 30
12 12 30
12 12 30
12 12 30
12 12 30
12 12 30
12 12 30
12 12 30
12 12 30
12 12 30
12 12 30
12 12 30
12 12 30
12 12 30
12 12 30
12 12 30
12 12 30
12 12 30
12 12 30
12 12 30
12 12 30
12 12 30
12 12 30
12 12 30
12 12 30
12 12 30
12 12 30
12 12 30
12 12 30
12 12 30
12 12 30
12 12 30
12 12 30
12 12 30
12 12 30
12 12 30
12 12 30
12 12 30
12 12 30
12 12 30
12 12 30
12 12 30
12 12 30
12 12 30
12 12 30
12 12 30
12 12 30
12 12 30
12 12 30
12 12 30
12 12 30
12 12 30
12 12 30
12 12 30
12 12 30
12 12 30
12 12 30
12 12 30
12 12 30
12 12 30
12 12 30
12 12 30
12 12 30
12 12 30
12 12 30
12 12 30
12 12 30
12 12 30
12 12 30
12 12 30
12 12 30
12 12 30
12 12 30
12 12 30
12 12 30
12 12 30
12 12 30
12 12 30
12 12 30
12 12 30
12 12 30
12 12 30
12 12 30
12 12 30
12 12 30
12 12 30
12 12 30
12 12 30
12 12 30
12 12 30
12 12 30
12 12 30
12 12 30
12 12 30
12 12 30
12 12 30
12 12 30
12 12 30
12 12 30
12 12 30
12 12 30
12 12 30
12 12 30
12 12 30
12 12 30
12 12 30
12 12 30
12 12 30
12 12 30
12 12 30
12 12 30
12 12 30
12 12 30
12 12 30
12 12 30
12 12 30
12 12 30
12 12 30
12 12 30
12 12 30
12 12 30
12 12 30
12 12 30
12 12 30
12 12 30
12 12 30
12 12 30
12 12 30
12 12 30
12 12 30
12 12 30
12 12 30
12 12 30
12 12 30
12 12 30
12 12 30
12 12 30
12 12 30
12 12 30
12 12 30
12 12 30
12 12 30
12 12 30
12 12 30
12 12 30
12 12 30
12 12 30
12 12 30
12 12 30
12 12 30
12 12 30
12 12 30
12 12 30
12 12 30
12 12 30
12 12 30
12 12 30
12 12 30
12 12 30
12 12 30
12 12 30
12 12 30
12 12 30
12 12 30
12 12 30
12 12 30
12 12 30
12 12 30
12 12 30
12 12 30
12 12 30
12 12 30
12 12 30
12 12 30
12 12 30
12 12 30
12 12 30
12 12 30
12 12 30
12 12 30
12 12 30
12 12 30
12 12 30
12 12 30
12 12 30
12 12 30
12 12 30
12 12 30
12 12 30
12 12 30
12 12 30
12 12 30
12 12 30
12 12 30
12 12 30
12 12 30
230 51 51
230 51 51
230 51 51
230 51 51
230 51 51
230 51 51
230 51 51
230 51 51
230 51 51
230 51 51
230 51 51
230 51 51
230 51 51
230 51 51
230 51 51
230 51 51
230 51 51
230 51 51
230 51 51
230 51 51
230 51 51
230 51 51
230 51 51
230 51 51
230 51 51
230 51 51
230 51 51
230 51 51
230 51 51
230 51 51
230 51 51
230 51 51
230 51 51
230 51 51
230 51 51
230 51 51
230 51 51
230 51 51
230 51 51
230 51 51
12 12 30
51 127 230
51 127 230
51 127 230
51 127 230
51 127 230
51 127 230
51 127 230
51 127 230
51 127 230
51 127 230
51 127 230
51 127 230
51 127 230
51 127 230
51 127 230
51 127 230
51 127 230
51 127 230
51 127 230
51 127 230
51 127 230
51 127 230
51 127 230
51 127 230
51 127 230
51 127 230
51 127 230
51 127 230
51 127 230
51 127 230
51 127 230
51 127 230
51 127 230
51 127 230
51 127 230
51 127 230
51 127 230
51 127 230
51 127 230
51 127 230
51 127 230
51 127 230
51 127 230
51 127 230
12 12 30
12 12 30
12 12 30
12 12 30
12 12 30
12 12 30
12 12 30
12 12 30
12 12 30
12 12 30
12 12 30
12 12 30
12 12 30
12 12 30
12 12 30
12 12 30
12 12 30
12 12 30
12 12 30
12 12 30
12 12 30
12 12 30
12 12 30
12 12 30
12 12 30
12 12 30
12 12 30
12 12 30
12 12 30
12 12 30
12 12 30
12 12 30
12 12 30
12 12 30
12 12 30
12 12 30
12 12 30
12 12 30
12 12 30
12 12 30
12 12 30
12 12 30
12 12 30
12 12 30
12 12 30
12 12 30
12 12 30
12 12 30
12 12 30
12 12 30
12 12 30
12 12 30
12 12 30
12 12 30
12 12 30
12 12 30
12 12 30
12 12 30
12 12 30
12 12 30
12 12 30
12 12 30
12 12 30
12 12 30
12 12 30
12 12 30
12 12 30
12 12 30
12 12 30
12 12 30
12 12 30
12 12 30
12 12 30
12 12 30
12 12 30
12 12 30
12 12 30
12 12 30
12 12 30
12 12 30
12 12 30
12 12 30
12 12 30
12 12 30
12 12 30
12 12 30
12 12 30
12 12 30
12 12 30
12 12 30
12 12 30
12 12 30
12 12 30
12 12 30
12 12 30
12 12 30
12 12 30
12 12 30
12 12 30
12 12 30
12 12 30
12 12 30
12 12 30
12 12 30
12 12 30
12 12 30
12 12 30
12 12 30
12 12 30
12 12 30
12 12 30
12 12 30
12 12 30
12 12 30
12 12 30
12 12 30
12 12 30
12 12 30
12 12 30
12 12 30
12 12 30
12 12 30
12 12 30
12 12 30
12 12 30
12 12 30
12 12 30
12 12 30
12 12 30
12 12 30
12 12 30
12 12 30
12 12 30
12 12 30
12 12 30
12 12 30
12 12 30
12 12 30
12 12 30
12 12 30
12 12 30
12 12 30
12 12 30
12 12 30
12 12 30
12 12 30
12 12 30
12 12 30
12 12 30
12 12 30
12 12 30
12 12 30
12 12 30
12 12 30
12 12 30
12 12 30
12 12 30
12 12 30
12 12 30
12 12 30
12 12 30
12 12 30
12 12 30
12 12 30
12 12 30
12 12 30
12 12 30
12 12 30
12 12 30
12 12 30
12 12 30
12 12 30
12 12 30
12 12 30
12 12 30
12 12 30
12 12 30
12 12 30
12 12 30
12 12 30
12 12 30
12 12 30
12 12 30
12 12 30
12 12 30
12 12 30
12 12 30
12 12 30
12 12 30
12 12 30
12 12 30
12 12 30
12 12 30
12 12 30
12 12 30
12 12 30
12 12 30
12 12 30
12 12 30
12 12 30
12 12 30
12 12 30
12 12 30
12 12 30
12 12 30
12 12 30
12 12 30
12 12 30
12 12 30
12 12 30
12 12 30
12 12 30
12 12 30
12 12 30
12 12 30
12 12 30
12 12 30
12 12 30
12 12 30
12 12 30
12 12 30
12 12 30
12 12 30
12 12 30
12 12 30
12 12 30
12 12 30
12 12 30
12 12 30
12 12 30
12 12 30
12 12 30
12 12 30
12 12 30
12 12 30
12 12 30
12 12 30
12 12 30
12 12 30
12 12 30
12 12 30
12 12 30
12 12 30
12 12 30
12 12 30
12 12 30
12 12 30
12 12 30
12 12 30
12 12 30
12 12 30
12 12 30
12 12 30
12 12 30
12 12 30
12 12 30
12 12 30
12 12 30
12 12 30
12 12 30
12 12 30
12 12 30
12 12 30
12 12 30
12 12 30
12 12 30
12 12 30
12 12 30
12 12 30
12 12 30
12 12 30
12 12 30
12 12 30
12 12 30
12 12 30
12 12 30
12 12 30
12 12 30
12 12 30
12 12 30
12 12 30
12 12 30
12 12 30
12 12 30
12 12 30
12 12 30
12 12 30
12 12 30
12 12 30
12 12 30
12 12 30
12 12 30
12 12 30
12 12 30
12 12 30
12 12 30
12 12 30
12 12 30
12 12 30
12 12 30
12 12 30
12 12 30
12 12 30
12 12 30
12 12 30
12 12 30
12 12 30
12 12 30
12 12 30
12 12 30
12 12 30
12 12 30
12 12 30
12 12 30
12 12 30
230 51 51
230 51 51
230 51 51
230 51 51
230 51 51
230 51 51
230 51 51
230 51 51
230 51 51
230 51 51
230 51 51
230 51 51
230 51 51
230 51 51
230 51 51
230 51 51
230 51 51
230 51 51
230 51 51
230 51 51
230 51 51
230 51 51
230 51 51
230 51 51
230 51 51
230 51 51
230 51 51
230 51 51
230 51 51
230 51 51
230 51 51
230 51 51
230 51 51
230 51 51
230 51 51
230 51 51
230 51 51
230 51 51
230 51 51
230 51 51
12 12 30
51 127 230
51 127 230
51 127 230
51 127 230
51 127 230
51 127 230
51 127 230
51 127 230
51 127 230
51 127 230
51 127 230
51 127 230
51 127 230
51 127 230
51 127 230
51 127 230
51 127 230
51 127 230
51 127 230
51 127 230
51 127 230
51 127 230
51 127 230
51 127 230
51 127 230
51 127 230
51 127 230
51 127 230
51 127 230
51 127 230
51 127 230
51 127 230
51 127 230
51 127 230
51 127 230
51 127 230
51 127 230
51 127 230
51 127 230
51 127 230
51 127 230
51 127 230
51 127 230
51 127 230
12 12 30
12 12 30
12 12 30
12 12 30
12 12 30
12 12 30
12 12 30
12 12 30
12 12 30
12 12 30
12 12 30
12 12 30
12 12 30
12 12 30
12 12 30
12 12 30
12 12 30
12 12 30
12 12 30
12 12 30
12 12 30
12 12 30
12 12 30
12 12 30
12 12 30
12 12 30
12 12 30
12 12 30
12 12 30
12 12 30
12 12 30
12 12 30
12 12 30
12 12 30
12 12 30
12 12 30
12 12 30
12 12 30
12 12 30
12 12 30
12 12 30
12 12 30
12 12 30
12 12 30
12 12 30
12 12 30
12 12 30
12 12 30
12 12 30
12 12 30
12 12 30
12 12 30
12 12 30
12 12 30
12 12 30
12 12 30
12 12 30
12 12 30
12 12 30
12 12 30
12 12 30
12 12 30
12 12 30
12 12 30
12 12 30
12 12 30
12 12 30
12 12 30
12 12 30
12 12 30
12 12 30
12 12 30
12 12 30
12 12 30
12 12 30
12 12 30
12 12 30
12 12 30
12 12 30
12 12 30
12 12 30
12 12 30
12 12 30
12 12 30
12 12 30
12 12 30
12 12 30
12 12 30
12 12 30
12 12 30
12 12 30
12 12 30
12 12 30
12 12 30
12 12 30
12 12 30
12 12 30
12 12 30
12 12 30
12 12 30
12 12 30
12 12 30
12 12 30
12 12 30
12 12 30
12 12 30
12 12 30
12 12 30
12 12 30
12 12 30
12 12 30
12 12 30
12 12 30
12 12 30
12 12 30
12 12 30
12 12 30
12 12 30
12 12 30
12 12 30
12 12 30
12 12 30
12 12 30
12 12 30
12 12 30
12 12 30
12 12 30
12 12 30
12 12 30
12 12 30
12 12 30
12 12 30
12 12 30
12 12 30
12 12 30
12 12 30
12 12 30
12 12 30
12 12 30
12 12 30
12 12 30
12 12 30
12 12 30
12 12 30
12 12 30
12 12 30
12 12 30
12 12 30
12 12 30
12 12 30
12 12 30
12 12 30
12 12 30
12 12 30
12 12 30
12 12 30
12 12 30
12 12 30
12 12 30
12 12 30
12 12 30
12 12 30
12 12 30
12 12 30
12 12 30
12 12 30
12 12 30
12 12 30
12 12 30
12 12 30
12 12 30
12 12 30
12 12 30
12 12 30
12 12 30
12 12 30
12 12 30
12 12 30
12 12 30
12 12 30
12 12 30
12 12 30
12 12 30
12 12 30
12 12 30
12 12 30
12 12 30
12 12 30
12 12 30
12 12 30
12 12 30
12 12 30
12 12 30
12 12 30
12 12 30
12 12 30
12 12 30
12 12 30
12 12 30
12 12 30
12 12 30
12 12 30
12 12 30
12 12 30
12 12 30
12 12 30
12 12 30
12 12 30
12 12 30
12 12 30
12 12 30
12 12 30
12 12 30
12 12 30
12 12 30
12 12 30
12 12 30
12 12 30
12 12 30
12 12 30
12 12 30
12 12 30
12 12 30
12 12 30
12 12 30
12 12 30
12 12 30
12 12 30
12 12 30
12 12 30
12 12 30
12 12 30
12 12 30
12 12 30
12 12 30
12 12 30
12 12 30
12 12 30
12 12 30
12 12 30
12 12 30
12 12 30
12 12 30
12 12 30
12 12 30
12 12 30
12 12 30
12 12 30
12 12 30
12 12 30
12 12 30
12 12 30
12 12 30
12 12 30
12 12 30
12 12 30
12 12 30
12 12 30
12 12 30
12 12 30
12 12 30
12 12 30
12 12 30
12 12 30
12 12 30
12 12 30
12 12 30
12 12 30
12 12 30
12 12 30
12 12 30
12 12 30
12 12 30
12 12 30
12 12 30
12 12 30
12 12 30
12 12 30
12 12 30
12 12 30
12 12 30
12 12 30
12 12 30
12 12 30
12 12 30
12 12 30
12 12 30
12 12 30
12 12 30
12 12 30
12 12 30
12 12 30
12 12 30
12 12 30
12 12 30
12 12 30
12 12 30
12 12 30
12 12 30
12 12 30
12 12 30
12 12 30
12 12 30
12 12 30
12 12 30
12 12 30
12 12 30
12 12 30
12 12 30
12 12 30
12 12 30
12 12 30
12 12 30
12 12 30
230 51 51
230 51 51
230 51 51
230 51 51
230 51 51
230 51 51
230 51 51
230 51 51
230 51 51
230 51 51
230 51 51
230 51 51
230 51 51
230 51 51
230 51 51
230 51 51
230 51 51
230 51 51
230 51 51
230 51 51
230 51 51
230 51 51
230 51 51
230 51 51
230 51 51
230 51 51
230 51 51
230 51 51
230 51 51
230 51 51
230 51 51
230 51 51
230 51 51
230 51 51
230 51 51
230 51 51
230 51 51
230 51 51
230 51 51
230 51 51
230 51 51
230 51 51
51 127 230
51 127 230
51 127 230
51 127 230
51 127 230
51 127 230
51 127 230
51 127 230
51 127 230
51 127 230
51 127 230
51 127 230
51 127 230
51 127 230
51 127 230
51 127 230
51 127 230
51 127 230
51 127 230
51 127 230
51 127 230
51 127 230
51 127 230
51 127 230
51 127 230
51 127 230
51 127 230
51 127 230
51 127 230
51 127 230
51 127 230
51 127 230
51 127 230
51 127 230
51 127 230
51 127 230
51 127 230
51 127 230
51 127 230
51 127 230
51 127 230
51 127 230
51 127 230
51 127 230
12 12 30
12 12 30
12 12 30
12 12 30
12 12 30
12 12 30
12 12 30
12 12 30
12 12 30
12 12 30
12 12 30
12 12 30
12 12 30
12 12 30
12 12 30
12 12 30
12 12 30
12 12 30
12 12 30
12 12 30
12 12 30
12 12 30
12 12 30
12 12 30
12 12 30
12 12 30
12 12 30
12 12 30
12 12 30
12 12 30
12 12 30
12 12 30
12 12 30
12 12 30
12 12 30
12 12 30
12 12 30
12 12 30
12 12 30
12 12 30
12 12 30
12 12 30
12 12 30
12 12 30
12 12 30
12 12 30
12 12 30
12 12 30
12 12 30
12 12 30
12 12 30
12 12 30
12 12 30
12 12 30
12 12 30
12 12 30
12 12 30
12 12 30
12 12 30
12 12 30
12 12 30
12 12 30
12 12 30
12 12 30
12 12 30
12 12 30
12 12 30
12 12 30
12 12 30
12 12 30
12 12 30
12 12 30
12 12 30
12 12 30
12 12 30
12 12 30
12 12 30
12 12 30
12 12 30
12 12 30
12 12 30
12 12 30
12 12 30
12 12 30
12 12 30
12 12 30
12 12 30
12 12 30
12 12 30
12 12 30
12 12 30
12 12 30
12 12 30
12 12 30
12 12 30
12 12 30
12 12 30
12 12 30
12 12 30
12 12 30
12 12 30
12 12 30
12 12 30
12 12 30
12 12 30
12 12 30
12 12 30
12 12 30
12 12 30
12 12 30
12 12 30
12 12 30
12 12 30
12 12 30
12 12 30
12 12 30
12 12 30
12 12 30
12 12 30
12 12 30
12 12 30
12 12 30
12 12 30
12 12 30
12 12 30
12 12 30
12 12 30
12 12 30
12 12 30
12 12 30
12 12 30
12 12 30
12 12 30
12 12 30
12 12 30
12 12 30
12 12 30
12 12 30
12 12 30
12 12 30
12 12 30
12 12 30
12 12 30
12 12 30
12 12 30
12 12 30
12 12 30
12 12 30
12 12 30
12 12 30
12 12 30
12 12 30
12 12 30
12 12 30
12 12 30
12 12 30
12 12 30
12 12 30
12 12 30
12 12 30
12 12 30
12 12 30
12 12 30
12 12 30
12 12 30
12 12 30
12 12 30
12 12 30
12 12 30
12 12 30
12 12 30
12 12 30
12 12 30
12 12 30
12 12 30
12 12 30
12 12 30
12 12 30
12 12 30
12 12 30
12 12 30
12 12 30
12 12 30
12 12 30
12 12 30
12 12 30
12 12 30
12 12 30
12 12 30
12 12 30
12 12 30
12 12 30
12 12 30
12 12 30
12 12 30
12 12 30
12 12 30
12 12 30
12 12 30
12 12 30
12 12 30
12 12 30
12 12 30
12 12 30
12 12 30
12 12 30
12 12 30
12 12 30
12 12 30
12 12 30
12 12 30
12 12 30
12 12 30
12 12 30
12 12 30
12 12 30
12 12 30
12 12 30
12 12 30
12 12 30
12 12 30
12 12 30
12 12 30
12 12 30
12 12 30
12 12 30
12 12 30
12 12 30
12 12 30
12 12 30
12 12 30
12 12 30
12 12 30
12 12 30
12 12 30
12 12 30
12 12 30
12 12 30
12 12 30
12 12 30
12 12 30
12 12 30
12 12 30
12 12 30
12 12 30
12 12 30
12 12 30
12 12 30
12 12 30
12 12 30
12 12 30
12 12 30
12 12 30
12 12 30
12 12 30
12 12 30
12 12 30
12 12 30
12 12 30
12 12 30
12 12 30
12 12 30
12 12 30
12 12 30
12 12 30
12 12 30
12 12 30
12 12 30
12 12 30
12 12 30
12 12 30
12 12 30
12 12 30
12 12 30
12 12 30
12 12 30
12 12 30
12 12 30
12 12 30
12 12 30
12 12 30
12 12 30
12 12 30
12 12 30
12 12 30
12 12 30
12 12 30
12 12 30
12 12 30
12 12 30
12 12 30
12 12 30
12 12 30
12 12 30
12 12 30
12 12 30
12 12 30
12 12 30
12 12 30
12 12 30
12 12 30
12 12 30
12 12 30
12 12 30
12 12 30
12 12 30
12 12 30
12 12 30
12 12 30
12 12 30
12 12 30
12 12 30
12 12 30
12 12 30
230 51 51
230 51 51
230 51 51
230 51 51
230 51 51
230 51 51
230 51 51
230 51 51
230 51 51
230 51 51
230 51 51
230 51 51
230 51 51
230 51 51
230 51 51
230 51 51
230 51 51
230 51 51
230 51 51
230 51 51
230 51 51
230 51 51
230 51 51
230 51 51
230 51 51
230 51 51
230 51 51
230 51 51
230 51 51
230 51 51
230 51 51
230 51 51
230 51 51
230 51 51
230 51 51
230 51 51
230 51 51
230 51 51
230 51 51
230 51 51
230 51 51
230 51 51
51 127 230
51 127 230
51 127 230
51 127 230
51 127 230
51 127 230
51 127 230
51 127 230
51 127 230
51 127 230
51 127 230
51 127 230
51 127 230
51 127 230
51 127 230
51 127 230
51 127 230
51 127 230
51 127 230
51 127 230
51 127 230
51 127 230
51 127 230
51 127 230
51 127 230
51 127 230
51 127 230
51 127 230
51 127 230
51 127 230
51 127 230
51 127 230
51 127 230
51 127 230
51 127 230
51 127 230
51 127 230
51 127 230
51 127 230
51 127 230
51 127 230
51 127 230
51 127 230
51 127 230
12 12 30
12 12 30
12 12 30
12 12 30
12 12 30
12 12 30
12 12 30
12 12 30
12 12 30
12 12 30
12 12 30
12 12 30
12 12 30
12 12 30
12 12 30
12 12 30
12 12 30
12 12 30
12 12 30
12 12 30
12 12 30
12 12 30
12 12 30
12 12 30
12 12 30
12 12 30
12 12 30
12 12 30
12 12 30
12 12 30
12 12 30
12 12 30
12 12 30
12 12 30
12 12 30
12 12 30
12 12 30
12 12 30
12 12 30
12 12 30
12 12 30
12 12 30
12 12 30
12 12 30
12 12 30
12 12 30
12 12 30
12 12 30
12 12 30
12 12 30
12 12 30
12 12 30
12 12 30
12 12 30
12 12 30
12 12 30
12 12 30
12 12 30
12 12 30
12 12 30
12 12 30
12 12 30
12 12 30
12 12 30
12 12 30
12 12 30
12 12 30
12 12 30
12 12 30
12 12 30
12 12 30
12 12 30
12 12 30
12 12 30
12 12 30
12 12 30
12 12 30
12 12 30
12 12 30
12 12 30
12 12 30
12 12 30
12 12 30
12 12 30
12 12 30
12 12 30
12 12 30
12 12 30
12 12 30
12 12 30
12 12 30
12 12 30
12 12 30
12 12 30
12 12 30
12 12 30
12 12 30
12 12 30
12 12 30
12 12 30
12 12 30
12 12 30
12 12 30
12 12 30
12 12 30
12 12 30
12 12 30
12 12 30
12 12 30
12 12 30
12 12 30
12 12 30
12 12 30
12 12 30
12 12 30
12 12 30
12 12 30
12 12 30
12 12 30
12 12 30
12 12 30
12 12 30
12 12 30
12 12 30
12 12 30
12 12 30
12 12 30
12 12 30
12 12 30
12 12 30
12 12 30
12 12 30
12 12 30
12 12 30
12 12 30
12 12 30
12 12 30
12 12 30
12 12 30
12 12 30
12 12 30
12 12 30
12 12 30
12 12 30
12 12 30
12 12 30
12 12 30
12 12 30
12 12 30
12 12 30
12 12 30
12 12 30
12 12 30
12 12 30
12 12 30
12 12 30
12 12 30
12 12 30
12 12 30
12 12 30
12 12 30
12 12 30
12 12 30
12 12 30
12 12 30
12 12 30
12 12 30
12 12 30
12 12 30
12 12 30
12 12 30
12 12 30
12 12 30
12 12 30
12 12 30
12 12 30
12 12 30
12 12 30
12 12 30
12 12 30
12 12 30
12 12 30
12 12 30
12 12 30
12 12 30
12 12 30
12 12 30
12 12 30
12 12 30
12 12 30
12 12 30
12 12 30
12 12 30
12 12 30
12 12 30
12 12 30
12 12 30
12 12 30
12 12 30
12 12 30
12 12 30
12 12 30
12 12 30
12 12 30
12 12 30
12 12 30
12 12 30
12 12 30
12 12 30
12 12 30
12 12 30
12 12 30
12 12 30
12 12 30
12 12 30
12 12 30
12 12 30
12 12 30
12 12 30
12 12 30
12 12 30
12 12 30
12 12 30
12 12 30
12 12 30
12 12 30
12 12 30
12 12 30
12 12 30
12 12 30
12 12 30
12 12 30
12 12 30
12 12 30
12 12 30
12 12 30
12 12 30
12 12 30
12 12 30
12 12 30
12 12 30
12 12 30
12 12 30
12 12 30
12 12 30
12 12 30
12 12 30
12 12 30
12 12 30
12 12 30
12 12 30
12 12 30
12 12 30
12 12 30
12 12 30
12 12 30
12 12 30
12 12 30
12 12 30
12 12 30
12 12 30
12 12 30
12 12 30
12 12 30
12 12 30
12 12 30
12 12 30
12 12 30
12 12 30
12 12 30
12 12 30
12 12 30
12 12 30
12 12 30
12 12 30
12 12 30
12 12 30
12 12 30
12 12 30
12 12 30
12 12 30
12 12 30
12 12 30
12 12 30
12 12 30
12 12 30
12 12 30
12 12 30
12 12 30
12 12 30
12 12 30
12 12 30
12 12 30
12 12 30
12 12 30
12 12 30
12 12 30
12 12 30
12 12 30
12 12 30
12 12 30
12 12 30
12 12 30
12 12 30
12 12 30
12 12 30
12 12 30
12 12 30
12 12 30
12 12 30
12 12 30
12 12 30
12 12 30
12 12 30
230 51 51
230 51 51
230 51 51
230 51 51
230 51 51
230 51 51
230 51 51
230 51 51
230 51 51
230 51 51
230 51 51
230 51 51
230 51 51
230 51 51
230 51 51
230 51 51
230 51 51
230 51 51
230 51 51
230 51 51
230 51 51
230 51 51
230 51 51
230 51 51
230 51 51
230 51 51
230 51 51
230 51 51
230 51 51
230 51 51
230 51 51
230 51 51
230 51 51
230 51 51
230 51 51
230 51 51
230 51 51
230 51 51
230 51 51
230 51 51
230 51 51
230 51 51
51 127 230
51 127 230
51 127 230
51 127 230
51 127 230
51 127 230
51 127 230
51 127 230
51 127 230
51 127 230
51 127 230
51 127 230
51 127 230
51 127 230
51 127 230
51 127 230
51 127 230
51 127 230
51 127 230
51 127 230
51 127 230
51 127 230
51 127 230
51 127 230
51 127 230
51 127 230
51 127 230
51 127 230
51 127 230
51 127 230
51 127 230
51 127 230
51 127 230
51 127 230
51 127 230
51 127 230
51 127 230
51 127 230
51 127 230
51 127 230
51 127 230
51 127 230
51 127 230
51 127 230
12 12 30
12 12 30
12 12 30
12 12 30
12 12 30
12 12 30
12 12 30
12 12 30
12 12 30
12 12 30
12 12 30
12 12 30
12 12 30
12 12 30
12 12 30
12 12 30
12 12 30
12 12 30
12 12 30
12 12 30
12 12 30
12 12 30
12 12 30
12 12 30
12 12 30
12 12 30
12 12 30
12 12 30
12 12 30
12 12 30
12 12 30
12 12 30
12 12 30
12 12 30
12 12 30
12 12 30
12 12 30
12 12 30
12 12 30
12 12 30
12 12 30
12 12 30
12 12 30
12 12 30
12 12 30
12 12 30
12 12 30
12 12 30
12 12 30
12 12 30
12 12 30
12 12 30
12 12 30
12 12 30
12 12 30
12 12 30
12 12 30
12 12 30
12 12 30
12 12 30
12 12 30
12 12 30
12 12 30
12 12 30
12 12 30
12 12 30
12 12 30
12 12 30
12 12 30
12 12 30
12 12 30
12 12 30
12 12 30
12 12 30
12 12 30
12 12 30
12 12 30
12 12 30
12 12 30
12 12 30
12 12 30
12 12 30
12 12 30
12 12 30
12 12 30
12 12 30
12 12 30
12 12 30
12 12 30
12 12 30
12 12 30
12 12 30
12 12 30
12 12 30
12 12 30
12 12 30
12 12 30
12 12 30
12 12 30
12 12 30
12 12 30
12 12 30
12 12 30
12 12 30
12 12 30
12 12 30
12 12 30
12 12 30
12 12 30
12 12 30
12 12 30
12 12 30
12 12 30
12 12 30
12 12 30
12 12 30
12 12 30
12 12 30
12 12 30
12 12 30
12 12 30
12 12 30
12 12 30
12 12 30
12 12 30
12 12 30
12 12 30
12 12 30
12 12 30
12 12 30
12 12 30
12 12 30
12 12 30
12 12 30
12 12 30
12 12 30
12 12 30
12 12 30
12 12 30
12 12 30
12 12 30
12 12 30
12 12 30
12 12 30
12 12 30
12 12 30
12 12 30
12 12 30
12 12 30
12 12 30
12 12 30
12 12 30
12 12 30
12 12 30
12 12 30
12 12 30
12 12 30
12 12 30
12 12 30
12 12 30
12 12 30
12 12 30
12 12 30
12 12 30
12 12 30
12 12 30
12 12 30
12 12 30
12 12 30
12 12 30
12 12 30
12 12 30
12 12 30
12 12 30
12 12 30
12 12 30
12 12 30
12 12 30
12 12 30
12 12 30
12 12 30
12 12 30
12 12 30
12 12 30
12 12 30
12 12 30
12 12 30
12 12 30
12 12 30
12 12 30
12 12 30
12 12 30
12 12 30
12 12 30
12 12 30
12 12 30
12 12 30
12 12 30
12 12 30
12 12 30
12 12 30
12 12 30
12 12 30
12 12 30
12 12 30
12 12 30
12 12 30
12 12 30
12 12 30
12 12 30
12 12 30
12 12 30
12 12 30
12 12 30
12 12 30
12 12 30
12 12 30
12 12 30
12 12 30
12 12 30
12 12 30
12 12 30
12 12 30
12 12 30
12 12 30
12 12 30
12 12 30
12 12 30
12 12 30
12 12 30
12 12 30
12 12 30
12 12 30
12 12 30
12 12 30
12 12 30
12 12 30
12 12 30
12 12 30
12 12 30
12 12 30
12 12 30
12 12 30
12 12 30
12 12 30
12 12 30
12 12 30
12 12 30
12 12 30
12 12 30
12 12 30
12 12 30
12 12 30
12 12 30
12 12 30
12 12 30
12 12 30
12 12 30
12 12 30
12 12 30
12 12 30
12 12 30
12 12 30
12 12 30
12 12 30
12 12 30
12 12 30
12 12 30
12 12 30
12 12 30
12 12 30
12 12 30
12 12 30
12 12 30
12 12 30
12 12 30
12 12 30
12 12 30
12 12 30
12 12 30
12 12 30
12 12 30
12 12 30
12 12 30
12 12 30
12 12 30
12 12 30
12 12 30
12 12 30
12 12 30
12 12 30
12 12 30
12 12 30
12 12 30
12 12 30
12 12 30
12 12 30
12 12 30
12 12 30
12 12 30
12 12 30
12 12 30
12 12 30
12 12 30
12 12 30
12 12 30
12 12 30
12 12 30
12 12 30
12 12 30
12 12 30
12 12 30
12 12 30
12 12 30
230 51 51
230 51 51
230 51 51
230 51 51
230 51 51
230 51 51
230 51 51
230 51 51
230 51 51
230 51 51
230 51 51
230 51 51
230 51 51
230 51 51
230 51 51
230 51 51
230 51 51
230 51 51
230 51 51
230 51 51
230 51 51
230 51 51
230 51 51
230 51 51
230 51 51
230 51 51
230 51 51
230 51 51
230 51 51
230 51 51
230 51 51
230 51 51
230 51 51
230 51 51
230 51 51
230 51 51
230 51 51
230 51 51
230 51 51
230 51 51
230 51 51
230 51 51
51 127 230
51 127 230
51 127 230
51 127 230
51 127 230
51 127 230
51 127 230
51 127 230
51 127 230
51 127 230
51 127 230
51 127 230
51 127 230
51 127 230
51 127 230
51 127 230
51 127 230
51 127 230
51 127 230
51 127 230
51 127 230
51 127 230
51 127 230
51 127 230
51 127 230
51 127 230
51 127 230
51 127 230
51 127 230
51 127 230
51 127 230
51 127 230
51 127 230
51 127 230
51 127 230
51 127 230
51 127 230
51 127 230
51 127 230
51 127 230
51 127 230
51 127 230
51 127 230
51 127 230
12 12 30
12 12 30
12 12 30
12 12 30
12 12 30
12 12 30
12 12 30
12 12 30
12 12 30
12 12 30
12 12 30
12 12 30
12 12 30
12 12 30
12 12 30
12 12 30
12 12 30
12 12 30
12 12 30
12 12 30
12 12 30
12 12 30
12 12 30
12 12 30
12 12 30
12 12 30
12 12 30
12 12 30
12 12 30
12 12 30
12 12 30
12 12 30
12 12 30
12 12 30
12 12 30
12 12 30
12 12 30
12 12 30
12 12 30
12 12 30
12 12 30
12 12 30
12 12 30
12 12 30
12 12 30
12 12 30
12 12 30
12 12 30
12 12 30
12 12 30
12 12 30
12 12 30
12 12 30
12 12 30
12 12 30
12 12 30
12 12 30
12 12 30
12 12 30
12 12 30
12 12 30
12 12 30
12 12 30
12 12 30
12 12 30
12 12 30
12 12 30
12 12 30
12 12 30
12 12 30
12 12 30
12 12 30
12 12 30
12 12 30
12 12 30
12 12 30
12 12 30
12 12 30
12 12 30
12 12 30
12 12 30
12 12 30
12 12 30
12 12 30
12 12 30
12 12 30
12 12 30
12 12 30
12 12 30
12 12 30
12 12 30
12 12 30
12 12 30
12 12 30
12 12 30
12 12 30
12 12 30
12 12 30
12 12 30
12 12 30
12 12 30
12 12 30
12 12 30
12 12 30
12 12 30
12 12 30
12 12 30
12 12 30
12 12 30
12 12 30
12 12 30
12 12 30
12 12 30
12 12 30
12 12 30
12 12 30
12 12 30
12 12 30
12 12 30
12 12 30
12 12 30
12 12 30
12 12 30
12 12 30
12 12 30
12 12 30
12 12 30
12 12 30
12 12 30
12 12 30
12 12 30
12 12 30
12 12 30
12 12 30
12 12 30
12 12 30
12 12 30
12 12 30
12 12 30
12 12 30
12 12 30
12 12 30
12 12 30
12 12 30
12 12 30
12 12 30
12 12 30
12 12 30
12 12 30
12 12 30
12 12 30
12 12 30
12 12 30
12 12 30
12 12 30
12 12 30
12 12 30
12 12 30
12 12 30
12 12 30
12 12 30
12 12 30
12 12 30
12 12 30
12 12 30
12 12 30
12 12 30
12 12 30
12 12 30
12 12 30
12 12 30
12 12 30
12 12 30
12 12 30
12 12 30
12 12 30
12 12 30
12 12 30
12 12 30
12 12 30
12 12 30
12 12 30
12 12 30
12 12 30
12 12 30
12 12 30
12 12 30
12 12 30
12 12 30
12 12 30
12 12 30
12 12 30
12 12 30
12 12 30
12 12 30
12 12 30
12 12 30
12 12 30
12 12 30
12 12 30
12 12 30
12 12 30
12 12 30
12 12 30
12 12 30
12 12 30
12 12 30
12 12 30
12 12 30
12 12 30
12 12 30
12 12 30
12 12 30
12 12 30
12 12 30
12 12 30
12 12 30
12 12 30
12 12 30
12 12 30
12 12 30
12 12 30
12 12 30
12 12 30
12 12 30
12 12 30
12 12 30
12 12 30
12 12 30
12 12 30
12 12 30
12 12 30
12 12 30
12 12 30
12 12 30
12 12 30
12 12 30
12 12 30
12 12 30
12 12 30
12 12 30
12 12 30
12 12 30
12 12 30
12 12 30
12 12 30
12 12 30
12 12 30
12 12 30
12 12 30
12 12 30
12 12 30
12 12 30
12 12 30
12 12 30
12 12 30
12 12 30
12 12 30
12 12 30
12 12 30
12 12 30
12 12 30
12 12 30
12 12 30
12 12 30
12 12 30
12 12 30
12 12 30
12 12 30
12 12 30
12 12 30
12 12 30
12 12 30
12 12 30
12 12 30
12 12 30
12 12 30
12 12 30
12 12 30
12 12 30
12 12 30
12 12 30
12 12 30
12 12 30
12 12 30
12 12 30
12 12 30
12 12 30
12 12 30
12 12 30
12 12 30
12 12 30
12 12 30
12 12 30
12 12 30
12 12 30
12 12 30
12 12 30
12 12 30
12 12 30
12 12 30
12 12 30
12 12 30
12 12 30
12 12 30
12 12 30
12 12 30
12 12 30
12 12 30
12 12 30
12 12 30
12 12 30
12 12 30
12 12 30
230 51 51
230 51 51
230 51 51
230 51 51
230 51 51
230 51 51
230 51 51
230 51 51
230 51 51
230 51 51
230 51 51
230 51 51
230 51 51
230 51 51
230 51 51
230 51 51
230 51 51
230 51 51
230 51 51
230 51 51
230 51 51
230 51 51
230 51 51
230 51 51
230 51 51
230 51 51
230 51 51
230 51 51
230 51 51
230 51 51
230 51 51
230 51 51
230 51 51
230 51 51
230 51 51
230 51 51
230 51 51
230 51 51
230 51 51
230 51 51
230 51 51
230 51 51
51 127 230
51 127 230
51 127 230
51 127 230
51 127 230
51 127 230
51 127 230
51 127 230
51 127 230
51 127 230
51 127 230
51 127 230
51 127 230
51 127 230
51 127 230
51 127 230
51 127 230
51 127 230
51 127 230
51 127 230
51 127 230
51 127 230
51 127 230
51 127 230
51 127 230
51 127 230
51 127 230
51 127 230
51 127 230
51 127 230
51 127 230
51 127 230
51 127 230
51 127 230
51 127 230
51 127 230
51 127 230
51 127 230
51 127 230
51 127 230
51 127 230
51 127 230
51 127 230
51 127 230
12 12 30
12 12 30
12 12 30
12 12 30
12 12 30
12 12 30
12 12 30
12 12 30
12 12 30
12 12 30
12 12 30
12 12 30
12 12 30
12 12 30
12 12 30
12 12 30
12 12 30
12 12 30
12 12 30
12 12 30
12 12 30
12 12 30
12 12 30
12 12 30
12 12 30
12 12 30
12 12 30
12 12 30
12 12 30
12 12 30
12 12 30
12 12 30
12 12 30
12 12 30
12 12 30
12 12 30
12 12 30
12 12 30
12 12 30
12 12 30
12 12 30
12 12 30
12 12 30
12 12 30
12 12 30
12 12 30
12 12 30
12 12 30
12 12 30
12 12 30
12 12 30
12 12 30
12 12 30
12 12 30
12 12 30
12 12 30
12 12 30
12 12 30
12 12 30
12 12 30
12 12 30
12 12 30
12 12 30
12 12 30
12 12 30
12 12 30
12 12 30
12 12 30
12 12 30
12 12 30
12 12 30
12 12 30
12 12 30
12 12 30
12 12 30
12 12 30
12 12 30
12 12 30
12 12 30
12 12 30
12 12 30
12 12 30
12 12 30
12 12 30
12 12 30
12 12 30
12 12 30
12 12 30
12 12 30
12 12 30
12 12 30
12 12 30
12 12 30
12 12 30
12 12 30
12 12 30
12 12 30
12 12 30
12 12 30
12 12 30
12 12 30
12 12 30
12 12 30
12 12 30
12 12 30
12 12 30
12 12 30
12 12 30
12 12 30
12 12 30
12 12 30
12 12 30
12 12 30
12 12 30
12 12 30
12 12 30
12 12 30
12 12 30
12 12 30
12 12 30
12 12 30
12 12 30
12 12 30
12 12 30
12 12 30
12 12 30
12 12 30
12 12 30
12 12 30
12 12 30
12 12 30
12 12 30
12 12 30
12 12 30
12 12 30
12 12 30
12 12 30
12 12 30
12 12 30
12 12 30
12 12 30
12 12 30
12 12 30
12 12 30
12 12 30
12 12 30
12 12 30
12 12 30
12 12 30
12 12 30
12 12 30
12 12 30
12 12 30
12 12 30
12 12 30
12 12 30
12 12 30
12 12 30
12 12 30
12 12 30
12 12 30
12 12 30
12 12 30
12 12 30
12 12 30
12 12 30
12 12 30
12 12 30
12 12 30
12 12 30
12 12 30
12 12 30
12 12 30
12 12 30
12 12 30
12 12 30
12 12 30
12 12 30
12 12 30
12 12 30
12 12 30
12 12 30
12 12 30
12 12 30
12 12 30
12 12 30
12 12 30
12 12 30
12 12 30
12 12 30
12 12 30
12 12 30
12 12 30
12 12 30
12 12 30
12 12 30
12 12 30
12 12 30
12 12 30
12 12 30
12 12 30
12 12 30
12 12 30
12 12 30
12 12 30
12 12 30
12 12 30
12 12 30
12 12 30
12 12 30
12 12 30
12 12 30
12 12 30
12 12 30
12 12 30
12 12 30
12 12 30
12 12 30
12 12 30
12 12 30
12 12 30
12 12 30
12 12 30
12 12 30
12 12 30
12 12 30
12 12 30
12 12 30
12 12 30
12 12 30
12 12 30
12 12 30
12 12 30
12 12 30
12 12 30
12 12 30
12 12 30
12 12 30
12 12 30
12 12 30
12 12 30
12 12 30
12 12 30
12 12 30
12 12 30
12 12 30
12 12 30
12 12 30
12 12 30
12 12 30
12 12 30
12 12 30
12 12 30
12 12 30
12 12 30
12 12 30
12 12 30
12 12 30
12 12 30
12 12 30
12 12 30
12 12 30
12 12 30
12 12 30
12 12 30
12 12 30
12 12 30
12 12 30
12 12 30
12 12 30
12 12 30
12 12 30
12 12 30
12 12 30
12 12 30
12 12 30
12 12 30
12 12 30
12 12 30
12 12 30
12 12 30
12 12 30
12 12 30
12 12 30
12 12 30
12 12 30
12 12 30
12 12 30
12 12 30
12 12 30
12 12 30
12 12 30
12 12 30
12 12 30
12 12 30
12 12 30
12 12 30
12 12 30
12 12 30
12 12 30
12 12 30
12 12 30
12 12 30
12 12 30
12 12 30
12 12 30
12 12 30
12 12 30
12 12 30
12 12 30
12 12 30
12 12 30
12 12 30
12 12 30
230 51 51
230 51 51
230 51 51
230 51 51
230 51 51
230 51 51
230 51 51
230 51 51
230 51 51
230 51 51
230 51 51
230 51 51
230 51 51
230 51 51
230 51 51
230 51 51
230 51 51
230 51 51
230 51 51
230 51 51
230 51 51
230 51 51
230 51 51
230 51 51
230 51 51
230 51 51
230 51 51
230 51 51
230 51 51
230 51 51
230 51 51
230 51 51
230 51 51
230 51 51
230 51 51
230 51 51
230 51 51
230 51 51
230 51 51
230 51 51
230 51 51
230 51 51
51 127 230
51 127 230
51 127 230
51 127 230
51 127 230
51 127 230
51 127 230
51 127 230
51 127 230
51 127 230
51 127 230
51 127 230
51 127 230
51 127 230
51 127 230
51 127 230
51 127 230
51 127 230
51 127 230
51 127 230
51 127 230
51 127 230
51 127 230
51 127 230
51 127 230
51 127 230
51 127 230
51 127 230
51 127 230
51 127 230
51 127 230
51 127 230
51 127 230
51 127 230
51 127 230
51 127 230
51 127 230
51 127 230
51 127 230
51 127 230
51 127 230
51 127 230
51 127 230
12 12 30
12 12 30
12 12 30
12 12 30
12 12 30
12 12 30
12 12 30
12 12 30
12 12 30
12 12 30
12 12 30
12 12 30
12 12 30
12 12 30
12 12 30
12 12 30
12 12 30
12 12 30
12 12 30
12 12 30
12 12 30
12 12 30
12 12 30
12 12 30
12 12 30
12 12 30
12 12 30
12 12 30
12 12 30
12 12 30
12 12 30
12 12 30
12 12 30
12 12 30
12 12 30
12 12 30
12 12 30
12 12 30
12 12 30
12 12 30
12 12 30
12 12 30
12 12 30
12 12 30
12 12 30
12 12 30
12 12 30
12 12 30
12 12 30
12 12 30
12 12 30
12 12 30
12 12 30
12 12 30
12 12 30
12 12 30
12 12 30
12 12 30
12 12 30
12 12 30
12 12 30
12 12 30
12 12 30
12 12 30
12 12 30
12 12 30
12 12 30
12 12 30
12 12 30
12 12 30
12 12 30
12 12 30
12 12 30
12 12 30
12 12 30
12 12 30
12 12 30
12 12 30
12 12 30
12 12 30
12 12 30
12 12 30
12 12 30
12 12 30
12 12 30
12 12 30
12 12 30
12 12 30
12 12 30
12 12 30
12 12 30
12 12 30
12 12 30
12 12 30
12 12 30
12 12 30
12 12 30
12 12 30
12 12 30
12 12 30
12 12 30
12 12 30
12 12 30
12 12 30
12 12 30
12 12 30
12 12 30
12 12 30
12 12 30
12 12 30
12 12 30
12 12 30
12 12 30
12 12 30
12 12 30
12 12 30
12 12 30
12 12 30
12 12 30
12 12 30
12 12 30
12 12 30
12 12 30
12 12 30
12 12 30
12 12 30
12 12 30
12 12 30
12 12 30
12 12 30
12 12 30
12 12 30
12 12 30
12 12 30
12 12 30
12 12 30
12 12 30
12 12 30
12 12 30
12 12 30
12 12 30
12 12 30
12 12 30
12 12 30
12 12 30
12 12 30
12 12 30
12 12 30
12 12 30
12 12 30
12 12 30
12 12 30
12 12 30
12 12 30
12 12 30
12 12 30
12 12 30
12 12 30
12 12 30
12 12 30
12 12 30
12 12 30
12 12 30
12 12 30
12 12 30
12 12 30
12 12 30
12 12 30
12 12 30
12 12 30
12 12 30
12 12 30
12 12 30
12 12 30
12 12 30
12 12 30
12 12 30
12 12 30
12 12 30
12 12 30
12 12 30
12 12 30
12 12 30
12 12 30
12 12 30
12 12 30
12 12 30
12 12 30
12 12 30
12 12 30
12 12 30
12 12 30
12 12 30
12 12 30
12 12 30
12 12 30
12 12 30
12 12 30
12 12 30
12 12 30
12 12 30
12 12 30
12 12 30
12 12 30
12 12 30
12 12 30
12 12 30
12 12 30
12 12 30
12 12 30
12 12 30
12 12 30
12 12 30
12 12 30
12 12 30
12 12 30
12 12 30
12 12 30
12 12 30
12 12 30
12 12 30
12 12 30
12 12 30
12 12 30
12 12 30
12 12 30
12 12 30
12 12 30
12 12 30
12 12 30
12 12 30
12 12 30
12 12 30
12 12 30
12 12 30
12 12 30
12 12 30
12 12 30
12 12 30
12 12 30
12 12 30
12 12 30
12 12 30
12 12 30
12 12 30
12 12 30
12 12 30
12 12 30
12 12 30
12 12 30
12 12 30
12 12 30
12 12 30
12 12 30
12 12 30
12 12 30
12 12 30
12 12 30
12 12 30
12 12 30
12 12 30
12 12 30
12 12 30
12 12 30
12 12 30
12 12 30
12 12 30
12 12 30
12 12 30
12 12 30
12 12 30
12 12 30
12 12 30
12 12 30
12 12 30
12 12 30
12 12 30
12 12 30
12 12 30
12 12 30
12 12 30
12 12 30
12 12 30
12 12 30
12 12 30
12 12 30
12 12 30
12 12 30
12 12 30
12 12 30
12 12 30
12 12 30
12 12 30
12 12 30
12 12 30
12 12 30
12 12 30
12 12 30
12 12 30
12 12 30
12 12 30
12 12 30
12 12 30
12 12 30
12 12 30
12 12 30
12 12 30
12 12 30
12 12 30
12 12 30
12 12 30
12 12 30
12 12 30
12 12 30
12 12 30
230 51 51
230 51 51
230 51 51
230 51 51
230 51 51
230 51 51
230 51 51
230 51 51
230 51 51
230 51 51
230 51 51
230 51 51
230 51 51
230 51 51
230 51 51
230 51 51
230 51 51
230 51 51
230 51 51
230 51 51
230 51 51
230 51 51
230 51 51
230 51 51
230 51 51
230 51 51
230 51 51
230 51 51
230 51 51
230 51 51
230 51 51
230 51 51
230 51 51
230 51 51
230 51 51
230 51 51
230 51 51
230 51 51
230 51 51
230 51 51
230 51 51
230 51 51
12 12 30
51 127 230
51 127 230
51 127 230
51 127 230
51 127 230
51 127 230
51 127 230
51 127 230
51 127 230
51 127 230
51 127 230
51 127 230
51 127 230
51 127 230
51 127 230
51 127 230
51 127 230
51 127 230
51 127 230
51 127 230
51 127 230
51 127 230
51 127 230
51 127 230
51 127 230
51 127 230
51 127 230
51 127 230
51 127 230
51 127 230
51 127 230
51 127 230
51 127 230
51 127 230
51 127 230
51 127 230
51 127 230
51 127 230
51 127 230
51 127 230
51 127 230
51 127 230
12 12 30
12 12 30
12 12 30
12 12 30
12 12 30
12 12 30
12 12 30
12 12 30
12 12 30
12 12 30
12 12 30
12 12 30
12 12 30
12 12 30
12 12 30
12 12 30
12 12 30
12 12 30
12 12 30
12 12 30
12 12 30
12 12 30
12 12 30
12 12 30
12 12 30
12 12 30
12 12 30
12 12 30
12 12 30
12 12 30
12 12 30
12 12 30
12 12 30
12 12 30
12 12 30
12 12 30
12 12 30
12 12 30
12 12 30
12 12 30
12 12 30
12 12 30
12 12 30
12 12 30
12 12 30
12 12 30
12 12 30
12 12 30
12 12 30
12 12 30
12 12 30
12 12 30
12 12 30
12 12 30
12 12 30
12 12 30
12 12 30
12 12 30
12 12 30
12 12 30
12 12 30
12 12 30
12 12 30
12 12 30
12 12 30
12 12 30
12 12 30
12 12 30
12 12 30
12 12 30
12 12 30
12 12 30
12 12 30
12 12 30
12 12 30
12 12 30
12 12 30
12 12 30
12 12 30
12 12 30
12 12 30
12 12 30
12 12 30
12 12 30
12 12 30
12 12 30
12 12 30
12 12 30
12 12 30
12 12 30
12 12 30
12 12 30
12 12 30
12 12 30
12 12 30
12 12 30
12 12 30
12 12 30
12 12 30
12 12 30
12 12 30
12 12 30
12 12 30
12 12 30
12 12 30
12 12 30
12 12 30
12 12 30
12 12 30
12 12 30
12 12 30
12 12 30
12 12 30
12 12 30
12 12 30
12 12 30
12 12 30
12 12 30
12 12 30
12 12 30
12 12 30
12 12 30
12 12 30
12 12 30
12 12 30
12 12 30
12 12 30
12 12 30
12 12 30
12 12 30
12 12 30
12 12 30
12 12 30
12 12 30
12 12 30
12 12 30
12 12 30
12 12 30
12 12 30
12 12 30
12 12 30
12 12 30
12 12 30
12 12 30
12 12 30
12 12 30
12 12 30
12 12 30
12 12 30
12 12 30
12 12 30
12 12 30
12 12 30
12 12 30
12 12 30
12 12 30
12 12 30
12 12 30
12 12 30
12 12 30
12 12 30
12 12 30
12 12 30
12 12 30
12 12 30
12 12 30
12 12 30
12 12 30
12 12 30
12 12 30
12 12 30
12 12 30
12 12 30
12 12 30
12 12 30
12 12 30
12 12 30
12 12 30
12 12 30
12 12 30
12 12 30
12 12 30
12 12 30
12 12 30
12 12 30
12 12 30
12 12 30
12 12 30
12 12 30
12 12 30
12 12 30
12 12 30
12 12 30
12 12 30
12 12 30
12 12 30
12 12 30
12 12 30
12 12 30
12 12 30
12 12 30
12 12 30
12 12 30
12 12 30
12 12 30
12 12 30
12 12 30
12 12 30
12 12 30
12 12 30
12 12 30
12 12 30
12 12 30
12 12 30
12 12 30
12 12 30
12 12 30
12 12 30
12 12 30
12 12 30
12 12 30
12 12 30
12 12 30
12 12 30
12 12 30
12 12 30
12 12 30
12 12 30
12 12 30
12 12 30
12 12 30
12 12 30
12 12 30
12 12 30
12 12 30
12 12 30
12 12 30
12 12 30
12 12 30
12 12 30
12 12 30
12 12 30
12 12 30
12 12 30
12 12 30
12 12 30
12 12 30
12 12 30
12 12 30
12 12 30
12 12 30
12 12 30
12 12 30
12 12 30
12 12 30
12 12 30
12 12 30
12 12 30
12 12 30
12 12 30
12 12 30
12 12 30
12 12 30
12 12 30
12 12 30
12 12 30
12 12 30
12 12 30
12 12 30
12 12 30
12 12 30
12 12 30
12 12 30
12 12 30
12 12 30
12 12 30
12 12 30
12 12 30
12 12 30
12 12 30
12 12 30
12 12 30
12 12 30
12 12 30
12 12 30
12 12 30
12 12 30
12 12 30
12 12 30
12 12 30
12 12 30
12 12 30
12 12 30
12 12 30
12 12 30
12 12 30
12 12 30
12 12 30
12 12 30
12 12 30
12 12 30
12 12 30
12 12 30
12 12 30
12 12 30
12 12 30
12 12 30
12 12 30
12 12 30
12 12 30
12 12 30
12 12 30
12 12 30
12 12 30
12 12 30
230 51 51
230 51 51
230 51 51
230 51 51
230 51 51
230 51 51
230 51 51
230 51 51
230 51 51
230 51 51
230 51 51
230 51 51
230 51 51
230 51 51
230 51 51
230 51 51
230 51 51
230 51 51
230 51 51
230 51 51
230 51 51
230 51 51
230 51 51
230 51 51
230 51 51
230 51 51
230 51 51
230 51 51
230 51 51
230 51 51
230 51 51
230 51 51
230 51 51
230 51 51
230 51 51
230 51 51
230 51 51
230 51 51
230 51 51
230 51 51
230 51 51
230 51 51
12 12 30
51 127 230
51 127 230
51 127 230
51 127 230
51 127 230
51 127 230
51 127 230
51 127 230
51 127 230
51 127 230
51 127 230
51 127 230
51 127 230
51 127 230
51 127 230
51 127 230
51 127 230
51 127 230
51 127 230
51 127 230
51 127 230
51 127 230
51 127 230
51 127 230
51 127 230
51 127 230
51 127 230
51 127 230
51 127 230
51 127 230
51 127 230
51 127 230
51 127 230
51 127 230
51 127 230
51 127 230
51 127 230
51 127 230
51 127 230
51 127 230
51 127 230
51 127 230
12 12 30
12 12 30
12 12 30
12 12 30
12 12 30
12 12 30
12 12 30
12 12 30
12 12 30
12 12 30
12 12 30
12 12 30
12 12 30
12 12 30
12 12 30
12 12 30
12 12 30
12 12 30
12 12 30
12 12 30
12 12 30
12 12 30
12 12 30
12 12 30
12 12 30
12 12 30
12 12 30
12 12 30
12 12 30
12 12 30
12 12 30
12 12 30
12 12 30
12 12 30
12 12 30
12 12 30
12 12 30
12 12 30
12 12 30
12 12 30
12 12 30
12 12 30
12 12 30
12 12 30
12 12 30
12 12 30
12 12 30
12 12 30
12 12 30
12 12 30
12 12 30
12 12 30
12 12 30
12 12 30
12 12 30
12 12 30
12 12 30
12 12 30
12 12 30
12 12 30
12 12 30
12 12 30
12 12 30
12 12 30
12 12 30
12 12 30
12 12 30
12 12 30
12 12 30
12 12 30
12 12 30
12 12 30
12 12 30
12 12 30
12 12 30
12 12 30
12 12 30
12 12 30
12 12 30
12 12 30
12 12 30
12 12 30
12 12 30
12 12 30
12 12 30
12 12 30
12 12 30
12 12 30
12 12 30
12 12 30
12 12 30
12 12 30
12 12 30
12 12 30
12 12 30
12 12 30
12 12 30
12 12 30
12 12 30
12 12 30
12 12 30
12 12 30
12 12 30
12 12 30
12 12 30
12 12 30
12 12 30
12 12 30
12 12 30
12 12 30
12 12 30
12 12 30
12 12 30
12 12 30
12 12 30
12 12 30
12 12 30
12 12 30
12 12 30
12 12 30
12 12 30
12 12 30
12 12 30
12 12 30
12 12 30
12 12 30
12 12 30
12 12 30
12 12 30
12 12 30
12 12 30
12 12 30
12 12 30
12 12 30
12 12 30
12 12 30
12 12 30
12 12 30
12 12 30
12 12 30
12 12 30
12 12 30
12 12 30
12 12 30
12 12 30
12 12 30
12 12 30
12 12 30
12 12 30
12 12 30
12 12 30
12 12 30
12 12 30
12 12 30
12 12 30
12 12 30
12 12 30
12 12 30
12 12 30
12 12 30
12 12 30
12 12 30
12 12 30
12 12 30
12 12 30
12 12 30
12 12 30
12 12 30
12 12 30
12 12 30
12 12 30
12 12 30
12 12 30
12 12 30
12 12 30
12 12 30
12 12 30
12 12 30
12 12 30
12 12 30
12 12 30
12 12 30
12 12 30
12 12 30
12 12 30
12 12 30
12 12 30
12 12 30
12 12 30
12 12 30
12 12 30
12 12 30
12 12 30
12 12 30
12 12 30
12 12 30
12 12 30
12 12 30
12 12 30
12 12 30
12 12 30
12 12 30
12 12 30
12 12 30
12 12 30
12 12 30
12 12 30
12 12 30
12 12 30
12 12 30
12 12 30
12 12 30
12 12 30
12 12 30
12 12 30
12 12 30
12 12 30
12 12 30
12 12 30
12 12 30
12 12 30
12 12 30
12 12 30
12 12 30
12 12 30
12 12 30
12 12 30
12 12 30
12 12 30
12 12 30
12 12 30
12 12 30
12 12 30
12 12 30
12 12 30
12 12 30
12 12 30
12 12 30
12 12 30
12 12 30
12 12 30
12 12 30
12 12 30
12 12 30
12 12 30
12 12 30
12 12 30
12 12 30
12 12 30
12 12 30
12 12 30
12 12 30
12 12 30
12 12 30
12 12 30
12 12 30
12 12 30
12 12 30
12 12 30
12 12 30
12 12 30
12 12 30
12 12 30
12 12 30
12 12 30
12 12 30
12 12 30
12 12 30
12 12 30
12 12 30
12 12 30
12 12 30
12 12 30
12 12 30
12 12 30
12 12 30
12 12 30
12 12 30
12 12 30
12 12 30
12 12 30
12 12 30
12 12 30
12 12 30
12 12 30
12 12 30
12 12 30
12 12 30
12 12 30
12 12 30
12 12 30
12 12 30
12 12 30
12 12 30
12 12 30
12 12 30
12 12 30
12 12 30
12 12 30
12 12 30
12 12 30
12 12 30
12 12 30
12 12 30
12 12 30
12 12 30
12 12 30
12 12 30
12 12 30
12 12 30
12 12 30
12 12 30
12 12 30
12 12 30
12 12 30
12 12 30
230 51 51
230 51 51
230 51 51
230 51 51
230 51 51
230 51 51
230 51 51
230 51 51
230 51 51
230 51 51
230 51 51
230 51 51
230 51 51
230 51 51
230 51 51
230 51 51
230 51 51
230 51 51
230 51 51
230 51 51
230 51 51
230 51 51
230 51 51
230 51 51
230 51 51
230 51 51
230 51 51
230 51 51
230 51 51
230 51 51
230 51 51
230 51 51
230 51 51
230 51 51
230 51 51
230 51 51
230 51 51
230 51 51
230 51 51
230 51 51
12 12 30
12 12 30
12 12 30
51 127 230
51 127 230
51 127 230
51 127 230
51 127 230
51 127 230
51 127 230
51 127 230
51 127 230
51 127 230
51 127 230
51 127 230
51 127 230
51 127 230
51 127 230
51 127 230
51 127 230
51 127 230
51 127 230
51 127 230
51 127 230
51 127 230
51 127 230
51 127 230
51 127 230
51 127 230
51 127 230
51 127 230
51 127 230
51 127 230
51 127 230
51 127 230
51 127 230
51 127 230
51 127 230
51 127 230
51 127 230
51 127 230
51 127 230
51 127 230
12 12 30
12 12 30
12 12 30
12 12 30
12 12 30
12 12 30
12 12 30
12 12 30
12 12 30
12 12 30
12 12 30
12 12 30
12 12 30
12 12 30
12 12 30
12 12 30
12 12 30
12 12 30
12 12 30
12 12 30
12 12 30
12 12 30
12 12 30
12 12 30
12 12 30
12 12 30
12 12 30
12 12 30
12 12 30
12 12 30
12 12 30
12 12 30
12 12 30
12 12 30
12 12 30
12 12 30
12 12 30
12 12 30
12 12 30
12 12 30
12 12 30
12 12 30
12 12 30
12 12 30
12 12 30
12 12 30
12 12 30
12 12 30
12 12 30
12 12 30
12 12 30
12 12 30
12 12 30
12 12 30
12 12 30
12 12 30
12 12 30
12 12 30
12 12 30
12 12 30
12 12 30
12 12 30
12 12 30
12 12 30
12 12 30
12 12 30
12 12 30
12 12 30
12 12 30
12 12 30
12 12 30
12 12 30
12 12 30
12 12 30
12 12 30
12 12 30
12 12 30
12 12 30
12 12 30
12 12 30
12 12 30
12 12 30
12 12 30
12 12 30
12 12 30
12 12 30
12 12 30
12 12 30
12 12 30
12 12 30
12 12 30
12 12 30
12 12 30
12 12 30
12 12 30
12 12 30
12 12 30
12 12 30
12 12 30
12 12 30
12 12 30
12 12 30
12 12 30
12 12 30
12 12 30
12 12 30
12 12 30
12 12 30
12 12 30
12 12 30
12 12 30
12 12 30
12 12 30
12 12 30
12 12 30
12 12 30
12 12 30
12 12 30
12 12 30
12 12 30
12 12 30
12 12 30
12 12 30
12 12 30
12 12 30
12 12 30
12 12 30
12 12 30
12 12 30
12 12 30
12 12 30
12 12 30
12 12 30
12 12 30
12 12 30
12 12 30
12 12 30
12 12 30
12 12 30
12 12 30
12 12 30
12 12 30
12 12 30
12 12 30
12 12 30
12 12 30
12 12 30
12 12 30
12 12 30
12 12 30
12 12 30
12 12 30
12 12 30
12 12 30
12 12 30
12 12 30
12 12 30
12 12 30
12 12 30
12 12 30
12 12 30
12 12 30
12 12 30
12 12 30
12 12 30
12 12 30
12 12 30
12 12 30
12 12 30
12 12 30
12 12 30
12 12 30
12 12 30
12 12 30
12 12 30
12 12 30
12 12 30
12 12 30
12 12 30
12 12 30
12 12 30
12 12 30
12 12 30
12 12 30
12 12 30
12 12 30
12 12 30
12 12 30
12 12 30
12 12 30
12 12 30
12 12 30
12 12 30
12 12 30
12 12 30
12 12 30
12 12 30
12 12 30
12 12 30
12 12 30
12 12 30
12 12 30
12 12 30
12 12 30
12 12 30
12 12 30
12 12 30
12 12 30
12 12 30
12 12 30
12 12 30
12 12 30
12 12 30
12 12 30
12 12 30
12 12 30
12 12 30
12 12 30
12 12 30
12 12 30
12 12 30
12 12 30
12 12 30
12 12 30
12 12 30
12 12 30
12 12 30
12 12 30
12 12 30
12 12 30
12 12 30
12 12 30
12 12 30
12 12 30
12 12 30
12 12 30
12 12 30
12 12 30
12 12 30
12 12 30
12 12 30
12 12 30
12 12 30
12 12 30
12 12 30
12 12 30
12 12 30
12 12 30
12 12 30
12 12 30
12 12 30
12 12 30
12 12 30
12 12 30
12 12 30
12 12 30
12 12 30
12 12 30
12 12 30
12 12 30
12 12 30
12 12 30
12 12 30
12 12 30
12 12 30
12 12 30
12 12 30
12 12 30
12 12 30
12 12 30
12 12 30
12 12 30
12 12 30
12 12 30
12 12 30
12 12 30
12 12 30
12 12 30
12 12 30
12 12 30
12 12 30
12 12 30
12 12 30
12 12 30
12 12 30
12 12 30
12 12 30
12 12 30
12 12 30
12 12 30
12 12 30
12 12 30
12 12 30
12 12 30
12 12 30
12 12 30
12 12 30
12 12 30
12 12 30
12 12 30
12 12 30
12 12 30
12 12 30
12 12 30
12 12 30
12 12 30
12 12 30
12 12 30
12 12 30
12 12 30
12 12 30
12 12 30
12 12 30
12 12 30
12 12 30
12 12 30
12 12 30
230 51 51
230 51 51
230 51 51
230 51 51
230 51 51
230 51 51
230 51 51
230 51 51
230 51 51
230 51 51
230 51 51
230 51 51
230 51 51
230 51 51
230 51 51
230 51 51
230 51 51
230 51 51
230 51 51
230 51 51
230 51 51
230 51 51
230 51 51
230 51 51
230 51 51
230 51 51
230 51 51
230 51 51
230 51 51
230 51 51
230 51 51
230 51 51
230 51 51
230 51 51
230 51 51
230 51 51
230 51 51
230 51 51
230 51 51
230 51 51
12 12 30
12 12 30
12 12 30
51 127 230
51 127 230
51 127 230
51 127 230
51 127 230
51 127 230
51 127 230
51 127 230
51 127 230
51 127 230
51 127 230
51 127 230
51 127 230
51 127 230
51 127 230
51 127 230
51 127 230
51 127 230
51 127 230
51 127 230
51 127 230
51 127 230
51 127 230
51 127 230
51 127 230
51 127 230
51 127 230
51 127 230
51 127 230
51 127 230
51 127 230
51 127 230
51 127 230
51 127 230
51 127 230
51 127 230
51 127 230
51 127 230
51 127 230
51 127 230
12 12 30
12 12 30
12 12 30
12 12 30
12 12 30
12 12 30
12 12 30
12 12 30
12 12 30
12 12 30
12 12 30
12 12 30
12 12 30
12 12 30
12 12 30
12 12 30
12 12 30
12 12 30
12 12 30
12 12 30
12 12 30
12 12 30
12 12 30
12 12 30
12 12 30
12 12 30
12 12 30
12 12 30
12 12 30
12 12 30
12 12 30
12 12 30
12 12 30
12 12 30
12 12 30
12 12 30
12 12 30
12 12 30
12 12 30
12 12 30
12 12 30
12 12 30
12 12 30
12 12 30
12 12 30
12 12 30
12 12 30
12 12 30
12 12 30
12 12 30
12 12 30
12 12 30
12 12 30
12 12 30
12 12 30
12 12 30
12 12 30
12 12 30
12 12 30
12 12 30
12 12 30
12 12 30
12 12 30
12 12 30
12 12 30
12 12 30
12 12 30
12 12 30
12 12 30
12 12 30
12 12 30
12 12 30
12 12 30
12 12 30
12 12 30
12 12 30
12 12 30
12 12 30
12 12 30
12 12 30
12 12 30
12 12 30
12 12 30
12 12 30
12 12 30
12 12 30
12 12 30
12 12 30
12 12 30
12 12 30
12 12 30
12 12 30
12 12 30
12 12 30
12 12 30
12 12 30
12 12 30
12 12 30
12 12 30
12 12 30
12 12 30
12 12 30
12 12 30
12 12 30
12 12 30
12 12 30
12 12 30
12 12 30
12 12 30
12 12 30
12 12 30
12 12 30
12 12 30
12 12 30
12 12 30
12 12 30
12 12 30
12 12 30
12 12 30
12 12 30
12 12 30
12 12 30
12 12 30
12 12 30
12 12 30
12 12 30
12 12 30
12 12 30
12 12 30
12 12 30
12 12 30
12 12 30
12 12 30
12 12 30
12 12 30
12 12 30
12 12 30
12 12 30
12 12 30
12 12 30
12 12 30
12 12 30
12 12 30
12 12 30
12 12 30
12 12 30
12 12 30
12 12 30
12 12 30
12 12 30
12 12 30
12 12 30
12 12 30
12 12 30
12 12 30
12 12 30
12 12 30
12 12 30
12 12 30
12 12 30
12 12 30
12 12 30
12 12 30
12 12 30
12 12 30
12 12 30
12 12 30
12 12 30
12 12 30
12 12 30
12 12 30
12 12 30
12 12 30
12 12 30
12 12 30
12 12 30
12 12 30
12 12 30
12 12 30
12 12 30
12 12 30
12 12 30
12 12 30
12 12 30
12 12 30
12 12 30
12 12 30
12 12 30
12 12 30
12 12 30
12 12 30
12 12 30
12 12 30
12 12 30
12 12 30
12 12 30
12 12 30
12 12 30
12 12 30
12 12 30
12 12 30
12 12 30
12 12 30
12 12 30
12 12 30
12 12 30
12 12 30
12 12 30
12 12 30
12 12 30
12 12 30
12 12 30
12 12 30
12 12 30
12 12 30
12 12 30
12 12 30
12 12 30
12 12 30
12 12 30
12 12 30
12 12 30
12 12 30
12 12 30
12 12 30
12 12 30
12 12 30
12 12 30
12 12 30
12 12 30
12 12 30
12 12 30
12 12 30
12 12 30
12 12 30
12 12 30
12 12 30
12 12 30
12 12 30
12 12 30
12 12 30
12 12 30
12 12 30
12 12 30
12 12 30
12 12 30
12 12 30
12 12 30
12 12 30
12 12 30
12 12 30
12 12 30
12 12 30
12 12 30
12 12 30
12 12 30
12 12 30
12 12 30
12 12 30
12 12 30
12 12 30
12 12 30
12 12 30
12 12 30
12 12 30
12 12 30
12 12 30
12 12 30
12 12 30
12 12 30
12 12 30
12 12 30
12 12 30
12 12 30
12 12 30
12 12 30
12 12 30
12 12 30
12 12 30
12 12 30
12 12 30
12 12 30
12 12 30
12 12 30
12 12 30
12 12 30
12 12 30
12 12 30
12 12 30
12 12 30
12 12 30
12 12 30
12 12 30
12 12 30
12 12 30
12 12 30
12 12 30
12 12 30
12 12 30
12 12 30
12 12 30
12 12 30
12 12 30
12 12 30
12 12 30
12 12 30
12 12 30
12 12 30
12 12 30
12 12 30
12 12 30
12 12 30
12 12 30
12 12 30
12 12 30
12 12 30
12 12 30
230 51 51
230 51 51
230 51 51
230 51 51
230 51 51
230 51 51
230 51 51
230 51 51
230 51 51
230 51 51
230 51 51
230 51 51
230 51 51
230 51 51
230 51 51
230 51 51
230 51 51
230 51 51
230 51 51
230 51 51
230 51 51
230 51 51
230 51 51
230 51 51
230 51 51
230 51 51
230 51 51
230 51 51
230 51 51
230 51 51
230 51 51
230 51 51
230 51 51
230 51 51
230 51 51
230 51 51
230 51 51
230 51 51
230 51 51
230 51 51
12 12 30
12 12 30
12 12 30
12 12 30
51 127 230
51 127 230
51 127 230
51 127 230
51 127 230
51 127 230
51 127 230
51 127 230
51 127 230
51 127 230
51 127 230
51 127 230
51 127 230
51 127 230
51 127 230
51 127 230
51 127 230
51 127 230
51 127 230
51 127 230
51 127 230
51 127 230
51 127 230
51 127 230
51 127 230
51 127 230
51 127 230
51 127 230
51 127 230
51 127 230
51 127 230
51 127 230
51 127 230
51 127 230
51 127 230
51 127 230
51 127 230
51 127 230
12 12 30
12 12 30
12 12 30
12 12 30
12 12 30
12 12 30
12 12 30
12 12 30
12 12 30
12 12 30
12 12 30
12 12 30
12 12 30
12 12 30
12 12 30
12 12 30
12 12 30
12 12 30
12 12 30
12 12 30
12 12 30
12 12 30
12 12 30
12 12 30
12 12 30
12 12 30
12 12 30
12 12 30
12 12 30
12 12 30
12 12 30
12 12 30
12 12 30
12 12 30
12 12 30
12 12 30
12 12 30
12 12 30
12 12 30
12 12 30
12 12 30
12 12 30
12 12 30
12 12 30
12 12 30
12 12 30
12 12 30
12 12 30
12 12 30
12 12 30
12 12 30
12 12 30
12 12 30
12 12 30
12 12 30
12 12 30
12 12 30
12 12 30
12 12 30
12 12 30
12 12 30
12 12 30
12 12 30
12 12 30
12 12 30
12 12 30
12 12 30
12 12 30
12 12 30
12 12 30
12 12 30
12 12 30
12 12 30
12 12 30
12 12 30
12 12 30
12 12 30
12 12 30
12 12 30
12 12 30
12 12 30
12 12 30
12 12 30
12 12 30
12 12 30
12 12 30
12 12 30
12 12 30
12 12 30
12 12 30
12 12 30
12 12 30
12 12 30
12 12 30
12 12 30
12 12 30
12 12 30
12 12 30
12 12 30
12 12 30
12 12 30
12 12 30
12 12 30
12 12 30
12 12 30
12 12 30
12 12 30
12 12 30
12 12 30
12 12 30
12 12 30
12 12 30
12 12 30
12 12 30
12 12 30
12 12 30
12 12 30
12 12 30
12 12 30
12 12 30
12 12 30
12 12 30
12 12 30
12 12 30
12 12 30
12 12 30
12 12 30
12 12 30
12 12 30
12 12 30
12 12 30
12 12 30
12 12 30
12 12 30
12 12 30
12 12 30
12 12 30
12 12 30
12 12 30
12 12 30
12 12 30
12 12 30
12 12 30
12 12 30
12 12 30
12 12 30
12 12 30
12 12 30
12 12 30
12 12 30
12 12 30
12 12 30
12 12 30
12 12 30
12 12 30
12 12 30
12 12 30
12 12 30
12 12 30
12 12 30
12 12 30
12 12 30
12 12 30
12 12 30
12 12 30
12 12 30
12 12 30
12 12 30
12 12 30
12 12 30
12 12 30
12 12 30
12 12 30
12 12 30
12 12 30
12 12 30
12 12 30
12 12 30
12 12 30
12 12 30
12 12 30
12 12 30
12 12 30
12 12 30
12 12 30
12 12 30
12 12 30
12 12 30
12 12 30
12 12 30
12 12 30
12 12 30
12 12 30
12 12 30
12 12 30
12 12 30
12 12 30
12 12 30
12 12 30
12 12 30
12 12 30
12 12 30
12 12 30
12 12 30
12 12 30
12 12 30
12 12 30
12 12 30
12 12 30
12 12 30
12 12 30
12 12 30
12 12 30
12 12 30
12 12 30
12 12 30
12 12 30
12 12 30
12 12 30
12 12 30
12 12 30
12 12 30
12 12 30
12 12 30
12 12 30
12 12 30
12 12 30
12 12 30
12 12 30
12 12 30
12 12 30
12 12 30
12 12 30
12 12 30
12 12 30
12 12 30
12 12 30
12 12 30
12 12 30
12 12 30
12 12 30
12 12 30
12 12 30
12 12 30
12 12 30
12 12 30
12 12 30
12 12 30
12 12 30
12 12 30
12 12 30
12 12 30
12 12 30
12 12 30
12 12 30
12 12 30
12 12 30
12 12 30
12 12 30
12 12 30
12 12 30
12 12 30
12 12 30
12 12 30
12 12 30
12 12 30
12 12 30
12 12 30
12 12 30
12 12 30
12 12 30
12 12 30
12 12 30
12 12 30
12 12 30
12 12 30
12 12 30
12 12 30
12 12 30
12 12 30
12 12 30
12 12 30
12 12 30
12 12 30
12 12 30
12 12 30
12 12 30
12 12 30
12 12 30
12 12 30
12 12 30
12 12 30
12 12 30
12 12 30
12 12 30
12 12 30
12 12 30
12 12 30
12 12 30
12 12 30
12 12 30
12 12 30
12 12 30
12 12 30
12 12 30
12 12 30
12 12 30
12 12 30
12 12 30
12 12 30
12 12 30
12 12 30
12 12 30
12 12 30
12 12 30
12 12 30
12 12 30
12 12 30
230 51 51
230 51 51
230 51 51
230 51 51
230 51 51
230 51 51
230 51 51
230 51 51
230 51 51
230 51 51
230 51 51
230 51 51
230 51 51
230 51 51
230 51 51
230 51 51
230 51 51
230 51 51
230 51 51
230 51 51
230 51 51
230 51 51
230 51 51
230 51 51
230 51 51
230 51 51
230 51 51
230 51 51
230 51 51
230 51 51
230 51 51
230 51 51
230 51 51
230 51 51
230 51 51
230 51 51
230 51 51
230 51 51
230 51 51
230 51 51
12 12 30
12 12 30
12 12 30
12 12 30
51 127 230
51 127 230
51 127 230
51 127 230
51 127 230
51 127 230
51 127 230
51 127 230
51 127 230
51 127 230
51 127 230
51 127 230
51 127 230
51 127 230
51 127 230
51 127 230
51 127 230
51 127 230
51 127 230
51 127 230
51 127 230
51 127 230
51 127 230
51 127 230
51 127 230
51 127 230
51 127 230
51 127 230
51 127 230
51 127 230
51 127 230
51 127 230
51 127 230
51 127 230
51 127 230
51 127 230
51 127 230
51 127 230
12 12 30
12 12 30
12 12 30
12 12 30
12 12 30
12 12 30
12 12 30
12 12 30
12 12 30
12 12 30
12 12 30
12 12 30
12 12 30
12 12 30
12 12 30
12 12 30
12 12 30
12 12 30
12 12 30
12 12 30
12 12 30
12 12 30
12 12 30
12 12 30
12 12 30
12 12 30
12 12 30
12 12 30
12 12 30
12 12 30
12 12 30
12 12 30
12 12 30
12 12 30
12 12 30
12 12 30
12 12 30
12 12 30
12 12 30
12 12 30
12 12 30
12 12 30
12 12 30
12 12 30
12 12 30
12 12 30
12 12 30
12 12 30
12 12 30
12 12 30
12 12 30
12 12 30
12 12 30
12 12 30
12 12 30
12 12 30
12 12 30
12 12 30
12 12 30
12 12 30
12 12 30
12 12 30
12 12 30
12 12 30
12 12 30
12 12 30
12 12 30
12 12 30
12 12 30
12 12 30
12 12 30
12 12 30
12 12 30
12 12 30
12 12 30
12 12 30
12 12 30
12 12 30
12 12 30
12 12 30
12 12 30
12 12 30
12 12 30
12 12 30
12 12 30
12 12 30
12 12 30
12 12 30
12 12 30
12 12 30
12 12 30
12 12 30
12 12 30
12 12 30
12 12 30
12 12 30
12 12 30
12 12 30
12 12 30
12 12 30
12 12 30
12 12 30
12 12 30
12 12 30
12 12 30
12 12 30
12 12 30
12 12 30
12 12 30
12 12 30
12 12 30
12 12 30
12 12 30
12 12 30
12 12 30
12 12 30
12 12 30
12 12 30
12 12 30
12 12 30
12 12 30
12 12 30
12 12 30
12 12 30
12 12 30
12 12 30
12 12 30
12 12 30
12 12 30
12 12 30
12 12 30
12 12 30
12 12 30
12 12 30
12 12 30
12 12 30
12 12 30
12 12 30
12 12 30
12 12 30
12 12 30
12 12 30
12 12 30
12 12 30
12 12 30
12 12 30
12 12 30
12 12 30
12 12 30
12 12 30
12 12 30
12 12 30
12 12 30
12 12 30
12 12 30
12 12 30
12 12 30
12 12 30
12 12 30
12 12 30
12 12 30
12 12 30
12 12 30
12 12 30
12 12 30
12 12 30
12 12 30
12 12 30
12 12 30
12 12 30
12 12 30
12 12 30
12 12 30
12 12 30
12 12 30
12 12 30
12 12 30
12 12 30
12 12 30
12 12 30
12 12 30
12 12 30
12 12 30
12 12 30
12 12 30
12 12 30
12 12 30
12 12 30
12 12 30
12 12 30
12 12 30
12 12 30
12 12 30
12 12 30
12 12 30
12 12 30
12 12 30
12 12 30
12 12 30
12 12 30
12 12 30
12 12 30
12 12 30
12 12 30
12 12 30
12 12 30
12 12 30
12 12 30
12 12 30
12 12 30
12 12 30
12 12 30
12 12 30
12 12 30
12 12 30
12 12 30
12 12 30
12 12 30
12 12 30
12 12 30
12 12 30
12 12 30
12 12 30
12 12 30
12 12 30
12 12 30
12 12 30
12 12 30
12 12 30
12 12 30
12 12 30
12 12 30
12 12 30
12 12 30
12 12 30
12 12 30
12 12 30
12 12 30
12 12 30
12 12 30
12 12 30
12 12 30
12 12 30
12 12 30
12 12 30
12 12 30
12 12 30
12 12 30
12 12 30
12 12 30
12 12 30
12 12 30
12 12 30
12 12 30
12 12 30
12 12 30
12 12 30
12 12 30
12 12 30
12 12 30
12 12 30
12 12 30
12 12 30
12 12 30
12 12 30
12 12 30
12 12 30
12 12 30
12 12 30
12 12 30
12 12 30
12 12 30
12 12 30
12 12 30
12 12 30
12 12 30
12 12 30
12 12 30
12 12 30
12 12 30
12 12 30
12 12 30
12 12 30
12 12 30
12 12 30
12 12 30
12 12 30
12 12 30
12 12 30
12 12 30
12 12 30
12 12 30
12 12 30
12 12 30
12 12 30
12 12 30
12 12 30
12 12 30
12 12 30
12 12 30
12 12 30
12 12 30
12 12 30
12 12 30
12 12 30
12 12 30
12 12 30
12 12 30
12 12 30
12 12 30
12 12 30
12 12 30
12 12 30
12 12 30
12 12 30
12 12 30
12 12 30
12 12 30
12 12 30
230 51 51
230 51 51
230 51 51
230 51 51
230 51 51
230 51 51
230 51 51
230 51 51
230 51 51
230 51 51
230 51 51
230 51 51
230 51 51
230 51 51
230 51 51
230 51 51
230 51 51
230 51 51
230 51 51
230 51 51
230 51 51
230 51 51
230 51 51
230 51 51
230 51 51
230 51 51
230 51 51
230 51 51
230 51 51
230 51 51
230 51 51
230 51 51
230 51 51
230 51 51
230 51 51
230 51 51
230 51 51
230 51 51
12 12 30
12 12 30
12 12 30
12 12 30
12 12 30
12 12 30
51 127 230
51 127 230
51 127 230
51 127 230
51 127 230
51 127 230
51 127 230
51 127 230
51 127 230
51 127 230
51 127 230
51 127 230
51 127 230
51 127 230
51 127 230
51 127 230
51 127 230
51 127 230
51 127 230
51 127 230
51 127 230
51 127 230
51 127 230
51 127 230
51 127 230
51 127 230
51 127 230
51 127 230
51 127 230
51 127 230
51 127 230
51 127 230
51 127 230
51 127 230
51 127 230
51 127 230
12 12 30
12 12 30
12 12 30
12 12 30
12 12 30
12 12 30
12 12 30
12 12 30
12 12 30
12 12 30
12 12 30
12 12 30
12 12 30
12 12 30
12 12 30
12 12 30
12 12 30
12 12 30
12 12 30
12 12 30
12 12 30
12 12 30
12 12 30
12 12 30
12 12 30
12 12 30
12 12 30
12 12 30
12 12 30
12 12 30
12 12 30
12 12 30
12 12 30
12 12 30
12 12 30
12 12 30
12 12 30
12 12 30
12 12 30
12 12 30
12 12 30
12 12 30
12 12 30
12 12 30
12 12 30
12 12 30
12 12 30
12 12 30
12 12 30
12 12 30
12 12 30
12 12 30
12 12 30
12 12 30
12 12 30
12 12 30
12 12 30
12 12 30
12 12 30
12 12 30
12 12 30
12 12 30
12 12 30
12 12 30
12 12 30
12 12 30
12 12 30
12 12 30
12 12 30
12 12 30
12 12 30
12 12 30
12 12 30
12 12 30
12 12 30
12 12 30
12 12 30
12 12 30
12 12 30
12 12 30
12 12 30
12 12 30
12 12 30
12 12 30
12 12 30
12 12 30
12 12 30
12 12 30
12 12 30
12 12 30
12 12 30
12 12 30
12 12 30
12 12 30
12 12 30
12 12 30
12 12 30
12 12 30
12 12 30
12 12 30
12 12 30
12 12 30
12 12 30
12 12 30
12 12 30
12 12 30
12 12 30
12 12 30
12 12 30
12 12 30
12 12 30
12 12 30
12 12 30
12 12 30
12 12 30
12 12 30
12 12 30
12 12 30
12 12 30
12 12 30
12 12 30
12 12 30
12 12 30
12 12 30
12 12 30
12 12 30
12 12 30
12 12 30
12 12 30
12 12 30
12 12 30
12 12 30
12 12 30
12 12 30
12 12 30
12 12 30
12 12 30
12 12 30
12 12 30
12 12 30
12 12 30
12 12 30
12 12 30
12 12 30
12 12 30
12 12 30
12 12 30
12 12 30
12 12 30
12 12 30
12 12 30
12 12 30
12 12 30
12 12 30
12 12 30
12 12 30
12 12 30
12 12 30
12 12 30
12 12 30
12 12 30
12 12 30
12 12 30
12 12 30
12 12 30
12 12 30
12 12 30
12 12 30
12 12 30
12 12 30
12 12 30
12 12 30
12 12 30
12 12 30
12 12 30
12 12 30
12 12 30
12 12 30
12 12 30
12 12 30
12 12 30
12 12 30
12 12 30
12 12 30
12 12 30
12 12 30
12 12 30
12 12 30
12 12 30
12 12 30
12 12 30
12 12 30
12 12 30
12 12 30
12 12 30
12 12 30
12 12 30
12 12 30
12 12 30
12 12 30
12 12 30
12 12 30
12 12 30
12 12 30
12 12 30
12 12 30
12 12 30
12 12 30
12 12 30
12 12 30
12 12 30
12 12 30
12 12 30
12 12 30
12 12 30
12 12 30
12 12 30
12 12 30
12 12 30
12 12 30
12 12 30
12 12 30
12 12 30
12 12 30
12 12 30
12 12 30
12 12 30
12 12 30
12 12 30
12 12 30
12 12 30
12 12 30
12 12 30
12 12 30
12 12 30
12 12 30
12 12 30
12 12 30
12 12 30
12 12 30
12 12 30
12 12 30
12 12 30
12 12 30
12 12 30
12 12 30
12 12 30
12 12 30
12 12 30
12 12 30
12 12 30
12 12 30
12 12 30
12 12 30
12 12 30
12 12 30
12 12 30
12 12 30
12 12 30
12 12 30
12 12 30
12 12 30
12 12 30
12 12 30
12 12 30
12 12 30
12 12 30
12 12 30
12 12 30
12 12 30
12 12 30
12 12 30
12 12 30
12 12 30
12 12 30
12 12 30
12 12 30
12 12 30
12 12 30
12 12 30
12 12 30
12 12 30
12 12 30
12 12 30
12 12 30
12 12 30
12 12 30
12 12 30
12 12 30
12 12 30
12 12 30
12 12 30
12 12 30
12 12 30
12 12 30
12 12 30
12 12 30
12 12 30
12 12 30
12 12 30
12 12 30
12 12 30
12 12 30
12 12 30
12 12 30
12 12 30
12 12 30
12 12 30
12 12 30
12 12 30
12 12 30
12 12 30
12 12 30
12 12 30
12 12 30
12 12 30
12 12 30
12 12 30
12 12 30
12 12 30
230 51 51
230 51 51
230 51 51
230 51 51
230 51 51
230 51 51
230 51 51
230 51 51
230 51 51
230 51 51
230 51 51
230 51 51
230 51 51
230 51 51
230 51 51
230 51 51
230 51 51
230 51 51
230 51 51
230 51 51
230 51 51
230 51 51
230 51 51
230 51 51
230 51 51
230 51 51
230 51 51
230 51 51
230 51 51
230 51 51
230 51 51
230 51 51
230 51 51
230 51 51
230 51 51
230 51 51
230 51 51
230 51 51
76 204 76
76 204 76
76 204 76
76 204 76
76 204 76
76 204 76
76 204 76
51 127 230
51 127 230
51 127 230
51 127 230
51 127 230
51 127 230
51 127 230
51 127 230
51 127 230
51 127 230
51 127 230
51 127 230
51 127 230
51 127 230
51 127 230
51 127 230
51 127 230
51 127 230
51 127 230
51 127 230
51 127 230
51 127 230
51 127 230
51 127 230
51 127 230
51 127 230
51 127 230
51 127 230
51 127 230
51 127 230
51 127 230
51 127 230
51 127 230
51 127 230
12 12 30
12 12 30
12 12 30
12 12 30
12 12 30
12 12 30
12 12 30
12 12 30
12 12 30
12 12 30
12 12 30
12 12 30
12 12 30
12 12 30
12 12 30
12 12 30
12 12 30
12 12 30
12 12 30
12 12 30
12 12 30
12 12 30
12 12 30
12 12 30
12 12 30
12 12 30
12 12 30
12 12 30
12 12 30
12 12 30
12 12 30
12 12 30
12 12 30
12 12 30
12 12 30
12 12 30
12 12 30
12 12 30
12 12 30
12 12 30
12 12 30
12 12 30
12 12 30
12 12 30
12 12 30
12 12 30
12 12 30
12 12 30
12 12 30
12 12 30
12 12 30
12 12 30
12 12 30
12 12 30
12 12 30
12 12 30
12 12 30
12 12 30
12 12 30
12 12 30
12 12 30
12 12 30
12 12 30
12 12 30
12 12 30
12 12 30
12 12 30
12 12 30
12 12 30
12 12 30
12 12 30
12 12 30
12 12 30
12 12 30
12 12 30
12 12 30
12 12 30
12 12 30
12 12 30
12 12 30
12 12 30
12 12 30
12 12 30
12 12 30
12 12 30
12 12 30
12 12 30
12 12 30
12 12 30
12 12 30
12 12 30
12 12 30
12 12 30
12 12 30
12 12 30
12 12 30
12 12 30
12 12 30
12 12 30
12 12 30
12 12 30
12 12 30
12 12 30
12 12 30
12 12 30
12 12 30
12 12 30
12 12 30
12 12 30
12 12 30
12 12 30
12 12 30
12 12 30
12 12 30
12 12 30
12 12 30
12 12 30
12 12 30
12 12 30
12 12 30
12 12 30
12 12 30
12 12 30
12 12 30
12 12 30
12 12 30
12 12 30
12 12 30
12 12 30
12 12 30
12 12 30
12 12 30
12 12 30
12 12 30
12 12 30
12 12 30
12 12 30
12 12 30
12 12 30
12 12 30
12 12 30
12 12 30
12 12 30
12 12 30
12 12 30
12 12 30
12 12 30
12 12 30
12 12 30
12 12 30
12 12 30
12 12 30
12 12 30
12 12 30
12 12 30
12 12 30
12 12 30
12 12 30
12 12 30
12 12 30
12 12 30
12 12 30
12 12 30
12 12 30
12 12 30
12 12 30
12 12 30
12 12 30
12 12 30
12 12 30
12 12 30
12 12 30
12 12 30
12 12 30
12 12 30
12 12 30
12 12 30
12 12 30
12 12 30
12 12 30
12 12 30
12 12 30
12 12 30
12 12 30
12 12 30
12 12 30
12 12 30
12 12 30
12 12 30
12 12 30
12 12 30
12 12 30
12 12 30
12 12 30
12 12 30
12 12 30
12 12 30
12 12 30
12 12 30
12 12 30
12 12 30
12 12 30
12 12 30
12 12 30
12 12 30
12 12 30
12 12 30
12 12 30
12 12 30
12 12 30
12 12 30
12 12 30
12 12 30
12 12 30
12 12 30
12 12 30
12 12 30
12 12 30
12 12 30
12 12 30
12 12 30
12 12 30
12 12 30
12 12 30
12 12 30
12 12 30
12 12 30
12 12 30
12 12 30
12 12 30
12 12 30
12 12 30
12 12 30
12 12 30
12 12 30
12 12 30
12 12 30
12 12 30
12 12 30
12 12 30
12 12 30
12 12 30
12 12 30
12 12 30
12 12 30
12 12 30
12 12 30
12 12 30
12 12 30
12 12 30
12 12 30
12 12 30
12 12 30
12 12 30
12 12 30
12 12 30
12 12 30
12 12 30
12 12 30
12 12 30
12 12 30
12 12 30
12 12 30
12 12 30
12 12 30
12 12 30
12 12 30
12 12 30
12 12 30
12 12 30
12 12 30
12 12 30
12 12 30
12 12 30
12 12 30
12 12 30
12 12 30
12 12 30
12 12 30
12 12 30
12 12 30
12 12 30
12 12 30
12 12 30
12 12 30
12 12 30
12 12 30
12 12 30
12 12 30
12 12 30
12 12 30
12 12 30
12 12 30
12 12 30
12 12 30
12 12 30
12 12 30
12 12 30
12 12 30
12 12 30
12 12 30
12 12 30
12 12 30
12 12 30
12 12 30
12 12 30
12 12 30
12 12 30
12 12 30
12 12 30
12 12 30
12 12 30
12 12 30
12 12 30
12 12 30
12 12 30
12 12 30
12 12 30
12 12 30
12 12 30
12 12 30
12 12 30
230 51 51
230 51 51
230 51 51
230 51 51
230 51 51
230 51 51
230 51 51
230 51 51
230 51 51
230 51 51
230 51 51
230 51 51
230 51 51
230 51 51
230 51 51
230 51 51
230 51 51
230 51 51
230 51 51
230 51 51
230 51 51
230 51 51
230 51 51
230 51 51
230 51 51
230 51 51
230 51 51
230 51 51
230 51 51
230 51 51
230 51 51
230 51 51
230 51 51
230 51 51
230 51 51
230 51 51
76 204 76
76 204 76
76 204 76
76 204 76
76 204 76
76 204 76
76 204 76
76 204 76
76 204 76
51 127 230
51 127 230
51 127 230
51 127 230
51 127 230
51 127 230
51 127 230
51 127 230
51 127 230
51 127 230
51 127 230
51 127 230
51 127 230
51 127 230
51 127 230
51 127 230
51 127 230
51 127 230
51 127 230
51 127 230
51 127 230
51 127 230
51 127 230
51 127 230
51 127 230
51 127 230
51 127 230
51 127 230
51 127 230
51 127 230
51 127 230
51 127 230
76 204 76
76 204 76
76 204 76
76 204 76
76 204 76
12 12 30
12 12 30
12 12 30
12 12 30
12 12 30
12 12 30
12 12 30
12 12 30
12 12 30
12 12 30
12 12 30
12 12 30
12 12 30
12 12 30
12 12 30
12 12 30
12 12 30
12 12 30
12 12 30
12 12 30
12 12 30
12 12 30
12 12 30
12 12 30
12 12 30
12 12 30
12 12 30
12 12 30
12 12 30
12 12 30
12 12 30
12 12 30
12 12 30
12 12 30
12 12 30
12 12 30
12 12 30
12 12 30
12 12 30
12 12 30
12 12 30
12 12 30
12 12 30
12 12 30
12 12 30
12 12 30
12 12 30
12 12 30
12 12 30
12 12 30
12 12 30
12 12 30
12 12 30
12 12 30
12 12 30
12 12 30
12 12 30
12 12 30
12 12 30
12 12 30
12 12 30
12 12 30
12 12 30
12 12 30
12 12 30
12 12 30
12 12 30
12 12 30
12 12 30
12 12 30
12 12 30
12 12 30
12 12 30
12 12 30
12 12 30
12 12 30
12 12 30
12 12 30
12 12 30
12 12 30
12 12 30
12 12 30
12 12 30
12 12 30
12 12 30
12 12 30
12 12 30
12 12 30
12 12 30
12 12 30
12 12 30
12 12 30
12 12 30
12 12 30
12 12 30
12 12 30
12 12 30
12 12 30
12 12 30
12 12 30
12 12 30
12 12 30
12 12 30
12 12 30
12 12 30
12 12 30
12 12 30
12 12 30
12 12 30
12 12 30
12 12 30
12 12 30
12 12 30
12 12 30
12 12 30
12 12 30
12 12 30
12 12 30
12 12 30
12 12 30
12 12 30
12 12 30
12 12 30
12 12 30
12 12 30
12 12 30
12 12 30
12 12 30
12 12 30
12 12 30
12 12 30
12 12 30
12 12 30
12 12 30
12 12 30
12 12 30
12 12 30
12 12 30
12 12 30
12 12 30
12 12 30
12 12 30
12 12 30
12 12 30
12 12 30
12 12 30
12 12 30
12 12 30
12 12 30
12 12 30
12 12 30
12 12 30
12 12 30
12 12 30
12 12 30
12 12 30
12 12 30
12 12 30
12 12 30
12 12 30
12 12 30
12 12 30
12 12 30
12 12 30
12 12 30
12 12 30
12 12 30
12 12 30
12 12 30
12 12 30
12 12 30
12 12 30
12 12 30
12 12 30
12 12 30
12 12 30
12 12 30
12 12 30
12 12 30
12 12 30
12 12 30
12 12 30
12 12 30
12 12 30
12 12 30
12 12 30
12 12 30
12 12 30
12 12 30
12 12 30
12 12 30
12 12 30
12 12 30
12 12 30
12 12 30
12 12 30
12 12 30
12 12 30
12 12 30
12 12 30
12 12 30
12 12 30
12 12 30
12 12 30
12 12 30
12 12 30
12 12 30
12 12 30
12 12 30
12 12 30
12 12 30
12 12 30
12 12 30
12 12 30
12 12 30
12 12 30
12 12 30
12 12 30
12 12 30
12 12 30
12 12 30
12 12 30
12 12 30
12 12 30
12 12 30
12 12 30
12 12 30
12 12 30
12 12 30
12 12 30
12 12 30
12 12 30
12 12 30
12 12 30
12 12 30
12 12 30
12 12 30
12 12 30
12 12 30
12 12 30
12 12 30
12 12 30
12 12 30
12 12 30
12 12 30
12 12 30
12 12 30
12 12 30
12 12 30
12 12 30
12 12 30
12 12 30
12 12 30
12 12 30
12 12 30
12 12 30
12 12 30
12 12 30
12 12 30
12 12 30
12 12 30
12 12 30
12 12 30
12 12 30
12 12 30
12 12 30
12 12 30
12 12 30
12 12 30
12 12 30
12 12 30
12 12 30
12 12 30
12 12 30
12 12 30
12 12 30
12 12 30
12 12 30
12 12 30
12 12 30
12 12 30
12 12 30
12 12 30
12 12 30
12 12 30
12 12 30
12 12 30
12 12 30
12 12 30
12 12 30
12 12 30
12 12 30
12 12 30
12 12 30
12 12 30
12 12 30
12 12 30
12 12 30
12 12 30
12 12 30
12 12 30
12 12 30
12 12 30
12 12 30
12 12 30
12 12 30
12 12 30
76 204 76
76 204 76
76 204 76
76 204 76
76 204 76
76 204 76
76 204 76
76 204 76
76 204 76
76 204 76
76 204 76
76 204 76
230 51 51
230 51 51
230 51 51
230 51 51
230 51 51
230 51 51
230 51 51
230 51 51
230 51 51
230 51 51
230 51 51
230 51 51
230 51 51
230 51 51
230 51 51
230 51 51
230 51 51
230 51 51
230 51 51
230 51 51
230 51 51
230 51 51
230 51 51
230 51 51
230 51 51
230 51 51
230 51 51
230 51 51
230 51 51
230 51 51
230 51 51
230 51 51
230 51 51
230 51 51
76 204 76
76 204 76
76 204 76
76 204 76
76 204 76
76 204 76
76 204 76
76 204 76
76 204 76
76 204 76
76 204 76
51 127 230
51 127 230
51 127 230
51 127 230
51 127 230
51 127 230
51 127 230
51 127 230
51 127 230
51 127 230
51 127 230
51 127 230
51 127 230
51 127 230
51 127 230
51 127 230
51 127 230
51 127 230
51 127 230
51 127 230
51 127 230
51 127 230
51 127 230
51 127 230
51 127 230
51 127 230
51 127 230
51 127 230
51 127 230
51 127 230
76 204 76
76 204 76
76 204 76
76 204 76
76 204 76
76 204 76
76 204 76
76 204 76
76 204 76
76 204 76
76 204 76
76 204 76
76 204 76
76 204 76
76 204 76
76 204 76
76 204 76
76 204 76
76 204 76
76 204 76
76 204 76
12 12 30
12 12 30
12 12 30
12 12 30
12 12 30
12 12 30
12 12 30
12 12 30
12 12 30
12 12 30
12 12 30
12 12 30
12 12 30
12 12 30
12 12 30
12 12 30
12 12 30
12 12 30
12 12 30
12 12 30
12 12 30
12 12 30
12 12 30
12 12 30
12 12 30
12 12 30
12 12 30
12 12 30
12 12 30
12 12 30
12 12 30
12 12 30
12 12 30
12 12 30
12 12 30
12 12 30
12 12 30
12 12 30
12 12 30
12 12 30
12 12 30
12 12 30
12 12 30
12 12 30
12 12 30
12 12 30
12 12 30
12 12 30
12 12 30
12 12 30
12 12 30
12 12 30
12 12 30
12 12 30
12 12 30
12 12 30
12 12 30
12 12 30
12 12 30
12 12 30
12 12 30
12 12 30
12 12 30
12 12 30
12 12 30
12 12 30
12 12 30
12 12 30
12 12 30
12 12 30
12 12 30
12 12 30
12 12 30
12 12 30
12 12 30
12 12 30
12 12 30
12 12 30
12 12 30
12 12 30
12 12 30
12 12 30
12 12 30
12 12 30
12 12 30
12 12 30
12 12 30
12 12 30
12 12 30
12 12 30
12 12 30
12 12 30
12 12 30
12 12 30
12 12 30
12 12 30
12 12 30
12 12 30
12 12 30
12 12 30
12 12 30
12 12 30
12 12 30
12 12 30
12 12 30
12 12 30
12 12 30
12 12 30
12 12 30
12 12 30
12 12 30
12 12 30
12 12 30
12 12 30
12 12 30
12 12 30
12 12 30
12 12 30
12 12 30
12 12 30
12 12 30
12 12 30
12 12 30
12 12 30
12 12 30
12 12 30
12 12 30
12 12 30
12 12 30
12 12 30
12 12 30
12 12 30
12 12 30
12 12 30
12 12 30
12 12 30
12 12 30
12 12 30
12 12 30
12 12 30
12 12 30
12 12 30
12 12 30
12 12 30
12 12 30
12 12 30
12 12 30
12 12 30
12 12 30
12 12 30
12 12 30
12 12 30
12 12 30
12 12 30
12 12 30
12 12 30
12 12 30
12 12 30
12 12 30
12 12 30
12 12 30
12 12 30
12 12 30
12 12 30
12 12 30
12 12 30
12 12 30
12 12 30
12 12 30
12 12 30
12 12 30
12 12 30
12 12 30
12 12 30
12 12 30
12 12 30
12 12 30
12 12 30
12 12 30
12 12 30
12 12 30
12 12 30
12 12 30
12 12 30
12 12 30
12 12 30
12 12 30
12 12 30
12 12 30
12 12 30
12 12 30
12 12 30
12 12 30
12 12 30
12 12 30
12 12 30
12 12 30
12 12 30
12 12 30
12 12 30
12 12 30
12 12 30
12 12 30
12 12 30
12 12 30
12 12 30
12 12 30
12 12 30
12 12 30
12 12 30
12 12 30
12 12 30
12 12 30
12 12 30
12 12 30
12 12 30
12 12 30
12 12 30
12 12 30
12 12 30
12 12 30
12 12 30
12 12 30
12 12 30
12 12 30
12 12 30
12 12 30
12 12 30
12 12 30
12 12 30
12 12 30
12 12 30
12 12 30
12 12 30
12 12 30
12 12 30
12 12 30
12 12 30
12 12 30
12 12 30
12 12 30
12 12 30
12 12 30
12 12 30
12 12 30
12 12 30
12 12 30
12 12 30
12 12 30
12 12 30
12 12 30
12 12 30
12 12 30
12 12 30
12 12 30
12 12 30
12 12 30
12 12 30
12 12 30
12 12 30
12 12 30
12 12 30
12 12 30
12 12 30
12 12 30
12 12 30
12 12 30
12 12 30
12 12 30
12 12 30
12 12 30
12 12 30
12 12 30
12 12 30
12 12 30
12 12 30
12 12 30
12 12 30
12 12 30
76 204 76
76 204 76
76 204 76
76 204 76
76 204 76
76 204 76
76 204 76
76 204 76
76 204 76
76 204 76
76 204 76
76 204 76
76 204 76
76 204 76
76 204 76
76 204 76
76 204 76
76 204 76
76 204 76
76 204 76
76 204 76
76 204 76
76 204 76
76 204 76
76 204 76
230 51 51
230 51 51
230 51 51
230 51 51
230 51 51
230 51 51
230 51 51
230 51 51
230 51 51
230 51 51
230 51 51
230 51 51
230 51 51
230 51 51
230 51 51
230 51 51
230 51 51
230 51 51
230 51 51
230 51 51
230 51 51
230 51 51
230 51 51
230 51 51
230 51 51
230 51 51
230 51 51
230 51 51
230 51 51
230 51 51
230 51 51
230 51 51
230 51 51
230 51 51
76 204 76
76 204 76
76 204 76
76 204 76
76 204 76
76 204 76
76 204 76
76 204 76
76 204 76
76 204 76
76 204 76
76 204 76
51 127 230
51 127 230
51 127 230
51 127 230
51 127 230
51 127 230
51 127 230
51 127 230
51 127 230
51 127 230
51 127 230
51 127 230
51 127 230
51 127 230
51 127 230
51 127 230
51 127 230
51 127 230
51 127 230
51 127 230
51 127 230
51 127 230
51 127 230
51 127 230
51 127 230
51 127 230
51 127 230
51 127 230
76 204 76
76 204 76
76 204 76
76 204 76
76 204 76
76 204 76
76 204 76
76 204 76
76 204 76
76 204 76
76 204 76
76 204 76
76 204 76
76 204 76
76 204 76
76 204 76
76 204 76
76 204 76
76 204 76
76 204 76
76 204 76
76 204 76
76 204 76
76 204 76
76 204 76
76 204 76
76 204 76
76 204 76
76 204 76
76 204 76
76 204 76
76 204 76
76 204 76
76 204 76
76 204 76
12 12 30
12 12 30
12 12 30
12 12 30
12 12 30
12 12 30
12 12 30
12 12 30
12 12 30
12 12 30
12 12 30
12 12 30
12 12 30
12 12 30
12 12 30
12 12 30
12 12 30
12 12 30
12 12 30
12 12 30
12 12 30
12 12 30
12 12 30
12 12 30
12 12 30
12 12 30
12 12 30
12 12 30
12 12 30
12 12 30
12 12 30
12 12 30
12 12 30
12 12 30
12 12 30
12 12 30
12 12 30
12 12 30
12 12 30
12 12 30
12 12 30
12 12 30
12 12 30
12 12 30
12 12 30
12 12 30
12 12 30
12 12 30
12 12 30
12 12 30
12 12 30
12 12 30
12 12 30
12 12 30
12 12 30
12 12 30
12 12 30
12 12 30
12 12 30
12 12 30
12 12 30
12 12 30
12 12 30
12 12 30
12 12 30
12 12 30
12 12 30
12 12 30
12 12 30
12 12 30
12 12 30
12 12 30
12 12 30
12 12 30
12 12 30
12 12 30
12 12 30
12 12 30
12 12 30
12 12 30
12 12 30
12 12 30
12 12 30
12 12 30
12 12 30
12 12 30
12 12 30
12 12 30
12 12 30
12 12 30
12 12 30
12 12 30
12 12 30
12 12 30
12 12 30
12 12 30
12 12 30
12 12 30
12 12 30
12 12 30
12 12 30
12 12 30
12 12 30
12 12 30
12 12 30
12 12 30
12 12 30
12 12 30
12 12 30
12 12 30
12 12 30
12 12 30
12 12 30
12 12 30
12 12 30
12 12 30
12 12 30
12 12 30
12 12 30
12 12 30
12 12 30
12 12 30
12 12 30
12 12 30
12 12 30
12 12 30
12 12 30
12 12 30
12 12 30
12 12 30
12 12 30
12 12 30
12 12 30
12 12 30
12 12 30
12 12 30
12 12 30
12 12 30
12 12 30
12 12 30
12 12 30
12 12 30
12 12 30
12 12 30
12 12 30
12 12 30
12 12 30
12 12 30
12 12 30
12 12 30
12 12 30
12 12 30
12 12 30
12 12 30
12 12 30
12 12 30
12 12 30
12 12 30
12 12 30
12 12 30
12 12 30
12 12 30
12 12 30
12 12 30
12 12 30
12 12 30
12 12 30
12 12 30
12 12 30
12 12 30
12 12 30
12 12 30
12 12 30
12 12 30
12 12 30
12 12 30
12 12 30
12 12 30
12 12 30
12 12 30
12 12 30
12 12 30
12 12 30
12 12 30
12 12 30
12 12 30
12 12 30
12 12 30
12 12 30
12 12 30
12 12 30
12 12 30
12 12 30
12 12 30
12 12 30
12 12 30
12 12 30
12 12 30
12 12 30
12 12 30
12 12 30
12 12 30
12 12 30
12 12 30
12 12 30
12 12 30
12 12 30
12 12 30
12 12 30
12 12 30
12 12 30
12 12 30
12 12 30
12 12 30
12 12 30
12 12 30
12 12 30
12 12 30
12 12 30
12 12 30
12 12 30
12 12 30
12 12 30
12 12 30
12 12 30
12 12 30
12 12 30
12 12 30
12 12 30
12 12 30
12 12 30
12 12 30
12 12 30
12 12 30
12 12 30
12 12 30
12 12 30
12 12 30
12 12 30
12 12 30
12 12 30
12 12 30
12 12 30
12 12 30
12 12 30
12 12 30
12 12 30
12 12 30
12 12 30
12 12 30
12 12 30
12 12 30
12 12 30
12 12 30
12 12 30
76 204 76
76 204 76
76 204 76
76 204 76
76 204 76
76 204 76
76 204 76
76 204 76
76 204 76
76 204 76
76 204 76
76 204 76
76 204 76
76 204 76
76 204 76
76 204 76
76 204 76
76 204 76
76 204 76
76 204 76
76 204 76
76 204 76
76 204 76
76 204 76
76 204 76
76 204 76
76 204 76
76 204 76
76 204 76
76 204 76
76 204 76
76 204 76
76 204 76
76 204 76
76 204 76
76 204 76
76 204 76
230 51 51
230 51 51
230 51 51
230 51 51
230 51 51
230 51 51
230 51 51
230 51 51
230 51 51
230 51 51
230 51 51
230 51 51
230 51 51
230 51 51
230 51 51
230 51 51
230 51 51
230 51 51
230 51 51
230 51 51
230 51 51
230 51 51
230 51 51
230 51 51
230 51 51
230 51 51
230 51 51
230 51 51
230 51 51
230 51 51
230 51 51
230 51 51
76 204 76
76 204 76
76 204 76
76 204 76
76 204 76
76 204 76
76 204 76
76 204 76
76 204 76
76 204 76
76 204 76
76 204 76
76 204 76
76 204 76
51 127 230
51 127 230
51 127 230
51 127 230
51 127 230
51 127 230
51 127 230
51 127 230
51 127 230
51 127 230
51 127 230
51 127 230
51 127 230
51 127 230
51 127 230
51 127 230
51 127 230
51 127 230
51 127 230
51 127 230
51 127 230
51 127 230
51 127 230
51 127 230
51 127 230
51 127 230
76 204 76
76 204 76
76 204 76
76 204 76
76 204 76
76 204 76
76 204 76
76 204 76
76 204 76
76 204 76
76 204 76
76 204 76
76 204 76
76 204 76
76 204 76
76 204 76
76 204 76
76 204 76
76 204 76
76 204 76
76 204 76
76 204 76
76 204 76
76 204 76
76 204 76
76 204 76
76 204 76
76 204 76
76 204 76
76 204 76
76 204 76
76 204 76
76 204 76
76 204 76
76 204 76
76 204 76
76 204 76
76 204 76
76 204 76
76 204 76
76 204 76
76 204 76
76 204 76
76 204 76
76 204 76
76 204 76
76 204 76
12 12 30
12 12 30
12 12 30
12 12 30
12 12 30
12 12 30
12 12 30
12 12 30
12 12 30
12 12 30
12 12 30
12 12 30
12 12 30
12 12 30
12 12 30
12 12 30
12 12 30
12 12 30
12 12 30
12 12 30
12 12 30
12 12 30
12 12 30
12 12 30
12 12 30
12 12 30
12 12 30
12 12 30
12 12 30
12 12 30
12 12 30
12 12 30
12 12 30
12 12 30
12 12 30
12 12 30
12 12 30
12 12 30
12 12 30
12 12 30
12 12 30
12 12 30
12 12 30
12 12 30
12 12 30
12 12 30
12 12 30
12 12 30
12 12 30
12 12 30
12 12 30
12 12 30
12 12 30
12 12 30
12 12 30
12 12 30
12 12 30
12 12 30
12 12 30
12 12 30
12 12 30
12 12 30
12 12 30
12 12 30
12 12 30
12 12 30
12 12 30
12 12 30
12 12 30
12 12 30
12 12 30
12 12 30
12 12 30
12 12 30
12 12 30
12 12 30
12 12 30
12 12 30
12 12 30
12 12 30
12 12 30
12 12 30
12 12 30
12 12 30
12 12 30
12 12 30
12 12 30
12 12 30
12 12 30
12 12 30
12 12 30
12 12 30
12 12 30
12 12 30
12 12 30
12 12 30
12 12 30
12 12 30
12 12 30
12 12 30
12 12 30
12 12 30
12 12 30
12 12 30
12 12 30
12 12 30
12 12 30
12 12 30
12 12 30
12 12 30
12 12 30
12 12 30
12 12 30
12 12 30
12 12 30
12 12 30
12 12 30
12 12 30
12 12 30
12 12 30
12 12 30
12 12 30
12 12 30
12 12 30
12 12 30
12 12 30
12 12 30
12 12 30
12 12 30
12 12 30
12 12 30
12 12 30
12 12 30
12 12 30
12 12 30
12 12 30
12 12 30
12 12 30
12 12 30
12 12 30
12 12 30
12 12 30
12 12 30
12 12 30
12 12 30
12 12 30
12 12 30
12 12 30
12 12 30
12 12 30
12 12 30
12 12 30
12 12 30
12 12 30
12 12 30
12 12 30
12 12 30
12 12 30
12 12 30
12 12 30
12 12 30
12 12 30
12 12 30
12 12 30
12 12 30
12 12 30
12 12 30
12 12 30
12 12 30
12 12 30
12 12 30
12 12 30
12 12 30
12 12 30
12 12 30
12 12 30
12 12 30
12 12 30
12 12 30
12 12 30
12 12 30
12 12 30
12 12 30
12 12 30
12 12 30
12 12 30
12 12 30
12 12 30
12 12 30
12 12 30
12 12 30
12 12 30
12 12 30
12 12 30
12 12 30
12 12 30
12 12 30
12 12 30
12 12 30
12 12 30
12 12 30
12 12 30
12 12 30
12 12 30
12 12 30
12 12 30
12 12 30
12 12 30
12 12 30
12 12 30
12 12 30
12 12 30
12 12 30
12 12 30
12 12 30
12 12 30
12 12 30
12 12 30
12 12 30
12 12 30
12 12 30
12 12 30
12 12 30
12 12 30
12 12 30
12 12 30
12 12 30
12 12 30
12 12 30
12 12 30
12 12 30
12 12 30
12 12 30
12 12 30
76 204 76
76 204 76
76 204 76
76 204 76
76 204 76
76 204 76
76 204 76
76 204 76
76 204 76
76 204 76
76 204 76
76 204 76
76 204 76
76 204 76
76 204 76
76 204 76
76 204 76
76 204 76
76 204 76
76 204 76
76 204 76
76 204 76
76 204 76
76 204 76
76 204 76
76 204 76
76 204 76
76 204 76
76 204 76
76 204 76
76 204 76
76 204 76
76 204 76
76 204 76
76 204 76
76 204 76
76 204 76
76 204 76
76 204 76
76 204 76
76 204 76
76 204 76
76 204 76
76 204 76
76 204 76
76 204 76
76 204 76
76 204 76
230 51 51
230 51 51
230 51 51
230 51 51
230 51 51
230 51 51
230 51 51
230 51 51
230 51 51
230 51 51
230 51 51
230 51 51
230 51 51
230 51 51
230 51 51
230 51 51
230 51 51
230 51 51
230 51 51
230 51 51
230 51 51
230 51 51
230 51 51
230 51 51
230 51 51
230 51 51
230 51 51
230 51 51
230 51 51
230 51 51
76 204 76
76 204 76
76 204 76
76 204 76
76 204 76
76 204 76
76 204 76
76 204 76
76 204 76
76 204 76
76 204 76
76 204 76
76 204 76
76 204 76
76 204 76
76 204 76
76 204 76
51 127 230
51 127 230
51 127 230
51 127 230
51 127 230
51 127 230
51 127 230
51 127 230
51 127 230
51 127 230
51 127 230
51 127 230
51 127 230
51 127 230
51 127 230
51 127 230
51 127 230
51 127 230
51 127 230
51 127 230
51 127 230
51 127 230
76 204 76
76 204 76
76 204 76
76 204 76
76 204 76
76 204 76
76 204 76
76 204 76
76 204 76
76 204 76
76 204 76
76 204 76
76 204 76
76 204 76
76 204 76
76 204 76
76 204 76
76 204 76
76 204 76
76 204 76
76 204 76
76 204 76
76 204 76
76 204 76
76 204 76
76 204 76
76 204 76
76 204 76
76 204 76
76 204 76
76 204 76
76 204 76
76 204 76
76 204 76
76 204 76
76 204 76
76 204 76
76 204 76
76 204 76
76 204 76
76 204 76
76 204 76
76 204 76
76 204 76
76 204 76
76 204 76
76 204 76
76 204 76
76 204 76
76 204 76
76 204 76
76 204 76
76 204 76
76 204 76
76 204 76
76 204 76
76 204 76
76 204 76
76 204 76
12 12 30
12 12 30
12 12 30
12 12 30
12 12 30
12 12 30
12 12 30
12 12 30
12 12 30
12 12 30
12 12 30
12 12 30
12 12 30
12 12 30
12 12 30
12 12 30
12 12 30
12 12 30
12 12 30
12 12 30
12 12 30
12 12 30
12 12 30
12 12 30
12 12 30
12 12 30
12 12 30
12 12 30
12 12 30
12 12 30
12 12 30
12 12 30
12 12 30
12 12 30
12 12 30
12 12 30
12 12 30
12 12 30
12 12 30
12 12 30
12 12 30
12 12 30
12 12 30
12 12 30
12 12 30
12 12 30
12 12 30
12 12 30
12 12 30
12 12 30
12 12 30
12 12 30
12 12 30
12 12 30
12 12 30
12 12 30
12 12 30
12 12 30
12 12 30
12 12 30
12 12 30
12 12 30
12 12 30
12 12 30
12 12 30
12 12 30
12 12 30
12 12 30
12 12 30
12 12 30
12 12 30
12 12 30
12 12 30
12 12 30
12 12 30
12 12 30
12 12 30
12 12 30
12 12 30
12 12 30
12 12 30
12 12 30
12 12 30
12 12 30
12 12 30
12 12 30
12 12 30
12 12 30
12 12 30
12 12 30
12 12 30
12 12 30
12 12 30
12 12 30
12 12 30
12 12 30
12 12 30
12 12 30
12 12 30
12 12 30
12 12 30
12 12 30
12 12 30
12 12 30
12 12 30
12 12 30
12 12 30
12 12 30
12 12 30
12 12 30
12 12 30
12 12 30
12 12 30
12 12 30
12 12 30
12 12 30
12 12 30
12 12 30
12 12 30
12 12 30
12 12 30
12 12 30
12 12 30
12 12 30
12 12 30
12 12 30
12 12 30
12 12 30
12 12 30
12 12 30
12 12 30
12 12 30
12 12 30
12 12 30
12 12 30
12 12 30
12 12 30
12 12 30
12 12 30
12 12 30
12 12 30
12 12 30
12 12 30
12 12 30
12 12 30
12 12 30
12 12 30
12 12 30
12 12 30
12 12 30
12 12 30
12 12 30
12 12 30
12 12 30
12 12 30
12 12 30
12 12 30
12 12 30
12 12 30
12 12 30
12 12 30
12 12 30
12 12 30
12 12 30
12 12 30
12 12 30
12 12 30
12 12 30
12 12 30
12 12 30
12 12 30
12 12 30
12 12 30
12 12 30
12 12 30
12 12 30
12 12 30
12 12 30
12 12 30
12 12 30
12 12 30
12 12 30
12 12 30
12 12 30
12 12 30
12 12 30
12 12 30
12 12 30
12 12 30
12 12 30
12 12 30
12 12 30
12 12 30
12 12 30
12 12 30
12 12 30
12 12 30
12 12 30
12 12 30
12 12 30
12 12 30
12 12 30
12 12 30
12 12 30
12 12 30
12 12 30
12 12 30
12 12 30
12 12 30
12 12 30
12 12 30
12 12 30
12 12 30
12 12 30
76 204 76
76 204 76
76 204 76
76 204 76
76 204 76
76 204 76
76 204 76
76 204 76
76 204 76
76 204 76
76 204 76
76 204 76
76 204 76
76 204 76
76 204 76
76 204 76
76 204 76
76 204 76
76 204 76
76 204 76
76 204 76
76 204 76
76 204 76
76 204 76
76 204 76
76 204 76
76 204 76
76 204 76
76 204 76
76 204 76
76 204 76
76 204 76
76 204 76
76 204 76
76 204 76
76 204 76
76 204 76
76 204 76
76 204 76
76 204 76
76 204 76
76 204 76
76 204 76
76 204 76
76 204 76
76 204 76
76 204 76
76 204 76
76 204 76
76 204 76
76 204 76
76 204 76
76 204 76
76 204 76
76 204 76
76 204 76
76 204 76
76 204 76
76 204 76
230 51 51
230 51 51
230 51 51
230 51 51
230 51 51
230 51 51
230 51 51
230 51 51
230 51 51
230 51 51
230 51 51
230 51 51
230 51 51
230 51 51
230 51 51
230 51 51
230 51 51
230 51 51
230 51 51
230 51 51
230 51 51
230 51 51
230 51 51
230 51 51
230 51 51
230 51 51
230 51 51
230 51 51
76 204 76
76 204 76
76 204 76
76 204 76
76 204 76
76 204 76
76 204 76
76 204 76
76 204 76
76 204 76
76 204 76
76 204 76
76 204 76
76 204 76
76 204 76
76 204 76
76 204 76
76 204 76
76 204 76
76 204 76
76 204 76
51 127 230
51 127 230
51 127 230
51 127 230
51 127 230
51 127 230
51 127 230
51 127 230
51 127 230
51 127 230
51 127 230
51 127 230
51 127 230
51 127 230
51 127 230
51 127 230
51 127 230
76 204 76
76 204 76
76 204 76
76 204 76
76 204 76
76 204 76
76 204 76
76 204 76
76 204 76
76 204 76
76 204 76
76 204 76
76 204 76
76 204 76
76 204 76
76 204 76
76 204 76
76 204 76
76 204 76
76 204 76
76 204 76
76 204 76
76 204 76
76 204 76
76 204 76
76 204 76
76 204 76
76 204 76
76 204 76
76 204 76
76 204 76
76 204 76
76 204 76
76 204 76
76 204 76
76 204 76
76 204 76
76 204 76
76 204 76
76 204 76
76 204 76
76 204 76
76 204 76
76 204 76
76 204 76
76 204 76
76 204 76
76 204 76
76 204 76
76 204 76
76 204 76
76 204 76
76 204 76
76 204 76
76 204 76
76 204 76
76 204 76
76 204 76
76 204 76
76 204 76
76 204 76
76 204 76
76 204 76
76 204 76
76 204 76
76 204 76
76 204 76
76 204 76
76 204 76
76 204 76
76 204 76
12 12 30
12 12 30
12 12 30
12 12 30
12 12 30
12 12 30
12 12 30
12 12 30
12 12 30
12 12 30
12 12 30
12 12 30
12 12 30
12 12 30
12 12 30
12 12 30
12 12 30
12 12 30
12 12 30
12 12 30
12 12 30
12 12 30
12 12 30
12 12 30
12 12 30
12 12 30
12 12 30
12 12 30
12 12 30
12 12 30
12 12 30
12 12 30
12 12 30
12 12 30
12 12 30
12 12 30
12 12 30
12 12 30
12 12 30
12 12 30
12 12 30
12 12 30
12 12 30
12 12 30
12 12 30
12 12 30
12 12 30
12 12 30
12 12 30
12 12 30
12 12 30
12 12 30
12 12 30
12 12 30
12 12 30
12 12 30
12 12 30
12 12 30
12 12 30
12 12 30
12 12 30
12 12 30
12 12 30
12 12 30
12 12 30
12 12 30
12 12 30
12 12 30
12 12 30
12 12 30
12 12 30
12 12 30
12 12 30
12 12 30
12 12 30
12 12 30
12 12 30
12 12 30
12 12 30
12 12 30
12 12 30
12 12 30
12 12 30
12 12 30
12 12 30
12 12 30
12 12 30
12 12 30
12 12 30
12 12 30
12 12 30
12 12 30
12 12 30
12 12 30
12 12 30
12 12 30
12 12 30
12 12 30
12 12 30
12 12 30
12 12 30
12 12 30
12 12 30
12 12 30
12 12 30
12 12 30
12 12 30
12 12 30
12 12 30
12 12 30
12 12 30
12 12 30
12 12 30
12 12 30
12 12 30
12 12 30
12 12 30
12 12 30
12 12 30
12 12 30
12 12 30
12 12 30
12 12 30
12 12 30
12 12 30
12 12 30
12 12 30
12 12 30
12 12 30
12 12 30
12 12 30
12 12 30
12 12 30
12 12 30
12 12 30
12 12 30
12 12 30
12 12 30
12 12 30
12 12 30
12 12 30
12 12 30
12 12 30
12 12 30
12 12 30
12 12 30
12 12 30
12 12 30
12 12 30
12 12 30
12 12 30
12 12 30
12 12 30
12 12 30
12 12 30
12 12 30
12 12 30
12 12 30
12 12 30
12 12 30
12 12 30
12 12 30
12 12 30
12 12 30
12 12 30
12 12 30
12 12 30
12 12 30
12 12 30
12 12 30
12 12 30
12 12 30
12 12 30
12 12 30
12 12 30
12 12 30
12 12 30
12 12 30
12 12 30
12 12 30
12 12 30
12 12 30
12 12 30
12 12 30
12 12 30
12 12 30
12 12 30
12 12 30
12 12 30
12 12 30
12 12 30
12 12 30
12 12 30
12 12 30
12 12 30
76 204 76
76 204 76
76 204 76
76 204 76
76 204 76
76 204 76
76 204 76
76 204 76
76 204 76
76 204 76
76 204 76
76 204 76
76 204 76
76 204 76
76 204 76
76 204 76
76 204 76
76 204 76
76 204 76
76 204 76
76 204 76
76 204 76
76 204 76
76 204 76
76 204 76
76 204 76
76 204 76
76 204 76
76 204 76
76 204 76
76 204 76
76 204 76
76 204 76
76 204 76
76 204 76
76 204 76
76 204 76
76 204 76
76 204 76
76 204 76
76 204 76
76 204 76
76 204 76
76 204 76
76 204 76
76 204 76
76 204 76
76 204 76
76 204 76
76 204 76
76 204 76
76 204 76
76 204 76
76 204 76
76 204 76
76 204 76
76 204 76
76 204 76
76 204 76
76 204 76
76 204 76
76 204 76
76 204 76
76 204 76
76 204 76
76 204 76
76 204 76
76 204 76
76 204 76
76 204 76
230 51 51
230 51 51
230 51 51
230 51 51
230 51 51
230 51 51
230 51 51
230 51 51
230 51 51
230 51 51
230 51 51
230 51 51
230 51 51
230 51 51
230 51 51
230 51 51
230 51 51
230 51 51
230 51 51
230 51 51
230 51 51
230 51 51
230 51 51
230 51 51
76 204 76
76 204 76
76 204 76
76 204 76
76 204 76
76 204 76
76 204 76
76 204 76
76 204 76
76 204 76
76 204 76
76 204 76
76 204 76
76 204 76
76 204 76
76 204 76
76 204 76
76 204 76
76 204 76
76 204 76
76 204 76
76 204 76
76 204 76
76 204 76
76 204 76
76 204 76
76 204 76
76 204 76
76 204 76
76 204 76
76 204 76
76 204 76
76 204 76
76 204 76
76 204 76
76 204 76
76 204 76
76 204 76
76 204 76
76 204 76
76 204 76
76 204 76
76 204 76
76 204 76
76 204 76
76 204 76
76 204 76
76 204 76
76 204 76
76 204 76
76 204 76
76 204 76
76 204 76
76 204 76
76 204 76
76 204 76
76 204 76
76 204 76
76 204 76
76 204 76
76 204 76
76 204 76
76 204 76
76 204 76
76 204 76
76 204 76
76 204 76
76 204 76
76 204 76
76 204 76
76 204 76
76 204 76
76 204 76
76 204 76
76 204 76
76 204 76
76 204 76
76 204 76
76 204 76
76 204 76
76 204 76
76 204 76
76 204 76
76 204 76
76 204 76
76 204 76
76 204 76
76 204 76
76 204 76
76 204 76
76 204 76
76 204 76
76 204 76
76 204 76
76 204 76
76 204 76
76 204 76
76 204 76
76 204 76
76 204 76
76 204 76
76 204 76
76 204 76
76 204 76
76 204 76
76 204 76
76 204 76
76 204 76
76 204 76
76 204 76
76 204 76
76 204 76
76 204 76
76 204 76
76 204 76
76 204 76
76 204 76
76 204 76
76 204 76
76 204 76
12 12 30
12 12 30
12 12 30
12 12 30
12 12 30
12 12 30
12 12 30
12 12 30
12 12 30
12 12 30
12 12 30
12 12 30
12 12 30
12 12 30
12 12 30
12 12 30
12 12 30
12 12 30
12 12 30
12 12 30
12 12 30
12 12 30
12 12 30
12 12 30
12 12 30
12 12 30
12 12 30
12 12 30
12 12 30
12 12 30
12 12 30
12 12 30
12 12 30
12 12 30
12 12 30
12 12 30
12 12 30
12 12 30
12 12 30
12 12 30
12 12 30
12 12 30
12 12 30
12 12 30
12 12 30
12 12 30
12 12 30
12 12 30
12 12 30
12 12 30
12 12 30
12 12 30
12 12 30
12 12 30
12 12 30
12 12 30
12 12 30
12 12 30
12 12 30
12 12 30
12 12 30
12 12 30
12 12 30
12 12 30
12 12 30
12 12 30
12 12 30
12 12 30
12 12 30
12 12 30
12 12 30
12 12 30
12 12 30
12 12 30
12 12 30
12 12 30
12 12 30
12 12 30
12 12 30
12 12 30
12 12 30
12 12 30
12 12 30
12 12 30
12 12 30
12 12 30
12 12 30
12 12 30
12 12 30
12 12 30
12 12 30
12 12 30
12 12 30
12 12 30
12 12 30
12 12 30
12 12 30
12 12 30
12 12 30
12 12 30
12 12 30
12 12 30
12 12 30
12 12 30
12 12 30
12 12 30
12 12 30
12 12 30
12 12 30
12 12 30
12 12 30
12 12 30
12 12 30
12 12 30
12 12 30
12 12 30
12 12 30
12 12 30
12 12 30
12 12 30
12 12 30
12 12 30
12 12 30
12 12 30
12 12 30
12 12 30
12 12 30
12 12 30
12 12 30
12 12 30
12 12 30
12 12 30
12 12 30
12 12 30
12 12 30
12 12 30
12 12 30
12 12 30
12 12 30
12 12 30
12 12 30
12 12 30
12 12 30
12 12 30
12 12 30
12 12 30
12 12 30
12 12 30
12 12 30
12 12 30
12 12 30
12 12 30
12 12 30
12 12 30
12 12 30
12 12 30
12 12 30
12 12 30
12 12 30
12 12 30
12 12 30
12 12 30
12 12 30
12 12 30
12 12 30
12 12 30
12 12 30
12 12 30
12 12 30
12 12 30
12 12 30
12 12 30
12 12 30
12 12 30
12 12 30
12 12 30
12 12 30
76 204 76
76 204 76
76 204 76
76 204 76
76 204 76
76 204 76
76 204 76
76 204 76
76 204 76
76 204 76
76 204 76
76 204 76
76 204 76
76 204 76
76 204 76
76 204 76
76 204 76
76 204 76
76 204 76
76 204 76
76 204 76
76 204 76
76 204 76
76 204 76
76 204 76
76 204 76
76 204 76
76 204 76
76 204 76
76 204 76
76 204 76
76 204 76
76 204 76
76 204 76
76 204 76
76 204 76
76 204 76
76 204 76
76 204 76
76 204 76
76 204 76
76 204 76
76 204 76
76 204 76
76 204 76
76 204 76
76 204 76
76 204 76
76 204 76
76 204 76
76 204 76
76 204 76
76 204 76
76 204 76
76 204 76
76 204 76
76 204 76
76 204 76
76 204 76
76 204 76
76 204 76
76 204 76
76 204 76
76 204 76
76 204 76
76 204 76
76 204 76
76 204 76
76 204 76
76 204 76
76 204 76
76 204 76
76 204 76
76 204 76
76 204 76
76 204 76
76 204 76
76 204 76
76 204 76
76 204 76
230 51 51
230 51 51
230 51 51
230 51 51
230 51 51
230 51 51
230 51 51
230 51 51
230 51 51
230 51 51
230 51 51
230 51 51
230 51 51
230 51 51
230 51 51
230 51 51
230 51 51
230 51 51
230 51 51
230 51 51
230 51 51
230 51 51
76 204 76
76 204 76
76 204 76
76 204 76
76 204 76
76 204 76
76 204 76
76 204 76
76 204 76
76 204 76
76 204 76
76 204 76
76 204 76
76 204 76
76 204 76
76 204 76
76 204 76
76 204 76
76 204 76
76 204 76
76 204 76
76 204 76
76 204 76
76 204 76
76 204 76
76 204 76
76 204 76
76 204 76
76 204 76
76 204 76
76 204 76
76 204 76
76 204 76
76 204 76
76 204 76
76 204 76
76 204 76
76 204 76
76 204 76
76 204 76
76 204 76
76 204 76
76 204 76
76 204 76
76 204 76
76 204 76
76 204 76
76 204 76
76 204 76
76 204 76
76 204 76
76 204 76
76 204 76
76 204 76
76 204 76
76 204 76
76 204 76
76 204 76
76 204 76
76 204 76
76 204 76
76 204 76
76 204 76
76 204 76
76 204 76
76 204 76
76 204 76
76 204 76
76 204 76
76 204 76
76 204 76
76 204 76
76 204 76
76 204 76
76 204 76
76 204 76
76 204 76
76 204 76
76 204 76
76 204 76
76 204 76
76 204 76
76 204 76
76 204 76
76 204 76
76 204 76
76 204 76
76 204 76
76 204 76
76 204 76
76 204 76
76 204 76
76 204 76
76 204 76
76 204 76
76 204 76
76 204 76
76 204 76
76 204 76
76 204 76
76 204 76
76 204 76
76 204 76
76 204 76
76 204 76
76 204 76
76 204 76
76 204 76
76 204 76
76 204 76
76 204 76
76 204 76
76 204 76
76 204 76
76 204 76
76 204 76
76 204 76
76 204 76
76 204 76
76 204 76
76 204 76
76 204 76
76 204 76
76 204 76
76 204 76
76 204 76
76 204 76
76 204 76
76 204 76
76 204 76
12 12 30
12 12 30
12 12 30
12 12 30
12 12 30
12 12 30
12 12 30
12 12 30
12 12 30
12 12 30
12 12 30
12 12 30
12 12 30
12 12 30
12 12 30
12 12 30
12 12 30
12 12 30
12 12 30
12 12 30
12 12 30
12 12 30
12 12 30
12 12 30
12 12 30
12 12 30
12 12 30
12 12 30
12 12 30
12 12 30
12 12 30
12 12 30
12 12 30
12 12 30
12 12 30
12 12 30
12 12 30
12 12 30
12 12 30
12 12 30
12 12 30
12 12 30
12 12 30
12 12 30
12 12 30
12 12 30
12 12 30
12 12 30
12 12 30
12 12 30
12 12 30
12 12 30
12 12 30
12 12 30
12 12 30
12 12 30
12 12 30
12 12 30
12 12 30
12 12 30
12 12 30
12 12 30
12 12 30
12 12 30
12 12 30
12 12 30
12 12 30
12 12 30
12 12 30
12 12 30
12 12 30
12 12 30
12 12 30
12 12 30
12 12 30
12 12 30
12 12 30
12 12 30
12 12 30
12 12 30
12 12 30
12 12 30
12 12 30
12 12 30
12 12 30
12 12 30
12 12 30
12 12 30
12 12 30
12 12 30
12 12 30
12 12 30
12 12 30
12 12 30
12 12 30
12 12 30
12 12 30
12 12 30
12 12 30
12 12 30
12 12 30
12 12 30
12 12 30
12 12 30
12 12 30
12 12 30
12 12 30
12 12 30
12 12 30
12 12 30
12 12 30
12 12 30
12 12 30
12 12 30
12 12 30
12 12 30
12 12 30
12 12 30
12 12 30
12 12 30
12 12 30
12 12 30
12 12 30
12 12 30
12 12 30
12 12 30
12 12 30
12 12 30
12 12 30
12 12 30
12 12 30
12 12 30
12 12 30
12 12 30
12 12 30
12 12 30
12 12 30
12 12 30
12 12 30
12 12 30
12 12 30
12 12 30
12 12 30
12 12 30
12 12 30
12 12 30
12 12 30
12 12 30
12 12 30
12 12 30
12 12 30
12 12 30
12 12 30
12 12 30
12 12 30
12 12 30
12 12 30
12 12 30
12 12 30
12 12 30
76 204 76
76 204 76
76 204 76
76 204 76
76 204 76
76 204 76
76 204 76
76 204 76
76 204 76
76 204 76
76 204 76
76 204 76
76 204 76
76 204 76
76 204 76
76 204 76
76 204 76
76 204 76
76 204 76
76 204 76
76 204 76
76 204 76
76 204 76
76 204 76
76 204 76
76 204 76
76 204 76
76 204 76
76 204 76
76 204 76
76 204 76
76 204 76
76 204 76
76 204 76
76 204 76
76 204 76
76 204 76
76 204 76
76 204 76
76 204 76
76 204 76
76 204 76
76 204 76
76 204 76
76 204 76
76 204 76
76 204 76
76 204 76
76 204 76
76 204 76
76 204 76
76 204 76
76 204 76
76 204 76
76 204 76
76 204 76
76 204 76
76 204 76
76 204 76
76 204 76
76 204 76
76 204 76
76 204 76
76 204 76
76 204 76
76 204 76
76 204 76
76 204 76
76 204 76
76 204 76
76 204 76
76 204 76
76 204 76
76 204 76
76 204 76
76 204 76
76 204 76
76 204 76
76 204 76
76 204 76
76 204 76
76 204 76
76 204 76
76 204 76
76 204 76
76 204 76
76 204 76
76 204 76
76 204 76
76 204 76
230 51 51
230 51 51
230 51 51
230 51 51
230 51 51
230 51 51
230 51 51
230 51 51
230 51 51
230 51 51
230 51 51
230 51 51
230 51 51
230 51 51
230 51 51
230 51 51
230 51 51
230 51 51
76 204 76
76 204 76
76 204 76
76 204 76
76 204 76
76 204 76
76 204 76
76 204 76
76 204 76
76 204 76
76 204 76
76 204 76
76 204 76
76 204 76
76 204 76
76 204 76
76 204 76
76 204 76
76 204 76
76 204 76
76 204 76
76 204 76
76 204 76
76 204 76
76 204 76
76 204 76
76 204 76
76 204 76
76 204 76
76 204 76
76 204 76
76 204 76
76 204 76
76 204 76
76 204 76
76 204 76
76 204 76
76 204 76
76 204 76
76 204 76
76 204 76
76 204 76
76 204 76
76 204 76
76 204 76
76 204 76
76 204 76
76 204 76
76 204 76
76 204 76
76 204 76
76 204 76
76 204 76
76 204 76
76 204 76
76 204 76
76 204 76
76 204 76
76 204 76
76 204 76
76 204 76
76 204 76
76 204 76
76 204 76
76 204 76
76 204 76
76 204 76
76 204 76
76 204 76
76 204 76
76 204 76
76 204 76
76 204 76
76 204 76
76 204 76
76 204 76
76 204 76
76 204 76
76 204 76
76 204 76
76 204 76
76 204 76
76 204 76
76 204 76
76 204 76
76 204 76
76 204 76
76 204 76
76 204 76
76 204 76
76 204 76
76 204 76
76 204 76
76 204 76
76 204 76
76 204 76
76 204 76
76 204 76
76 204 76
76 204 76
76 204 76
76 204 76
76 204 76
76 204 76
76 204 76
76 204 76
76 204 76
76 204 76
76 204 76
76 204 76
76 204 76
76 204 76
76 204 76
76 204 76
76 204 76
76 204 76
76 204 76
76 204 76
76 204 76
76 204 76
76 204 76
76 204 76
76 204 76
76 204 76
76 204 76
76 204 76
76 204 76
76 204 76
76 204 76
76 204 76
76 204 76
76 204 76
76 204 76
76 204 76
76 204 76
76 204 76
76 204 76
76 204 76
76 204 76
76 204 76
12 12 30
12 12 30
12 12 30
12 12 30
12 12 30
12 12 30
12 12 30
12 12 30
12 12 30
12 12 30
12 12 30
12 12 30
12 12 30
12 12 30
12 12 30
12 12 30
12 12 30
12 12 30
12 12 30
12 12 30
12 12 30
12 12 30
12 12 30
12 12 30
12 12 30
12 12 30
12 12 30
12 12 30
12 12 30
12 12 30
12 12 30
12 12 30
12 12 30
12 12 30
12 12 30
12 12 30
12 12 30
12 12 30
12 12 30
12 12 30
12 12 30
12 12 30
12 12 30
12 12 30
12 12 30
12 12 30
12 12 30
12 12 30
12 12 30
12 12 30
12 12 30
12 12 30
12 12 30
12 12 30
12 12 30
12 12 30
12 12 30
12 12 30
12 12 30
12 12 30
12 12 30
12 12 30
12 12 30
12 12 30
12 12 30
12 12 30
12 12 30
12 12 30
12 12 30
12 12 30
12 12 30
12 12 30
12 12 30
12 12 30
12 12 30
12 12 30
12 12 30
12 12 30
12 12 30
12 12 30
12 12 30
12 12 30
12 12 30
12 12 30
12 12 30
12 12 30
12 12 30
12 12 30
12 12 30
12 12 30
12 12 30
12 12 30
12 12 30
12 12 30
12 12 30
12 12 30
12 12 30
12 12 30
12 12 30
12 12 30
12 12 30
12 12 30
12 12 30
12 12 30
12 12 30
12 12 30
12 12 30
12 12 30
12 12 30
12 12 30
12 12 30
12 12 30
12 12 30
12 12 30
12 12 30
12 12 30
12 12 30
12 12 30
12 12 30
12 12 30
12 12 30
12 12 30
12 12 30
12 12 30
12 12 30
12 12 30
12 12 30
12 12 30
12 12 30
12 12 30
12 12 30
12 12 30
12 12 30
12 12 30
12 12 30
12 12 30
12 12 30
12 12 30
12 12 30
12 12 30
12 12 30
12 12 30
12 12 30
12 12 30
76 204 76
76 204 76
76 204 76
76 204 76
76 204 76
76 204 76
76 204 76
76 204 76
76 204 76
76 204 76
76 204 76
76 204 76
76 204 76
76 204 76
76 204 76
76 204 76
76 204 76
76 204 76
76 204 76
76 204 76
76 204 76
76 204 76
76 204 76
76 204 76
76 204 76
76 204 76
76 204 76
76 204 76
76 204 76
76 204 76
76 204 76
76 204 76
76 204 76
76 204 76
76 204 76
76 204 76
76 204 76
76 204 76
76 204 76
76 204 76
76 204 76
76 204 76
76 204 76
76 204 76
76 204 76
76 204 76
76 204 76
76 204 76
76 204 76
76 204 76
76 204 76
76 204 76
76 204 76
76 204 76
76 204 76
76 204 76
76 204 76
76 204 76
76 204 76
76 204 76
76 204 76
76 204 76
76 204 76
76 204 76
76 204 76
76 204 76
76 204 76
76 204 76
76 204 76
76 204 76
76 204 76
76 204 76
76 204 76
76 204 76
76 204 76
76 204 76
76 204 76
76 204 76
76 204 76
76 204 76
76 204 76
76 204 76
76 204 76
76 204 76
76 204 76
76 204 76
76 204 76
76 204 76
76 204 76
76 204 76
76 204 76
76 204 76
76 204 76
76 204 76
76 204 76
76 204 76
76 204 76
76 204 76
76 204 76
76 204 76
76 204 76
230 51 51
230 51 51
230 51 51
230 51 51
230 51 51
230 51 51
230 51 51
230 51 51
230 51 51
230 51 51
230 51 51
230 51 51
76 204 76
76 204 76
76 204 76
76 204 76
76 204 76
76 204 76
76 204 76
76 204 76
76 204 76
76 204 76
76 204 76
76 204 76
76 204 76
76 204 76
76 204 76
76 204 76
76 204 76
76 204 76
76 204 76
76 204 76
76 204 76
76 204 76
76 204 76
76 204 76
76 204 76
76 204 76
76 204 76
76 204 76
76 204 76
76 204 76
76 204 76
76 204 76
76 204 76
76 204 76
76 204 76
76 204 76
76 204 76
76 204 76
76 204 76
76 204 76
76 204 76
76 204 76
76 204 76
76 204 76
76 204 76
76 204 76
76 204 76
76 204 76
76 204 76
76 204 76
76 204 76
76 204 76
76 204 76
76 204 76
76 204 76
76 204 76
76 204 76
76 204 76
76 204 76
76 204 76
76 204 76
76 204 76
76 204 76
76 204 76
76 204 76
76 204 76
76 204 76
76 204 76
76 204 76
76 204 76
76 204 76
76 204 76
76 204 76
76 204 76
76 204 76
76 204 76
76 204 76
76 204 76
76 204 76
76 204 76
76 204 76
76 204 76
76 204 76
76 204 76
76 204 76
76 204 76
76 204 76
76 204 76
76 204 76
76 204 76
76 204 76
76 204 76
76 204 76
76 204 76
76 204 76
76 204 76
76 204 76
76 204 76
76 204 76
76 204 76
76 204 76
76 204 76
76 204 76
76 204 76
76 204 76
76 204 76
76 204 76
76 204 76
76 204 76
76 204 76
76 204 76
76 204 76
76 204 76
76 204 76
76 204 76
76 204 76
76 204 76
76 204 76
76 204 76
76 204 76
76 204 76
76 204 76
76 204 76
76 204 76
76 204 76
76 204 76
76 204 76
76 204 76
76 204 76
76 204 76
76 204 76
76 204 76
76 204 76
76 204 76
76 204 76
76 204 76
76 204 76
76 204 76
76 204 76
76 204 76
76 204 76
76 204 76
76 204 76
76 204 76
76 204 76
76 204 76
76 204 76
76 204 76
76 204 76
76 204 76
76 204 76
12 12 30
12 12 30
12 12 30
12 12 30
12 12 30
12 12 30
12 12 30
12 12 30
12 12 30
12 12 30
12 12 30
12 12 30
12 12 30
12 12 30
12 12 30
12 12 30
12 12 30
12 12 30
12 12 30
12 12 30
12 12 30
12 12 30
12 12 30
12 12 30
12 12 30
12 12 30
12 12 30
12 12 30
12 12 30
12 12 30
12 12 30
12 12 30
12 12 30
12 12 30
12 12 30
12 12 30
12 12 30
12 12 30
12 12 30
12 12 30
12 12 30
12 12 30
12 12 30
12 12 30
12 12 30
12 12 30
12 12 30
12 12 30
12 12 30
12 12 30
12 12 30
12 12 30
12 12 30
12 12 30
12 12 30
12 12 30
12 12 30
12 12 30
12 12 30
12 12 30
12 12 30
12 12 30
12 12 30
12 12 30
12 12 30
12 12 30
12 12 30
12 12 30
12 12 30
12 12 30
12 12 30
12 12 30
12 12 30
12 12 30
12 12 30
12 12 30
12 12 30
12 12 30
12 12 30
12 12 30
12 12 30
12 12 30
12 12 30
12 12 30
12 12 30
12 12 30
12 12 30
12 12 30
12 12 30
12 12 30
12 12 30
12 12 30
12 12 30
12 12 30
12 12 30
12 12 30
12 12 30
12 12 30
12 12 30
12 12 30
12 12 30
12 12 30
12 12 30
12 12 30
12 12 30
12 12 30
12 12 30
12 12 30
12 12 30
12 12 30
12 12 30
12 12 30
12 12 30
12 12 30
12 12 30
12 12 30
12 12 30
12 12 30
12 12 30
12 12 30
12 12 30
12 12 30
12 12 30
12 12 30
12 12 30
12 12 30
12 12 30
12 12 30
76 204 76
76 204 76
76 204 76
76 204 76
76 204 76
76 204 76
76 204 76
76 204 76
76 204 76
76 204 76
76 204 76
76 204 76
76 204 76
76 204 76
76 204 76
76 204 76
76 204 76
76 204 76
76 204 76
76 204 76
76 204 76
76 204 76
76 204 76
76 204 76
76 204 76
76 204 76
76 204 76
76 204 76
76 204 76
76 204 76
76 204 76
76 204 76
76 204 76
76 204 76
76 204 76
76 204 76
76 204 76
76 204 76
76 204 76
76 204 76
76 204 76
76 204 76
76 204 76
76 204 76
76 204 76
76 204 76
76 204 76
76 204 76
76 204 76
76 204 76
76 204 76
76 204 76
76 204 76
76 204 76
76 204 76
76 204 76
76 204 76
76 204 76
76 204 76
76 204 76
76 204 76
76 204 76
76 204 76
76 204 76
76 204 76
76 204 76
76 204 76
76 204 76
76 204 76
76 204 76
76 204 76
76 204 76
76 204 76
76 204 76
76 204 76
76 204 76
76 204 76
76 204 76
76 204 76
76 204 76
76 204 76
76 204 76
76 204 76
76 204 76
76 204 76
76 204 76
76 204 76
76 204 76
76 204 76
76 204 76
76 204 76
76 204 76
76 204 76
76 204 76
76 204 76
76 204 76
76 204 76
76 204 76
76 204 76
76 204 76
76 204 76
76 204 76
76 204 76
76 204 76
76 204 76
76 204 76
76 204 76
76 204 76
76 204 76
76 204 76
76 204 76
76 204 76
76 204 76
76 204 76
76 204 76
76 204 76
76 204 76
76 204 76
76 204 76
76 204 76
76 204 76
76 204 76
76 204 76
76 204 76
76 204 76
76 204 76
76 204 76
76 204 76
76 204 76
76 204 76
76 204 76
76 204 76
76 204 76
76 204 76
76 204 76
76 204 76
76 204 76
76 204 76
76 204 76
76 204 76
76 204 76
76 204 76
76 204 76
76 204 76
76 204 76
76 204 76
76 204 76
76 204 76
76 204 76
76 204 76
76 204 76
76 204 76
76 204 76
76 204 76
76 204 76
76 204 76
76 204 76
76 204 76
76 204 76
76 204 76
76 204 76
76 204 76
76 204 76
76 204 76
76 204 76
76 204 76
76 204 76
76 204 76
76 204 76
76 204 76
76 204 76
76 204 76
76 204 76
76 204 76
76 204 76
76 204 76
76 204 76
76 204 76
76 204 76
76 204 76
76 204 76
76 204 76
76 204 76
76 204 76
76 204 76
76 204 76
76 204 76
76 204 76
76 204 76
76 204 76
76 204 76
76 204 76
76 204 76
76 204 76
76 204 76
76 204 76
76 204 76
76 204 76
76 204 76
76 204 76
76 204 76
76 204 76
76 204 76
76 204 76
76 204 76
76 204 76
76 204 76
76 204 76
76 204 76
76 204 76
76 204 76
76 204 76
76 204 76
76 204 76
76 204 76
76 204 76
76 204 76
76 204 76
76 204 76
76 204 76
76 204 76
76 204 76
76 204 76
76 204 76
76 204 76
76 204 76
76 204 76
76 204 76
76 204 76
76 204 76
76 204 76
76 204 76
76 204 76
76 204 76
76 204 76
76 204 76
76 204 76
76 204 76
76 204 76
76 204 76
76 204 76
76 204 76
76 204 76
76 204 76
76 204 76
76 204 76
76 204 76
76 204 76
76 204 76
76 204 76
76 204 76
76 204 76
76 204 76
76 204 76
76 204 76
76 204 76
76 204 76
76 204 76
76 204 76
76 204 76
76 204 76
76 204 76
76 204 76
76 204 76
76 204 76
76 204 76
76 204 76
76 204 76
76 204 76
76 204 76
76 204 76
76 204 76
76 204 76
76 204 76
76 204 76
76 204 76
76 204 76
76 204 76
76 204 76
76 204 76
12 12 30
12 12 30
12 12 30
12 12 30
12 12 30
12 12 30
12 12 30
12 12 30
12 12 30
12 12 30
12 12 30
12 12 30
12 12 30
12 12 30
12 12 30
12 12 30
12 12 30
12 12 30
12 12 30
12 12 30
12 12 30
12 12 30
12 12 30
12 12 30
12 12 30
12 12 30
12 12 30
12 12 30
12 12 30
12 12 30
12 12 30
12 12 30
12 12 30
12 12 30
12 12 30
12 12 30
12 12 30
12 12 30
12 12 30
12 12 30
12 12 30
12 12 30
12 12 30
12 12 30
12 12 30
12 12 30
12 12 30
12 12 30
12 12 30
12 12 30
12 12 30
12 12 30
12 12 30
12 12 30
12 12 30
12 12 30
12 12 30
12 12 30
12 12 30
12 12 30
12 12 30
12 12 30
12 12 30
12 12 30
12 12 30
12 12 30
12 12 30
12 12 30
12 12 30
12 12 30
12 12 30
12 12 30
12 12 30
12 12 30
12 12 30
12 12 30
12 12 30
12 12 30
12 12 30
12 12 30
12 12 30
12 12 30
12 12 30
12 12 30
12 12 30
12 12 30
12 12 30
12 12 30
12 12 30
12 12 30
12 12 30
12 12 30
12 12 30
12 12 30
12 12 30
12 12 30
12 12 30
12 12 30
12 12 30
12 12 30
12 12 30
12 12 30
12 12 30
12 12 30
12 12 30
12 12 30
12 12 30
12 12 30
12 12 30
12 12 30
12 12 30
12 12 30
76 204 76
76 204 76
76 204 76
76 204 76
76 204 76
76 204 76
76 204 76
76 204 76
76 204 76
76 204 76
76 204 76
76 204 76
76 204 76
76 204 76
76 204 76
76 204 76
76 204 76
76 204 76
76 204 76
76 204 76
76 204 76
76 204 76
76 204 76
76 204 76
76 204 76
76 204 76
76 204 76
76 204 76
76 204 76
76 204 76
76 204 76
76 204 76
76 204 76
76 204 76
76 204 76
76 204 76
76 204 76
76 204 76
76 204 76
76 204 76
76 204 76
76 204 76
76 204 76
76 204 76
76 204 76
76 204 76
76 204 76
76 204 76
76 204 76
76 204 76
76 204 76
76 204 76
76 204 76
76 204 76
76 204 76
76 204 76
76 204 76
76 204 76
76 204 76
76 204 76
76 204 76
76 204 76
76 204 76
76 204 76
76 204 76
76 204 76
76 204 76
76 204 76
76 204 76
76 204 76
76 204 76
76 204 76
76 204 76
76 204 76
76 204 76
76 204 76
76 204 76
76 204 76
76 204 76
76 204 76
76 204 76
76 204 76
76 204 76
76 204 76
76 204 76
76 204 76
76 204 76
76 204 76
76 204 76
76 204 76
76 204 76
76 204 76
76 204 76
76 204 76
76 204 76
76 204 76
76 204 76
76 204 76
76 204 76
76 204 76
76 204 76
76 204 76
76 204 76
76 204 76
76 204 76
76 204 76
76 204 76
76 204 76
76 204 76
76 204 76
76 204 76
76 204 76
76 204 76
76 204 76
76 204 76
76 204 76
76 204 76
76 204 76
76 204 76
76 204 76
76 204 76
76 204 76
76 204 76
76 204 76
76 204 76
76 204 76
76 204 76
76 204 76
76 204 76
76 204 76
76 204 76
76 204 76
76 204 76
76 204 76
76 204 76
76 204 76
76 204 76
76 204 76
76 204 76
76 204 76
76 204 76
76 204 76
76 204 76
76 204 76
76 204 76
76 204 76
76 204 76
76 204 76
76 204 76
76 204 76
76 204 76
76 204 76
76 204 76
76 204 76
76 204 76
76 204 76
76 204 76
76 204 76
76 204 76
76 204 76
76 204 76
76 204 76
76 204 76
76 204 76
76 204 76
76 204 76
76 204 76
76 204 76
76 204 76
76 204 76
76 204 76
76 204 76
76 204 76
76 204 76
76 204 76
76 204 76
76 204 76
76 204 76
76 204 76
76 204 76
76 204 76
76 204 76
76 204 76
76 204 76
76 204 76
76 204 76
76 204 76
76 204 76
76 204 76
76 204 76
76 204 76
76 204 76
76 204 76
76 204 76
76 204 76
76 204 76
76 204 76
76 204 76
76 204 76
76 204 76
76 204 76
76 204 76
76 204 76
76 204 76
76 204 76
76 204 76
76 204 76
76 204 76
76 204 76
76 204 76
76 204 76
76 204 76
76 204 76
76 204 76
76 204 76
76 204 76
76 204 76
76 204 76
76 204 76
76 204 76
76 204 76
76 204 76
76 204 76
76 204 76
76 204 76
76 204 76
76 204 76
76 204 76
76 204 76
76 204 76
76 204 76
76 204 76
76 204 76
76 204 76
76 204 76
76 204 76
76 204 76
76 204 76
76 204 76
76 204 76
76 204 76
76 204 76
76 204 76
76 204 76
76 204 76
76 204 76
76 204 76
76 204 76
76 204 76
76 204 76
76 204 76
76 204 76
76 204 76
76 204 76
76 204 76
76 204 76
76 204 76
76 204 76
76 204 76
76 204 76
76 204 76
76 204 76
76 204 76
76 204 76
76 204 76
76 204 76
76 204 76
76 204 76
76 204 76
76 204 76
76 204 76
76 204 76
76 204 76
76 204 76
76 204 76
76 204 76
76 204 76
76 204 76
76 204 76
76 204 76
76 204 76
76 204 76
76 204 76
76 204 76
76 204 76
76 204 76
76 204 76
76 204 76
76 204 76
76 204 76
76 204 76
76 204 76
76 204 76
76 204 76
76 204 76
76 204 76
12 12 30
12 12 30
12 12 30
12 12 30
12 12 30
12 12 30
12 12 30
12 12 30
12 12 30
12 12 30
12 12 30
12 12 30
12 12 30
12 12 30
12 12 30
12 12 30
12 12 30
12 12 30
12 12 30
12 12 30
12 12 30
12 12 30
12 12 30
12 12 30
12 12 30
12 12 30
12 12 30
12 12 30
12 12 30
12 12 30
12 12 30
12 12 30
12 12 30
12 12 30
12 12 30
12 12 30
12 12 30
12 12 30
12 12 30
12 12 30
12 12 30
12 12 30
12 12 30
12 12 30
12 12 30
12 12 30
12 12 30
12 12 30
12 12 30
12 12 30
12 12 30
12 12 30
12 12 30
12 12 30
12 12 30
12 12 30
12 12 30
12 12 30
12 12 30
12 12 30
12 12 30
12 12 30
12 12 30
12 12 30
12 12 30
12 12 30
12 12 30
12 12 30
12 12 30
12 12 30
12 12 30
12 12 30
12 12 30
12 12 30
12 12 30
12 12 30
12 12 30
12 12 30
12 12 30
12 12 30
12 12 30
12 12 30
12 12 30
12 12 30
12 12 30
12 12 30
12 12 30
12 12 30
12 12 30
12 12 30
12 12 30
12 12 30
12 12 30
12 12 30
12 12 30
12 12 30
76 204 76
76 204 76
76 204 76
76 204 76
76 204 76
76 204 76
76 204 76
76 204 76
76 204 76
76 204 76
76 204 76
76 204 76
76 204 76
76 204 76
76 204 76
76 204 76
76 204 76
76 204 76
76 204 76
76 204 76
76 204 76
76 204 76
76 204 76
76 204 76
76 204 76
76 204 76
76 204 76
76 204 76
76 204 76
76 204 76
76 204 76
76 204 76
76 204 76
76 204 76
76 204 76
76 204 76
76 204 76
76 204 76
76 204 76
76 204 76
76 204 76
76 204 76
76 204 76
76 204 76
76 204 76
76 204 76
76 204 76
76 204 76
76 204 76
76 204 76
76 204 76
76 204 76
76 204 76
76 204 76
76 204 76
76 204 76
76 204 76
76 204 76
76 204 76
76 204 76
76 204 76
76 204 76
76 204 76
76 204 76
76 204 76
76 204 76
76 204 76
76 204 76
76 204 76
76 204 76
76 204 76
76 204 76
76 204 76
76 204 76
76 204 76
76 204 76
76 204 76
76 204 76
76 204 76
76 204 76
76 204 76
76 204 76
76 204 76
76 204 76
76 204 76
76 204 76
76 204 76
76 204 76
76 204 76
76 204 76
76 204 76
76 204 76
76 204 76
76 204 76
76 204 76
76 204 76
76 204 76
76 204 76
76 204 76
76 204 76
76 204 76
76 204 76
76 204 76
76 204 76
76 204 76
76 204 76
76 204 76
76 204 76
76 204 76
76 204 76
76 204 76
76 204 76
76 204 76
76 204 76
76 204 76
76 204 76
76 204 76
76 204 76
76 204 76
76 204 76
76 204 76
76 204 76
76 204 76
76 204 76
76 204 76
76 204 76
76 204 76
76 204 76
76 204 76
76 204 76
76 204 76
76 204 76
76 204 76
76 204 76
76 204 76
76 204 76
76 204 76
76 204 76
76 204 76
76 204 76
76 204 76
76 204 76
76 204 76
76 204 76
76 204 76
76 204 76
76 204 76
76 204 76
76 204 76
76 204 76
76 204 76
76 204 76
76 204 76
76 204 76
76 204 76
76 204 76
76 204 76
76 204 76
76 204 76
76 204 76
76 204 76
76 204 76
76 204 76
76 204 76
76 204 76
76 204 76
76 204 76
76 204 76
76 204 76
76 204 76
76 204 76
76 204 76
76 204 76
76 204 76
76 204 76
76 204 76
76 204 76
76 204 76
76 204 76
76 204 76
76 204 76
76 204 76
76 204 76
76 204 76
76 204 76
76 204 76
76 204 76
76 204 76
76 204 76
76 204 76
76 204 76
76 204 76
76 204 76
76 204 76
76 204 76
76 204 76
76 204 76
76 204 76
76 204 76
76 204 76
76 204 76
76 204 76
76 204 76
76 204 76
76 204 76
76 204 76
76 204 76
76 204 76
76 204 76
76 204 76
76 204 76
76 204 76
76 204 76
76 204 76
76 204 76
76 204 76
76 204 76
76 204 76
76 204 76
76 204 76
76 204 76
76 204 76
76 204 76
76 204 76
76 204 76
76 204 76
76 204 76
76 204 76
76 204 76
76 204 76
76 204 76
76 204 76
76 204 76
76 204 76
76 204 76
76 204 76
76 204 76
76 204 76
76 204 76
76 204 76
76 204 76
76 204 76
76 204 76
76 204 76
76 204 76
76 204 76
76 204 76
76 204 76
76 204 76
76 204 76
76 204 76
76 204 76
76 204 76
76 204 76
76 204 76
76 204 76
76 204 76
76 204 76
76 204 76
76 204 76
76 204 76
76 204 76
76 204 76
76 204 76
76 204 76
76 204 76
76 204 76
76 204 76
76 204 76
76 204 76
76 204 76
76 204 76
76 204 76
76 204 76
76 204 76
76 204 76
76 204 76
76 204 76
76 204 76
76 204 76
76 204 76
76 204 76
76 204 76
76 204 76
76 204 76
76 204 76
76 204 76
76 204 76
76 204 76
76 204 76
76 204 76
76 204 76
76 204 76
76 204 76
76 204 76
76 204 76
76 204 76
76 204 76
76 204 76
76 204 76
76 204 76
76 204 76
76 204 76
76 204 76
76 204 76
76 204 76
76 204 76
76 204 76
76 204 76
76 204 76
76 204 76
76 204 76
12 12 30
12 12 30
12 12 30
12 12 30
12 12 30
12 12 30
12 12 30
12 12 30
12 12 30
12 12 30
12 12 30
12 12 30
12 12 30
12 12 30
12 12 30
12 12 30
12 12 30
12 12 30
12 12 30
12 12 30
12 12 30
12 12 30
12 12 30
12 12 30
12 12 30
12 12 30
12 12 30
12 12 30
12 12 30
12 12 30
12 12 30
12 12 30
12 12 30
12 12 30
12 12 30
12 12 30
12 12 30
12 12 30
12 12 30
12 12 30
12 12 30
12 12 30
12 12 30
12 12 30
12 12 30
12 12 30
12 12 30
12 12 30
12 12 30
12 12 30
12 12 30
12 12 30
12 12 30
12 12 30
12 12 30
12 12 30
12 12 30
12 12 30
12 12 30
12 12 30
12 12 30
12 12 30
12 12 30
12 12 30
12 12 30
12 12 30
12 12 30
12 12 30
12 12 30
12 12 30
12 12 30
12 12 30
12 12 30
12 12 30
12 12 30
12 12 30
12 12 30
12 12 30
12 12 30
12 12 30
76 204 76
76 204 76
76 204 76
76 204 76
76 204 76
76 204 76
76 204 76
76 204 76
76 204 76
76 204 76
76 204 76
76 204 76
76 204 76
76 204 76
76 204 76
76 204 76
76 204 76
76 204 76
76 204 76
76 204 76
76 204 76
76 204 76
76 204 76
76 204 76
76 204 76
76 204 76
76 204 76
76 204 76
76 204 76
76 204 76
76 204 76
76 204 76
76 204 76
76 204 76
76 204 76
76 204 76
76 204 76
76 204 76
76 204 76
76 204 76
76 204 76
76 204 76
76 204 76
76 204 76
76 204 76
76 204 76
76 204 76
76 204 76
76 204 76
76 204 76
76 204 76
76 204 76
76 204 76
76 204 76
76 204 76
76 204 76
76 204 76
76 204 76
76 204 76
76 204 76
76 204 76
76 204 76
76 204 76
76 204 76
76 204 76
76 204 76
76 204 76
76 204 76
76 204 76
76 204 76
76 204 76
76 204 76
76 204 76
76 204 76
76 204 76
76 204 76
76 204 76
76 204 76
76 204 76
76 204 76
76 204 76
76 204 76
76 204 76
76 204 76
76 204 76
76 204 76
76 204 76
76 204 76
76 204 76
76 204 76
76 204 76
76 204 76
76 204 76
76 204 76
76 204 76
76 204 76
76 204 76
76 204 76
76 204 76
76 204 76
76 204 76
76 204 76
76 204 76
76 204 76
76 204 76
76 204 76
76 204 76
76 204 76
76 204 76
76 204 76
76 204 76
76 204 76
76 204 76
76 204 76
76 204 76
76 204 76
76 204 76
76 204 76
76 204 76
76 204 76
76 204 76
76 204 76
76 204 76
76 204 76
76 204 76
76 204 76
76 204 76
76 204 76
76 204 76
76 204 76
76 204 76
76 204 76
76 204 76
76 204 76
76 204 76
76 204 76
76 204 76
76 204 76
76 204 76
76 204 76
76 204 76
76 204 76
76 204 76
76 204 76
76 204 76
76 204 76
76 204 76
76 204 76
76 204 76
76 204 76
76 204 76
76 204 76
76 204 76
76 204 76
76 204 76
76 204 76
76 204 76
76 204 76
76 204 76
76 204 76
76 204 76
76 204 76
76 204 76
76 204 76
76 204 76
76 204 76
76 204 76
76 204 76
76 204 76
76 204 76
76 204 76
76 204 76
76 204 76
76 204 76
76 204 76
76 204 76
76 204 76
76 204 76
76 204 76
76 204 76
76 204 76
76 204 76
76 204 76
76 204 76
76 204 76
76 204 76
76 204 76
76 204 76
76 204 76
76 204 76
76 204 76
76 204 76
76 204 76
76 204 76
76 204 76
76 204 76
76 204 76
76 204 76
76 204 76
76 204 76
76 204 76
76 204 76
76 204 76
76 204 76
76 204 76
76 204 76
76 204 76
76 204 76
76 204 76
76 204 76
76 204 76
76 204 76
76 204 76
76 204 76
76 204 76
76 204 76
76 204 76
76 204 76
76 204 76
76 204 76
76 204 76
76 204 76
76 204 76
76 204 76
76 204 76
76 204 76
76 204 76
76 204 76
76 204 76
76 204 76
76 204 76
76 204 76
76 204 76
76 204 76
76 204 76
76 204 76
76 204 76
76 204 76
76 204 76
76 204 76
76 204 76
76 204 76
76 204 76
76 204 76
76 204 76
76 204 76
76 204 76
76 204 76
76 204 76
76 204 76
76 204 76
76 204 76
76 204 76
76 204 76
76 204 76
76 204 76
76 204 76
76 204 76
76 204 76
76 204 76
76 204 76
76 204 76
76 204 76
76 204 76
76 204 76
76 204 76
76 204 76
76 204 76
76 204 76
76 204 76
76 204 76
76 204 76
76 204 76
76 204 76
76 204 76
76 204 76
76 204 76
76 204 76
76 204 76
76 204 76
76 204 76
76 204 76
76 204 76
76 204 76
76 204 76
76 204 76
76 204 76
76 204 76
76 204 76
76 204 76
76 204 76
76 204 76
76 204 76
76 204 76
76 204 76
76 204 76
76 204 76
76 204 76
76 204 76
76 204 76
76 204 76
76 204 76
76 204 76
76 204 76
76 204 76
76 204 76
76 204 76
76 204 76
76 204 76
76 204 76
76 204 76
76 204 76
76 204 76
76 204 76
76 204 76
76 204 76
76 204 76
76 204 76
76 204 76
76 204 76
76 204 76
76 204 76
76 204 76
76 204 76
76 204 76
76 204 76
76 204 76
76 204 76
12 12 30
12 12 30
12 12 30
12 12 30
12 12 30
12 12 30
12 12 30
12 12 30
12 12 30
12 12 30
12 12 30
12 12 30
12 12 30
12 12 30
12 12 30
12 12 30
12 12 30
12 12 30
12 12 30
12 12 30
12 12 30
12 12 30
12 12 30
12 12 30
12 12 30
12 12 30
12 12 30
12 12 30
12 12 30
12 12 30
12 12 30
12 12 30
12 12 30
12 12 30
12 12 30
12 12 30
12 12 30
12 12 30
12 12 30
12 12 30
12 12 30
12 12 30
12 12 30
12 12 30
12 12 30
12 12 30
12 12 30
12 12 30
12 12 30
12 12 30
12 12 30
12 12 30
12 12 30
12 12 30
12 12 30
12 12 30
12 12 30
12 12 30
12 12 30
12 12 30
12 12 30
12 12 30
12 12 30
12 12 30
12 12 30
76 204 76
76 204 76
76 204 76
76 204 76
76 204 76
76 204 76
76 204 76
76 204 76
76 204 76
76 204 76
76 204 76
76 204 76
76 204 76
76 204 76
76 204 76
76 204 76
76 204 76
76 204 76
76 204 76
76 204 76
76 204 76
76 204 76
76 204 76
76 204 76
76 204 76
76 204 76
76 204 76
76 204 76
76 204 76
76 204 76
76 204 76
76 204 76
76 204 76
76 204 76
76 204 76
76 204 76
76 204 76
76 204 76
76 204 76
76 204 76
76 204 76
76 204 76
76 204 76
76 204 76
76 204 76
76 204 76
76 204 76
76 204 76
76 204 76
76 204 76
76 204 76
76 204 76
76 204 76
76 204 76
76 204 76
76 204 76
76 204 76
76 204 76
76 204 76
76 204 76
76 204 76
76 204 76
76 204 76
76 204 76
76 204 76
76 204 76
76 204 76
76 204 76
76 204 76
76 204 76
76 204 76
76 204 76
76 204 76
76 204 76
76 204 76
76 204 76
76 204 76
76 204 76
76 204 76
76 204 76
76 204 76
76 204 76
76 204 76
76 204 76
76 204 76
76 204 76
76 204 76
76 204 76
76 204 76
76 204 76
76 204 76
76 204 76
76 204 76
76 204 76
76 204 76
76 204 76
76 204 76
76 204 76
76 204 76
76 204 76
76 204 76
76 204 76
76 204 76
76 204 76
76 204 76
76 204 76
76 204 76
76 204 76
76 204 76
76 204 76
76 204 76
76 204 76
76 204 76
76 204 76
76 204 76
76 204 76
76 204 76
76 204 76
76 204 76
76 204 76
76 204 76
76 204 76
76 204 76
76 204 76
76 204 76
76 204 76
76 204 76
76 204 76
76 204 76
76 204 76
76 204 76
76 204 76
76 204 76
76 204 76
76 204 76
76 204 76
76 204 76
76 204 76
76 204 76
76 204 76
76 204 76
76 204 76
76 204 76
76 204 76
76 204 76
76 204 76
76 204 76
76 204 76
76 204 76
76 204 76
76 204 76
76 204 76
76 204 76
76 204 76
76 204 76
76 204 76
76 204 76
76 204 76
76 204 76
76 204 76
76 204 76
76 204 76
76 204 76
76 204 76
76 204 76
76 204 76
76 204 76
76 204 76
76 204 76
76 204 76
76 204 76
76 204 76
76 204 76
76 204 76
76 204 76
76 204 76
76 204 76
76 204 76
76 204 76
76 204 76
76 204 76
76 204 76
76 204 76
76 204 76
76 204 76
76 204 76
76 204 76
76 204 76
76 204 76
76 204 76
76 204 76
76 204 76
76 204 76
76 204 76
76 204 76
76 204 76
76 204 76
76 204 76
76 204 76
76 204 76
76 204 76
76 204 76
76 204 76
76 204 76
76 204 76
76 204 76
76 204 76
76 204 76
76 204 76
76 204 76
76 204 76
76 204 76
76 204 76
76 204 76
76 204 76
76 204 76
76 204 76
76 204 76
76 204 76
76 204 76
76 204 76
76 204 76
76 204 76
76 204 76
76 204 76
76 204 76
76 204 76
76 204 76
76 204 76
76 204 76
76 204 76
76 204 76
76 204 76
76 204 76
76 204 76
76 204 76
76 204 76
76 204 76
76 204 76
76 204 76
76 204 76
76 204 76
76 204 76
76 204 76
76 204 76
76 204 76
76 204 76
76 204 76
76 204 76
76 204 76
76 204 76
76 204 76
76 204 76
76 204 76
76 204 76
76 204 76
76 204 76
76 204 76
76 204 76
76 204 76
76 204 76
76 204 76
76 204 76
76 204 76
76 204 76
76 204 76
76 204 76
76 204 76
76 204 76
76 204 76
76 204 76
76 204 76
76 204 76
76 204 76
76 204 76
76 204 76
76 204 76
76 204 76
76 204 76
76 204 76
76 204 76
76 204 76
76 204 76
76 204 76
76 204 76
76 204 76
76 204 76
76 204 76
76 204 76
76 204 76
76 204 76
76 204 76
76 204 76
76 204 76
76 204 76
76 204 76
76 204 76
76 204 76
76 204 76
76 204 76
76 204 76
76 204 76
76 204 76
76 204 76
76 204 76
76 204 76
76 204 76
76 204 76
76 204 76
76 204 76
76 204 76
76 204 76
76 204 76
76 204 76
76 204 76
76 204 76
76 204 76
76 204 76
76 204 76
76 204 76
76 204 76
76 204 76
76 204 76
76 204 76
76 204 76
76 204 76
76 204 76
76 204 76
76 204 76
76 204 76
76 204 76
76 204 76
76 204 76
76 204 76
76 204 76
76 204 76
76 204 76
76 204 76
76 204 76
76 204 76
76 204 76
76 204 76
12 12 30
12 12 30
12 12 30
12 12 30
12 12 30
12 12 30
12 12 30
12 12 30
12 12 30
12 12 30
12 12 30
12 12 30
12 12 30
12 12 30
12 12 30
12 12 30
12 12 30
12 12 30
12 12 30
12 12 30
12 12 30
12 12 30
12 12 30
12 12 30
12 12 30
12 12 30
12 12 30
12 12 30
12 12 30
12 12 30
12 12 30
12 12 30
12 12 30
12 12 30
12 12 30
12 12 30
12 12 30
12 12 30
12 12 30
12 12 30
12 12 30
12 12 30
12 12 30
12 12 30
12 12 30
12 12 30
12 12 30
12 12 30
12 12 30
12 12 30
76 204 76
76 204 76
76 204 76
76 204 76
76 204 76
76 204 76
76 204 76
76 204 76
76 204 76
76 204 76
76 204 76
76 204 76
76 204 76
76 204 76
76 204 76
76 204 76
76 204 76
76 204 76
76 204 76
76 204 76
76 204 76
76 204 76
76 204 76
76 204 76
76 204 76
76 204 76
76 204 76
76 204 76
76 204 76
76 204 76
76 204 76
76 204 76
76 204 76
76 204 76
76 204 76
76 204 76
76 204 76
76 204 76
76 204 76
76 204 76
76 204 76
76 204 76
76 204 76
76 204 76
76 204 76
76 204 76
76 204 76
76 204 76
76 204 76
76 204 76
76 204 76
76 204 76
76 204 76
76 204 76
76 204 76
76 204 76
76 204 76
76 204 76
76 204 76
76 204 76
76 204 76
76 204 76
76 204 76
76 204 76
76 204 76
76 204 76
76 204 76
76 204 76
76 204 76
76 204 76
76 204 76
76 204 76
76 204 76
76 204 76
76 204 76
76 204 76
76 204 76
76 204 76
76 204 76
76 204 76
76 204 76
76 204 76
76 204 76
76 204 76
76 204 76
76 204 76
76 204 76
76 204 76
76 204 76
76 204 76
76 204 76
76 204 76
76 204 76
76 204 76
76 204 76
76 204 76
76 204 76
76 204 76
76 204 76
76 204 76
76 204 76
76 204 76
76 204 76
76 204 76
76 204 76
76 204 76
76 204 76
76 204 76
76 204 76
76 204 76
76 204 76
76 204 76
76 204 76
76 204 76
76 204 76
76 204 76
76 204 76
76 204 76
76 204 76
76 204 76
76 204 76
76 204 76
76 204 76
76 204 76
76 204 76
76 204 76
76 204 76
76 204 76
76 204 76
76 204 76
76 204 76
76 204 76
76 204 76
76 204 76
76 204 76
76 204 76
76 204 76
76 204 76
76 204 76
76 204 76
76 204 76
76 204 76
76 204 76
76 204 76
76 204 76
76 204 76
76 204 76
76 204 76
76 204 76
76 204 76
76 204 76
76 204 76
76 204 76
76 204 76
76 204 76
76 204 76
76 204 76
76 204 76
76 204 76
76 204 76
76 204 76
76 204 76
76 204 76
76 204 76
76 204 76
76 204 76
76 204 76
76 204 76
76 204 76
76 204 76
76 204 76
76 204 76
76 204 76
76 204 76
76 204 76
76 204 76
76 204 76
76 204 76
76 204 76
76 204 76
76 204 76
76 204 76
76 204 76
76 204 76
76 204 76
76 204 76
76 204 76
76 204 76
76 204 76
76 204 76
76 204 76
76 204 76
76 204 76
76 204 76
76 204 76
76 204 76
76 204 76
76 204 76
76 204 76
76 204 76
76 204 76
76 204 76
76 204 76
76 204 76
76 204 76
76 204 76
76 204 76
76 204 76
76 204 76
76 204 76
76 204 76
76 204 76
76 204 76
76 204 76
76 204 76
76 204 76
76 204 76
76 204 76
76 204 76
76 204 76
76 204 76
76 204 76
76 204 76
76 204 76
76 204 76
76 204 76
76 204 76
76 204 76
76 204 76
76 204 76
76 204 76
76 204 76
76 204 76
76 204 76
76 204 76
76 204 76
76 204 76
76 204 76
76 204 76
76 204 76
76 204 76
76 204 76
76 204 76
76 204 76
76 204 76
76 204 76
76 204 76
76 204 76
76 204 76
76 204 76
76 204 76
76 204 76
76 204 76
76 204 76
76 204 76
76 204 76
76 204 76
76 204 76
76 204 76
76 204 76
76 204 76
76 204 76
76 204 76
76 204 76
76 204 76
76 204 76
76 204 76
76 204 76
76 204 76
76 204 76
76 204 76
76 204 76
76 204 76
76 204 76
76 204 76
76 204 76
76 204 76
76 204 76
76 204 76
76 204 76
76 204 76
76 204 76
76 204 76
76 204 76
76 204 76
76 204 76
76 204 76
76 204 76
76 204 76
76 204 76
76 204 76
76 204 76
76 204 76
76 204 76
76 204 76
76 204 76
76 204 76
76 204 76
76 204 76
76 204 76
76 204 76
76 204 76
76 204 76
76 204 76
76 204 76
76 204 76
76 204 76
76 204 76
76 204 76
76 204 76
76 204 76
76 204 76
76 204 76
76 204 76
76 204 76
76 204 76
76 204 76
76 204 76
76 204 76
76 204 76
76 204 76
76 204 76
76 204 76
76 204 76
76 204 76
76 204 76
76 204 76
76 204 76
76 204 76
76 204 76
76 204 76
76 204 76
76 204 76
76 204 76
76 204 76
76 204 76
76 204 76
76 204 76
76 204 76
76 204 76
76 204 76
76 204 76
76 204 76
76 204 76
76 204 76
76 204 76
76 204 76
76 204 76
76 204 76
76 204 76
76 204 76
76 204 76
76 204 76
76 204 76
76 204 76
76 204 76
76 204 76
76 204 76
12 12 30
12 12 30
12 12 30
12 12 30
12 12 30
12 12 30
12 12 30
12 12 30
12 12 30
12 12 30
12 12 30
12 12 30
12 12 30
12 12 30
12 12 30
12 12 30
12 12 30
12 12 30
12 12 30
12 12 30
12 12 30
12 12 30
12 12 30
12 12 30
12 12 30
12 12 30
12 12 30
12 12 30
12 12 30
12 12 30
12 12 30
12 12 30
12 12 30
12 12 30
12 12 30
76 204 76
76 204 76
76 204 76
76 204 76
76 204 76
76 204 76
76 204 76
76 204 76
76 204 76
76 204 76
76 204 76
76 204 76
76 204 76
76 204 76
76 204 76
76 204 76
76 204 76
76 204 76
76 204 76
76 204 76
76 204 76
76 204 76
76 204 76
76 204 76
76 204 76
76 204 76
76 204 76
76 204 76
76 204 76
76 204 76
76 204 76
76 204 76
76 204 76
76 204 76
76 204 76
76 204 76
76 204 76
76 204 76
76 204 76
76 204 76
76 204 76
76 204 76
76 204 76
76 204 76
76 204 76
76 204 76
76 204 76
76 204 76
76 204 76
76 204 76
76 204 76
76 204 76
76 204 76
76 204 76
76 204 76
76 204 76
76 204 76
76 204 76
76 204 76
76 204 76
76 204 76
76 204 76
76 204 76
76 204 76
76 204 76
76 204 76
76 204 76
76 204 76
76 204 76
76 204 76
76 204 76
76 204 76
76 204 76
76 204 76
76 204 76
76 204 76
76 204 76
76 204 76
76 204 76
76 204 76
76 204 76
76 204 76
76 204 76
76 204 76
76 204 76
76 204 76
76 204 76
76 204 76
76 204 76
76 204 76
76 204 76
76 204 76
76 204 76
76 204 76
76 204 76
76 204 76
76 204 76
76 204 76
76 204 76
76 204 76
76 204 76
76 204 76
76 204 76
76 204 76
76 204 76
76 204 76
76 204 76
76 204 76
76 204 76
76 204 76
76 204 76
76 204 76
76 204 76
76 204 76
76 204 76
76 204 76
76 204 76
76 204 76
76 204 76
76 204 76
76 204 76
76 204 76
76 204 76
76 204 76
76 204 76
76 204 76
76 204 76
76 204 76
76 204 76
76 204 76
76 204 76
76 204 76
76 204 76
76 204 76
76 204 76
76 204 76
76 204 76
76 204 76
76 204 76
76 204 76
76 204 76
76 204 76
76 204 76
76 204 76
76 204 76
76 204 76
76 204 76
76 204 76
76 204 76
76 204 76
76 204 76
76 204 76
76 204 76
76 204 76
76 204 76
76 204 76
76 204 76
76 204 76
76 204 76
76 204 76
76 204 76
76 204 76
76 204 76
76 204 76
76 204 76
76 204 76
76 204 76
76 204 76
76 204 76
76 204 76
76 204 76
76 204 76
76 204 76
76 204 76
76 204 76
76 204 76
76 204 76
76 204 76
76 204 76
76 204 76
76 204 76
76 204 76
76 204 76
76 204 76
76 204 76
76 204 76
76 204 76
76 204 76
76 204 76
76 204 76
76 204 76
76 204 76
76 204 76
76 204 76
76 204 76
76 204 76
76 204 76
76 204 76
76 204 76
76 204 76
76 204 76
76 204 76
76 204 76
76 204 76
76 204 76
76 204 76
76 204 76
76 204 76
76 204 76
76 204 76
76 204 76
76 204 76
76 204 76
76 204 76
76 204 76
76 204 76
76 204 76
76 204 76
76 204 76
76 204 76
76 204 76
76 204 76
76 204 76
76 204 76
76 204 76
76 204 76
76 204 76
76 204 76
76 204 76
76 204 76
76 204 76
76 204 76
76 204 76
76 204 76
76 204 76
76 204 76
76 204 76
76 204 76
76 204 76
76 204 76
76 204 76
76 204 76
76 204 76
76 204 76
76 204 76
76 204 76
76 204 76
76 204 76
76 204 76
76 204 76
76 204 76
76 204 76
76 204 76
76 204 76
76 204 76
76 204 76
76 204 76
76 204 76
76 204 76
76 204 76
76 204 76
76 204 76
76 204 76
76 204 76
76 204 76
76 204 76
76 204 76
76 204 76
76 204 76
76 204 76
76 204 76
76 204 76
76 204 76
76 204 76
76 204 76
76 204 76
76 204 76
76 204 76
76 204 76
76 204 76
76 204 76
76 204 76
76 204 76
76 204 76
76 204 76
76 204 76
76 204 76
76 204 76
76 204 76
76 204 76
76 204 76
76 204 76
76 204 76
76 204 76
76 204 76
76 204 76
76 204 76
76 204 76
76 204 76
76 204 76
76 204 76
76 204 76
76 204 76
76 204 76
76 204 76
76 204 76
76 204 76
76 204 76
76 204 76
76 204 76
76 204 76
76 204 76
76 204 76
76 204 76
76 204 76
76 204 76
76 204 76
76 204 76
76 204 76
76 204 76
76 204 76
76 204 76
76 204 76
76 204 76
76 204 76
76 204 76
76 204 76
76 204 76
76 204 76
76 204 76
76 204 76
76 204 76
76 204 76
76 204 76
76 204 76
76 204 76
76 204 76
76 204 76
76 204 76
76 204 76
76 204 76
76 204 76
76 204 76
76 204 76
76 204 76
76 204 76
76 204 76
76 204 76
76 204 76
76 204 76
76 204 76
76 204 76
76 204 76
76 204 76
76 204 76
76 204 76
76 204 76
76 204 76
76 204 76
76 204 76
76 204 76
76 204 76
76 204 76
76 204 76
76 204 76
76 204 76
76 204 76
76 204 76
76 204 76
76 204 76
76 204 76
76 204 76
12 12 30
12 12 30
12 12 30
12 12 30
12 12 30
12 12 30
12 12 30
12 12 30
12 12 30
12 12 30
12 12 30
12 12 30
12 12 30
12 12 30
12 12 30
12 12 30
12 12 30
12 12 30
12 12 30
12 12 30
12 12 30
76 204 76
76 204 76
76 204 76
76 204 76
76 204 76
76 204 76
76 204 76
76 204 76
76 204 76
76 204 76
76 204 76
76 204 76
76 204 76
76 204 76
76 204 76
76 204 76
76 204 76
76 204 76
76 204 76
76 204 76
76 204 76
76 204 76
76 204 76
76 204 76
76 204 76
76 204 76
76 204 76
76 204 76
76 204 76
76 204 76
76 204 76
76 204 76
76 204 76
76 204 76
76 204 76
76 204 76
76 204 76
76 204 76
76 204 76
76 204 76
76 204 76
76 204 76
76 204 76
76 204 76
76 204 76
76 204 76
76 204 76
76 204 76
76 204 76
76 204 76
76 204 76
76 204 76
76 204 76
76 204 76
76 204 76
76 204 76
76 204 76
76 204 76
76 204 76
76 204 76
76 204 76
76 204 76
76 204 76
76 204 76
76 204 76
76 204 76
76 204 76
76 204 76
76 204 76
76 204 76
76 204 76
76 204 76
76 204 76
76 204 76
76 204 76
76 204 76
76 204 76
76 204 76
76 204 76
76 204 76
76 204 76
76 204 76
76 204 76
76 204 76
76 204 76
76 204 76
76 204 76
76 204 76
76 204 76
76 204 76
76 204 76
76 204 76
76 204 76
76 204 76
76 204 76
76 204 76
76 204 76
76 204 76
76 204 76
76 204 76
76 204 76
76 204 76
76 204 76
76 204 76
76 204 76
76 204 76
76 204 76
76 204 76
76 204 76
76 204 76
76 204 76
76 204 76
76 204 76
76 204 76
76 204 76
76 204 76
76 204 76
76 204 76
76 204 76
76 204 76
76 204 76
76 204 76
76 204 76
76 204 76
76 204 76
76 204 76
76 204 76
76 204 76
76 204 76
76 204 76
76 204 76
76 204 76
76 204 76
76 204 76
76 204 76
76 204 76
76 204 76
76 204 76
76 204 76
76 204 76
76 204 76
76 204 76
76 204 76
76 204 76
76 204 76
76 204 76
76 204 76
76 204 76
76 204 76
76 204 76
76 204 76
76 204 76
76 204 76
76 204 76
76 204 76
76 204 76
76 204 76
76 204 76
76 204 76
76 204 76
76 204 76
76 204 76
76 204 76
76 204 76
76 204 76
76 204 76
76 204 76
76 204 76
76 204 76
76 204 76
76 204 76
76 204 76
76 204 76
76 204 76
76 204 76
76 204 76
76 204 76
76 204 76
76 204 76
76 204 76
76 204 76
76 204 76
76 204 76
76 204 76
76 204 76
76 204 76
76 204 76
76 204 76
76 204 76
76 204 76
76 204 76
76 204 76
76 204 76
76 204 76
76 204 76
76 204 76
76 204 76
76 204 76
76 204 76
76 204 76
76 204 76
76 204 76
76 204 76
76 204 76
76 204 76
76 204 76
76 204 76
76 204 76
76 204 76
76 204 76
76 204 76
76 204 76
76 204 76
76 204 76
76 204 76
76 204 76
76 204 76
76 204 76
76 204 76
76 204 76
76 204 76
76 204 76
76 204 76
76 204 76
76 204 76
76 204 76
76 204 76
76 204 76
76 204 76
76 204 76
76 204 76
76 204 76
76 204 76
76 204 76
76 204 76
76 204 76
76 204 76
76 204 76
76 204 76
76 204 76
76 204 76
76 204 76
76 204 76
76 204 76
76 204 76
76 204 76
76 204 76
76 204 76
76 204 76
76 204 76
76 204 76
76 204 76
76 204 76
76 204 76
76 204 76
76 204 76
76 204 76
76 204 76
76 204 76
76 204 76
76 204 76
76 204 76
76 204 76
76 204 76
76 204 76
76 204 76
76 204 76
76 204 76
76 204 76
76 204 76
76 204 76
76 204 76
76 204 76
76 204 76
76 204 76
76 204 76
76 204 76
76 204 76
76 204 76
76 204 76
76 204 76
76 204 76
76 204 76
76 204 76
76 204 76
76 204 76
76 204 76
76 204 76
76 204 76
76 204 76
76 204 76
76 204 76
76 204 76
76 204 76
76 204 76
76 204 76
76 204 76
76 204 76
76 204 76
76 204 76
76 204 76
76 204 76
76 204 76
76 204 76
76 204 76
76 204 76
76 204 76
76 204 76
76 204 76
76 204 76
76 204 76
76 204 76
76 204 76
76 204 76
76 204 76
76 204 76
76 204 76
76 204 76
76 204 76
76 204 76
76 204 76
76 204 76
76 204 76
76 204 76
76 204 76
76 204 76
76 204 76
76 204 76
76 204 76
76 204 76
76 204 76
76 204 76
76 204 76
76 204 76
76 204 76
76 204 76
76 204 76
76 204 76
76 204 76
76 204 76
76 204 76
76 204 76
76 204 76
76 204 76
76 204 76
76 204 76
76 204 76
76 204 76
76 204 76
76 204 76
76 204 76
76 204 76
76 204 76
76 204 76
76 204 76
76 204 76
76 204 76
76 204 76
76 204 76
76 204 76
76 204 76
76 204 76
76 204 76
76 204 76
76 204 76
76 204 76
76 204 76
76 204 76
76 204 76
76 204 76
76 204 76
76 204 76
76 204 76
76 204 76
76 204 76
76 204 76
76 204 76
76 204 76
76 204 76
76 204 76
76 204 76
76 204 76
76 204 76
76 204 76
76 204 76
76 204 76
12 12 30
12 12 30
12 12 30
12 12 30
12 12 30
12 12 30
12 12 30
76 204 76
76 204 76
76 204 76
76 204 76
76 204 76
76 204 76
76 204 76
76 204 76
76 204 76
76 204 76
76 204 76
76 204 76
76 204 76
76 204 76
76 204 76
76 204 76
76 204 76
76 204 76
76 204 76
76 204 76
76 204 76
76 204 76
76 204 76
76 204 76
76 204 76
76 204 76
76 204 76
76 204 76
76 204 76
76 204 76
76 204 76
76 204 76
76 204 76
76 204 76
76 204 76
76 204 76
76 204 76
76 204 76
76 204 76
76 204 76
76 204 76
76 204 76
76 204 76
76 204 76
76 204 76
76 204 76
76 204 76
76 204 76
76 204 76
76 204 76
76 204 76
76 204 76
76 204 76
76 204 76
76 204 76
76 204 76
76 204 76
76 204 76
76 204 76
76 204 76
76 204 76
76 204 76
76 204 76
76 204 76
76 204 76
76 204 76
76 204 76
76 204 76
76 204 76
76 204 76
76 204 76
76 204 76
76 204 76
76 204 76
76 204 76
76 204 76
76 204 76
76 204 76
76 204 76
76 204 76
76 204 76
76 204 76
76 204 76
76 204 76
76 204 76
76 204 76
76 204 76
76 204 76
76 204 76
76 204 76
76 204 76
76 204 76
76 204 76
76 204 76
76 204 76
76 204 76
76 204 76
76 204 76
76 204 76
76 204 76
76 204 76
76 204 76
76 204 76
76 204 76
76 204 76
76 204 76
76 204 76
76 204 76
76 204 76
76 204 76
76 204 76
76 204 76
76 204 76
76 204 76
76 204 76
76 204 76
76 204 76
76 204 76
76 204 76
76 204 76
76 204 76
76 204 76
76 204 76
76 204 76
76 204 76
76 204 76
76 204 76
76 204 76
76 204 76
76 204 76
76 204 76
76 204 76
76 204 76
76 204 76
76 204 76
76 204 76
76 204 76
76 204 76
76 204 76
76 204 76
76 204 76
76 204 76
76 204 76
76 204 76
76 204 76
76 204 76
76 204 76
76 204 76
76 204 76
76 204 76
76 204 76
76 204 76
76 204 76
76 204 76
76 204 76
76 204 76
76 204 76
76 204 76
76 204 76
76 204 76
76 204 76
76 204 76
76 204 76
76 204 76
76 204 76
76 204 76
76 204 76
76 204 76
76 204 76
76 204 76
76 204 76
76 204 76
76 204 76
76 204 76
76 204 76
76 204 76
76 204 76
76 204 76
76 204 76
76 204 76
76 204 76
76 204 76
76 204 76
76 204 76
76 204 76
76 204 76
76 204 76
76 204 76
76 204 76
76 204 76
76 204 76
76 204 76
76 204 76
76 204 76
76 204 76
76 204 76
76 204 76
76 204 76
76 204 76
76 204 76
76 204 76
76 204 76
76 204 76
76 204 76
76 204 76
76 204 76
76 204 76
76 204 76
76 204 76
76 204 76
76 204 76
76 204 76
76 204 76
76 204 76
76 204 76
76 204 76
76 204 76
76 204 76
76 204 76
76 204 76
76 204 76
76 204 76
76 204 76
76 204 76
76 204 76
76 204 76
76 204 76
76 204 76
76 204 76
76 204 76
76 204 76
76 204 76
76 204 76
76 204 76
76 204 76
76 204 76
76 204 76
76 204 76
76 204 76
76 204 76
76 204 76
76 204 76
76 204 76
76 204 76
76 204 76
76 204 76
76 204 76
76 204 76
76 204 76
76 204 76
76 204 76
76 204 76
76 204 76
76 204 76
76 204 76
76 204 76
76 204 76
76 204 76
76 204 76
76 204 76
76 204 76
76 204 76
76 204 76
76 204 76
76 204 76
76 204 76
76 204 76
76 204 76
76 204 76
76 204 76
76 204 76
76 204 76
76 204 76
76 204 76
76 204 76
76 204 76
76 204 76
76 204 76
76 204 76
76 204 76
76 204 76
76 204 76
76 204 76
76 204 76
76 204 76
76 204 76
76 204 76
76 204 76
76 204 76
76 204 76
76 204 76
76 204 76
76 204 76
76 204 76
76 204 76
76 204 76
76 204 76
76 204 76
76 204 76
76 204 76
76 204 76
76 204 76
76 204 76
76 204 76
76 204 76
76 204 76
76 204 76
76 204 76
76 204 76
76 204 76
76 204 76
76 204 76
76 204 76
76 204 76
76 204 76
76 204 76
76 204 76
76 204 76
76 204 76
76 204 76
76 204 76
76 204 76
76 204 76
76 204 76
76 204 76
76 204 76
76 204 76
76 204 76
76 204 76
76 204 76
76 204 76
76 204 76
76 204 76
76 204 76
76 204 76
76 204 76
76 204 76
76 204 76
76 204 76
76 204 76
76 204 76
76 204 76
76 204 76
76 204 76
76 204 76
76 204 76
76 204 76
76 204 76
76 204 76
76 204 76
76 204 76
76 204 76
76 204 76
76 204 76
76 204 76
76 204 76
76 204 76
76 204 76
76 204 76
76 204 76
76 204 76
76 204 76
76 204 76
76 204 76
76 204 76
76 204 76
76 204 76
76 204 76
76 204 76
76 204 76
76 204 76
76 204 76
76 204 76
76 204 76
76 204 76
76 204 76
76 204 76
76 204 76
76 204 76
76 204 76
76 204 76
76 204 76
76 204 76
76 204 76
76 204 76
76 204 76
76 204 76
76 204 76
76 204 76
76 204 76
76 204 76
76 204 76
76 204 76
76 204 76
76 204 76
76 204 76
76 204 76
76 204 76
76 204 76
76 204 76
76 204 76
76 204 76
76 204 76
76 204 76
76 204 76
76 204 76
76 204 76
76 204 76
76 204 76
76 204 76
76 204 76
76 204 76
76 204 76
76 204 76
76 204 76
76 204 76
76 204 76
76 204 76
76 204 76
76 204 76
76 204 76
76 204 76
76 204 76
76 204 76
76 204 76
76 204 76
76 204 76
76 204 76
76 204 76
76 204 76
76 204 76
76 204 76
76 204 76
76 204 76
76 204 76
76 204 76
76 204 76
76 204 76
76 204 76
76 204 76
76 204 76
76 204 76
76 204 76
76 204 76
76 204 76
76 204 76
76 204 76
76 204 76
76 204 76
76 204 76
76 204 76
76 204 76
76 204 76
76 204 76
76 204 76
76 204 76
76 204 76
76 204 76
76 204 76
76 204 76
76 204 76
76 204 76
76 204 76
76 204 76
76 204 76
76 204 76
76 204 76
76 204 76
76 204 76
76 204 76
76 204 76
76 204 76
76 204 76
76 204 76
76 204 76
76 204 76
76 204 76
76 204 76
76 204 76
76 204 76
76 204 76
76 204 76
76 204 76
76 204 76
76 204 76
76 204 76
76 204 76
76 204 76
76 204 76
76 204 76
76 204 76
76 204 76
76 204 76
76 204 76
76 204 76
76 204 76
76 204 76
76 204 76
76 204 76
76 204 76
76 204 76
76 204 76
76 204 76
76 204 76
76 204 76
76 204 76
76 204 76
76 204 76
76 204 76
76 204 76
76 204 76
76 204 76
76 204 76
76 204 76
76 204 76
76 204 76
76 204 76
76 204 76
76 204 76
76 204 76
76 204 76
76 204 76
76 204 76
76 204 76
76 204 76
76 204 76
76 204 76
76 204 76
76 204 76
76 204 76
76 204 76
76 204 76
76 204 76
76 204 76
76 204 76
76 204 76
76 204 76
76 204 76
76 204 76
76 204 76
76 204 76
76 204 76
76 204 76
76 204 76
76 204 76
76 204 76
76 204 76
76 204 76
76 204 76
76 204 76
76 204 76
76 204 76
76 204 76
76 204 76
76 204 76
76 204 76
76 204 76
76 204 76
76 204 76
76 204 76
76 204 76
76 204 76
76 204 76
76 204 76
76 204 76
76 204 76
76 204 76
76 204 76
76 204 76
76 204 76
76 204 76
76 204 76
76 204 76
76 204 76
76 204 76
76 204 76
76 204 76
76 204 76
76 204 76
76 204 76
76 204 76
76 204 76
76 204 76
76 204 76
76 204 76
76 204 76
76 204 76
76 204 76
76 204 76
76 204 76
76 204 76
76 204 76
76 204 76
76 204 76
76 204 76
76 204 76
76 204 76
76 204 76
76 204 76
76 204 76
76 204 76
76 204 76
76 204 76
76 204 76
76 204 76
76 204 76
76 204 76
76 204 76
76 204 76
76 204 76
76 204 76
76 204 76
76 204 76
76 204 76
76 204 76
76 204 76
76 204 76
76 204 76
76 204 76
76 204 76
76 204 76
76 204 76
76 204 76
76 204 76
76 204 76
76 204 76
76 204 76
76 204 76
76 204 76
76 204 76
76 204 76
76 204 76
76 204 76
76 204 76
76 204 76
76 204 76
76 204 76
76 204 76
76 204 76
76 204 76
76 204 76
76 204 76
76 204 76
76 204 76
76 204 76
76 204 76
76 204 76
76 204 76
76 204 76
76 204 76
76 204 76
76 204 76
76 204 76
76 204 76
76 204 76
76 204 76
76 204 76
76 204 76
76 204 76
76 204 76
76 204 76
76 204 76
76 204 76
76 204 76
76 204 76
76 204 76
76 204 76
76 204 76
76 204 76
76 204 76
76 204 76
76 204 76
76 204 76
76 204 76
76 204 76
76 204 76
76 204 76
76 204 76
76 204 76
76 204 76
76 204 76
76 204 76
76 204 76
76 204 76
76 204 76
76 204 76
76 204 76
76 204 76
76 204 76
76 204 76
76 204 76
76 204 76
76 204 76
76 204 76
76 204 76
76 204 76
76 204 76
76 204 76
76 204 76
76 204 76
76 204 76
76 204 76
76 204 76
76 204 76
76 204 76
76 204 76
76 204 76
76 204 76
76 204 76
76 204 76
76 204 76
76 204 76
76 204 76
76 204 76
76 204 76
76 204 76
76 204 76
76 204 76
76 204 76
76 204 76
76 204 76
76 204 76
76 204 76
76 204 76
76 204 76
76 204 76
76 204 76
76 204 76
76 204 76
76 204 76
76 204 76
76 204 76
76 204 76
76 204 76
76 204 76
76 204 76
76 204 76
76 204 76
76 204 76
76 204 76
76 204 76
76 204 76
76 204 76
76 204 76
76 204 76
76 204 76
76 204 76
76 204 76
76 204 76
76 204 76
76 204 76
76 204 76
76 204 76
76 204 76
76 204 76
76 204 76
76 204 76
76 204 76
76 204 76
76 204 76
76 204 76
76 204 76
76 204 76
76 204 76
76 204 76
76 204 76
76 204 76
76 204 76
76 204 76
76 204 76
76 204 76
76 204 76
76 204 76
76 204 76
76 204 76
76 204 76
76 204 76
76 204 76
76 204 76
76 204 76
76 204 76
76 204 76
76 204 76
76 204 76
76 204 76
76 204 76
76 204 76
76 204 76
76 204 76
76 204 76
76 204 76
76 204 76
76 204 76
76 204 76
76 204 76
76 204 76
76 204 76
76 204 76
76 204 76
76 204 76
76 204 76
76 204 76
76 204 76
76 204 76
76 204 76
76 204 76
76 204 76
76 204 76
76 204 76
76 204 76
76 204 76
76 204 76
76 204 76
76 204 76
76 204 76
76 204 76
76 204 76
76 204 76
76 204 76
76 204 76
76 204 76
76 204 76
76 204 76
76 204 76
76 204 76
76 204 76
76 204 76
76 204 76
76 204 76
76 204 76
76 204 76
76 204 76
76 204 76
76 204 76
76 204 76
76 204 76
76 204 76
76 204 76
76 204 76
76 204 76
76 204 76
76 204 76
76 204 76
76 204 76
76 204 76
76 204 76
76 204 76
76 204 76
76 204 76
76 204 76
76 204 76
76 204 76
76 204 76
76 204 76
76 204 76
76 204 76
76 204 76
76 204 76
76 204 76
76 204 76
76 204 76
76 204 76
76 204 76
76 204 76
76 204 76
76 204 76
76 204 76
76 204 76
76 204 76
76 204 76
76 204 76
76 204 76
76 204 76
76 204 76
76 204 76
76 204 76
76 204 76
76 204 76
76 204 76
76 204 76
76 204 76
76 204 76
76 204 76
76 204 76
76 204 76
76 204 76
76 204 76
76 204 76
76 204 76
76 204 76
76 204 76
76 204 76
76 204 76
76 204 76
76 204 76
76 204 76
76 204 76
76 204 76
76 204 76
76 204 76
76 204 76
76 204 76
76 204 76
76 204 76
76 204 76
76 204 76
76 204 76
76 204 76
76 204 76
76 204 76
76 204 76
76 204 76
76 204 76
76 204 76
76 204 76
76 204 76
76 204 76
76 204 76
76 204 76
76 204 76
76 204 76
76 204 76
76 204 76
76 204 76
76 204 76
76 204 76
76 204 76
76 204 76
76 204 76
76 204 76
76 204 76
76 204 76
76 204 76
76 204 76
76 204 76
76 204 76
76 204 76
76 204 76
76 204 76
76 204 76
76 204 76
76 204 76
76 204 76
76 204 76
76 204 76
76 204 76
76 204 76
76 204 76
76 204 76
76 204 76
76 204 76
76 204 76
76 204 76
76 204 76
76 204 76
76 204 76
76 204 76
76 204 76
76 204 76
76 204 76
76 204 76
76 204 76
76 204 76
76 204 76
76 204 76
76 204 76
76 204 76
76 204 76
76 204 76
76 204 76
76 204 76
76 204 76
76 204 76
76 204 76
76 204 76
76 204 76
76 204 76
76 204 76
76 204 76
76 204 76
76 204 76
76 204 76
76 204 76
76 204 76
76 204 76
76 204 76
76 204 76
76 204 76
76 204 76
76 204 76
76 204 76
76 204 76
76 204 76
76 204 76
76 204 76
76 204 76
76 204 76
76 204 76
76 204 76
76 204 76
76 204 76
76 204 76
76 204 76
76 204 76
76 204 76
76 204 76
76 204 76
76 204 76
76 204 76
76 204 76
76 204 76
76 204 76
76 204 76
76 204 76
76 204 76
76 204 76
76 204 76
76 204 76
76 204 76
76 204 76
76 204 76
76 204 76
76 204 76
76 204 76
76 204 76
76 204 76
76 204 76
76 204 76
76 204 76
76 204 76
76 204 76
76 204 76
76 204 76
76 204 76
76 204 76
76 204 76
76 204 76
76 204 76
76 204 76
76 204 76
76 204 76
76 204 76
76 204 76
76 204 76
76 204 76
76 204 76
76 204 76
76 204 76
76 204 76
76 204 76
76 204 76
76 204 76
76 204 76
76 204 76
76 204 76
76 204 76
76 204 76
76 204 76
76 204 76
76 204 76
76 204 76
76 204 76
76 204 76
76 204 76
76 204 76
76 204 76
76 204 76
76 204 76
76 204 76
76 204 76
76 204 76
76 204 76
76 204 76
76 204 76
76 204 76
76 204 76
76 204 76
76 204 76
76 204 76
76 204 76
76 204 76
76 204 76
76 204 76
76 204 76
76 204 76
76 204 76
76 204 76
76 204 76
76 204 76
76 204 76
76 204 76
76 204 76
76 204 76
76 204 76
76 204 76
76 204 76
76 204 76
76 204 76
76 204 76
76 204 76
76 204 76
76 204 76
76 204 76
76 204 76
76 204 76
76 204 76
76 204 76
76 204 76
76 204 76
76 204 76
76 204 76
76 204 76
76 204 76
76 204 76
76 204 76
76 204 76
76 204 76
76 204 76
76 204 76
76 204 76
76 204 76
76 204 76
76 204 76
76 204 76
76 204 76
76 204 76
76 204 76
76 204 76
76 204 76
76 204 76
76 204 76
76 204 76
76 204 76
76 204 76
76 204 76
76 204 76
76 204 76
76 204 76
76 204 76
76 204 76
76 204 76
76 204 76
76 204 76
76 204 76
76 204 76
76 204 76
76 204 76
76 204 76
76 204 76
76 204 76
76 204 76
76 204 76
76 204 76
76 204 76
76 204 76
76 204 76
76 204 76
76 204 76
76 204 76
76 204 76
76 204 76
76 204 76
76 204 76
76 204 76
76 204 76
76 204 76
76 204 76
76 204 76
76 204 76
76 204 76
76 204 76
76 204 76
76 204 76
76 204 76
76 204 76
76 204 76
76 204 76
76 204 76
76 204 76
76 204 76
76 204 76
76 204 76
76 204 76
76 204 76
76 204 76
76 204 76
76 204 76
76 204 76
76 204 76
76 204 76
76 204 76
76 204 76
76 204 76
76 204 76
76 204 76
76 204 76
76 204 76
76 204 76
76 204 76
76 204 76
76 204 76
76 204 76
76 204 76
76 204 76
76 204 76
76 204 76
76 204 76
76 204 76
76 204 76
76 204 76
76 204 76
76 204 76
76 204 76
76 204 76
76 204 76
76 204 76
76 204 76
76 204 76
76 204 76
76 204 76
76 204 76
76 204 76
76 204 76
76 204 76
76 204 76
76 204 76
76 204 76
76 204 76
76 204 76
76 204 76
76 204 76
76 204 76
76 204 76
76 204 76
76 204 76
76 204 76
76 204 76
76 204 76
76 204 76
76 204 76
76 204 76
76 204 76
76 204 76
76 204 76
76 204 76
76 204 76
76 204 76
76 204 76
76 204 76
76 204 76
76 204 76
76 204 76
76 204 76
76 204 76
76 204 76
76 204 76
76 204 76
76 204 76
76 204 76
76 204 76
76 204 76
76 204 76
76 204 76
76 204 76
76 204 76
76 204 76
76 204 76
76 204 76
76 204 76
76 204 76
76 204 76
76 204 76
76 204 76
76 204 76
76 204 76
76 204 76
76 204 76
76 204 76
76 204 76
76 204 76
76 204 76
76 204 76
76 204 76
76 204 76
76 204 76
76 204 76
76 204 76
76 204 76
76 204 76
76 204 76
76 204 76
76 204 76
76 204 76
76 204 76
76 204 76
76 204 76
76 204 76
76 204 76
76 204 76
76 204 76
76 204 76
76 204 76
76 204 76
76 204 76
76 204 76
76 204 76
76 204 76
76 204 76
76 204 76
76 204 76
76 204 76
76 204 76
76 204 76
76 204 76
76 204 76
76 204 76
76 204 76
76 204 76
76 204 76
76 204 76
76 204 76
76 204 76
76 204 76
76 204 76
76 204 76
76 204 76
76 204 76
76 204 76
76 204 76
76 204 76
76 204 76
76 204 76
76 204 76
76 204 76
76 204 76
76 204 76
76 204 76
76 204 76
76 204 76
76 204 76
76 204 76
76 204 76
76 204 76
76 204 76
76 204 76
76 204 76
76 204 76
76 204 76
76 204 76
76 204 76
76 204 76
76 204 76
76 204 76
76 204 76
76 204 76
76 204 76
76 204 76
76 204 76
76 204 76
76 204 76
76 204 76
76 204 76
76 204 76
76 204 76
76 204 76
76 204 76
76 204 76
76 204 76
76 204 76
76 204 76
76 204 76
76 204 76
76 204 76
76 204 76
76 204 76
76 204 76
76 204 76
76 204 76
76 204 76
76 204 76
76 204 76
76 204 76
76 204 76
76 204 76
76 204 76
76 204 76
76 204 76
76 204 76
76 204 76
76 204 76
76 204 76
76 204 76
76 204 76
76 204 76
76 204 76
76 204 76
76 204 76
76 204 76
76 204 76
76 204 76
76 204 76
76 204 76
76 204 76
76 204 76
76 204 76
76 204 76
76 204 76
76 204 76
76 204 76
76 204 76
76 204 76
76 204 76
76 204 76
76 204 76
76 204 76
76 204 76
76 204 76
76 204 76
76 204 76
76 204 76
76 204 76
76 204 76
76 204 76
76 204 76
76 204 76
76 204 76
76 204 76
76 204 76
76 204 76
76 204 76
76 204 76
76 204 76
76 204 76
76 204 76
76 204 76
76 204 76
76 204 76
76 204 76
76 204 76
76 204 76
76 204 76
76 204 76
76 204 76
76 204 76
76 204 76
76 204 76
76 204 76
76 204 76
76 204 76
76 204 76
76 204 76
76 204 76
76 204 76
76 204 76
76 204 76
76 204 76
76 204 76
76 204 76
76 204 76
76 204 76
76 204 76
76 204 76
76 204 76
76 204 76
76 204 76
76 204 76
76 204 76
76 204 76
76 204 76
76 204 76
76 204 76
76 204 76
76 204 76
76 204 76
76 204 76
76 204 76
76 204 76
76 204 76
76 204 76
76 204 76
76 204 76
76 204 76
76 204 76
76 204 76
76 204 76
76 204 76
76 204 76
76 204 76
76 204 76
76 204 76
76 204 76
76 204 76
76 204 76
76 204 76
76 204 76
76 204 76
76 204 76
76 204 76
76 204 76
76 204 76
76 204 76
76 204 76
76 204 76
76 204 76
76 204 76
76 204 76
76 204 76
76 204 76
76 204 76
76 204 76
76 204 76
76 204 76
76 204 76
76 204 76
76 204 76
76 204 76
76 204 76
76 204 76
76 204 76
76 204 76
76 204 76
76 204 76
76 204 76
76 204 76
76 204 76
76 204 76
76 204 76
76 204 76
76 204 76
76 204 76
76 204 76
76 204 76
76 204 76
76 204 76
76 204 76
76 204 76
76 204 76
76 204 76
76 204 76
76 204 76
76 204 76
76 204 76
76 204 76
76 204 76
76 204 76
76 204 76
76 204 76
76 204 76
76 204 76
76 204 76
76 204 76
76 204 76
76 204 76
76 204 76
76 204 76
76 204 76
76 204 76
76 204 76
76 204 76
76 204 76
76 204 76
76 204 76
76 204 76
76 204 76
76 204 76
76 204 76
76 204 76
76 204 76
76 204 76
76 204 76
76 204 76
76 204 76
76 204 76
76 204 76
76 204 76
76 204 76
76 204 76
76 204 76
76 204 76
76 204 76
76 204 76
76 204 76
76 204 76
76 204 76
76 204 76
76 204 76
76 204 76
76 204 76
76 204 76
76 204 76
76 204 76
76 204 76
76 204 76
76 204 76
76 204 76
76 204 76
76 204 76
76 204 76
76 204 76
76 204 76
76 204 76
76 204 76
76 204 76
76 204 76
76 204 76
76 204 76
76 204 76
76 204 76
76 204 76
76 204 76
76 204 76
76 204 76
76 204 76
76 204 76
76 204 76
76 204 76
76 204 76
76 204 76
76 204 76
76 204 76
76 204 76
76 204 76
76 204 76
76 204 76
76 204 76
76 204 76
76 204 76
76 204 76
76 204 76
76 204 76
76 204 76
76 204 76
76 204 76
76 204 76
76 204 76
76 204 76
76 204 76
76 204 76
76 204 76
76 204 76
76 204 76
76 204 76
76 204 76
76 204 76
76 204 76
76 204 76
76 204 76
76 204 76
76 204 76
76 204 76
76 204 76
76 204 76
76 204 76
76 204 76
76 204 76
76 204 76
76 204 76
76 204 76
76 204 76
76 204 76
76 204 76
76 204 76
76 204 76
76 204 76
76 204 76
76 204 76
76 204 76
76 204 76
76 204 76
76 204 76
76 204 76
76 204 76
76 204 76
76 204 76
76 204 76
76 204 76
76 204 76
76 204 76
76 204 76
76 204 76
76 204 76
76 204 76
76 204 76
76 204 76
76 204 76
76 204 76
76 204 76
76 204 76
76 204 76
76 204 76
76 204 76
76 204 76
76 204 76
76 204 76
76 204 76
76 204 76
76 204 76
76 204 76
76 204 76
76 204 76
76 204 76
76 204 76
76 204 76
76 204 76
76 204 76
76 204 76
76 204 76
76 204 76
76 204 76
76 204 76
76 204 76
76 204 76
76 204 76
76 204 76
76 204 76
76 204 76
76 204 76
76 204 76
76 204 76
76 204 76
76 204 76
76 204 76
76 204 76
76 204 76
76 204 76
76 204 76
76 204 76
76 204 76
76 204 76
76 204 76
76 204 76
76 204 76
76 204 76
76 204 76
76 204 76
76 204 76
76 204 76
76 204 76
76 204 76
76 204 76
76 204 76
76 204 76
76 204 76
76 204 76
76 204 76
76 204 76
76 204 76
76 204 76
76 204 76
76 204 76
76 204 76
76 204 76
76 204 76
76 204 76
76 204 76
76 204 76
76 204 76
76 204 76
76 204 76
76 204 76
76 204 76
76 204 76
76 204 76
76 204 76
76 204 76
76 204 76
76 204 76
76 204 76
76 204 76
76 204 76
76 204 76
76 204 76
76 204 76
76 204 76
76 204 76
76 204 76
76 204 76
76 204 76
76 204 76
76 204 76
76 204 76
76 204 76
76 204 76
76 204 76
76 204 76
76 204 76
76 204 76
76 204 76
76 204 76
76 204 76
76 204 76
76 204 76
76 204 76
76 204 76
76 204 76
76 204 76
76 204 76
76 204 76
76 204 76
76 204 76
76 204 76
76 204 76
76 204 76
76 204 76
76 204 76
76 204 76
76 204 76
76 204 76
76 204 76
76 204 76
76 204 76
76 204 76
76 204 76
76 204 76
76 204 76
76 204 76
76 204 76
76 204 76
76 204 76
76 204 76
76 204 76
76 204 76
76 204 76
76 204 76
76 204 76
76 204 76
76 204 76
76 204 76
76 204 76
76 204 76
76 204 76
76 204 76
76 204 76
76 204 76
76 204 76
76 204 76
76 204 76
76 204 76
76 204 76
76 204 76
76 204 76
76 204 76
76 204 76
76 204 76
76 204 76
76 204 76
76 204 76
76 204 76
76 204 76
76 204 76
76 204 76
76 204 76
76 204 76
76 204 76
76 204 76
76 204 76
76 204 76
76 204 76
76 204 76
76 204 76
76 204 76
76 204 76
76 204 76
76 204 76
76 204 76
76 204 76
76 204 76
76 204 76
76 204 76
76 204 76
76 204 76
76 204 76
76 204 76
76 204 76
76 204 76
76 204 76
76 204 76
76 204 76
76 204 76
76 204 76
76 204 76
76 204 76
76 204 76
76 204 76
76 204 76
76 204 76
76 204 76
76 204 76
76 204 76
76 204 76
76 204 76
76 204 76
76 204 76
76 204 76
76 204 76
76 204 76
76 204 76
76 204 76
76 204 76
76 204 76
76 204 76
76 204 76
76 204 76
76 204 76
76 204 76
76 204 76
76 204 76
76 204 76
76 204 76
76 204 76
76 204 76
76 204 76
76 204 76
76 204 76
76 204 76
76 204 76
76 204 76
76 204 76
76 204 76
76 204 76
76 204 76
76 204 76
76 204 76
76 204 76
76 204 76
76 204 76
76 204 76
76 204 76
76 204 76
76 204 76
76 204 76
76 204 76
76 204 76
76 204 76
76 204 76
76 204 76
76 204 76
76 204 76
76 204 76
76 204 76
76 204 76
76 204 76
76 204 76
76 204 76
76 204 76
76 204 76
76 204 76
76 204 76
76 204 76
76 204 76
76 204 76
76 204 76
76 204 76
76 204 76
76 204 76
76 204 76
76 204 76
76 204 76
76 204 76
76 204 76
76 204 76
76 204 76
76 204 76
76 204 76
76 204 76
76 204 76
76 204 76
76 204 76
76 204 76
76 204 76
76 204 76
76 204 76
76 204 76
76 204 76
76 204 76
76 204 76
76 204 76
76 204 76
76 204 76
76 204 76
76 204 76
76 204 76
76 204 76
76 204 76
76 204 76
76 204 76
76 204 76
76 204 76
76 204 76
76 204 76
76 204 76
76 204 76
76 204 76
76 204 76
76 204 76
76 204 76
76 204 76
76 204 76
76 204 76
76 204 76
76 204 76
76 204 76
76 204 76
76 204 76
76 204 76
76 204 76
76 204 76
76 204 76
76 204 76
76 204 76
76 204 76
76 204 76
76 204 76
76 204 76
76 204 76
76 204 76
76 204 76
76 204 76
76 204 76
76 204 76
76 204 76
76 204 76
76 204 76
76 204 76
76 204 76
76 204 76
76 204 76
76 204 76
76 204 76
76 204 76
76 204 76
76 204 76
76 204 76
76 204 76
76 204 76
76 204 76
76 204 76
76 204 76
76 204 76
76 204 76
76 204 76
76 204 76
76 204 76
76 204 76
76 204 76
76 204 76
76 204 76
76 204 76
76 204 76
76 204 76
76 204 76
76 204 76
76 204 76
76 204 76
76 204 76
76 204 76
76 204 76
76 204 76
76 204 76
76 204 76
76 204 76
76 204 76
76 204 76
76 204 76
76 204 76
76 204 76
76 204 76
76 204 76
76 204 76
76 204 76
76 204 76
76 204 76
76 204 76
76 204 76
76 204 76
76 204 76
76 204 76
76 204 76
76 204 76
76 204 76
76 204 76
76 204 76
76 204 76
76 204 76
76 204 76
76 204 76
76 204 76
76 204 76
76 204 76
76 204 76
76 204 76
76 204 76
76 204 76
76 204 76
76 204 76
76 204 76
76 204 76
76 204 76
76 204 76
76 204 76
76 204 76
76 204 76
76 204 76
76 204 76
76 204 76
76 204 76
76 204 76
76 204 76
76 204 76
76 204 76
76 204 76
76 204 76
76 204 76
76 204 76
76 204 76
76 204 76
76 204 76
76 204 76
76 204 76
76 204 76
76 204 76
76 204 76
76 204 76
76 204 76
76 204 76
76 204 76
76 204 76
76 204 76
76 204 76
76 204 76
76 204 76
76 204 76
76 204 76
76 204 76
76 204 76
76 204 76
76 204 76
76 204 76
76 204 76
76 204 76
76 204 76
76 204 76
76 204 76
76 204 76
76 204 76
76 204 76
76 204 76
76 204 76
76 204 76
76 204 76
76 204 76
76 204 76
76 204 76
76 204 76
76 204 76
76 204 76
76 204 76
76 204 76
76 204 76
76 204 76
76 204 76
76 204 76
76 204 76
76 204 76
76 204 76
76 204 76
76 204 76
76 204 76
76 204 76
76 204 76
76 204 76
76 204 76
76 204 76
76 204 76
76 204 76
76 204 76
76 204 76
76 204 76
76 204 76
76 204 76
76 204 76
76 204 76
76 204 76
76 204 76
76 204 76
76 204 76
76 204 76
76 204 76
76 204 76
76 204 76
76 204 76
76 204 76
76 204 76
76 204 76
76 204 76
76 204 76
76 204 76
76 204 76
76 204 76
76 204 76
76 204 76
76 204 76
76 204 76
76 204 76
76 204 76
76 204 76
76 204 76
76 204 76
76 204 76
76 204 76
76 204 76
76 204 76
76 204 76
76 204 76
76 204 76
76 204 76
76 204 76
76 204 76
76 204 76
76 204 76
76 204 76
76 204 76
76 204 76
76 204 76
76 204 76
76 204 76
76 204 76
76 204 76
76 204 76
76 204 76
76 204 76
76 204 76
76 204 76
76 204 76
76 204 76
76 204 76
76 204 76
76 204 76
76 204 76
76 204 76
76 204 76
76 204 76
76 204 76
76 204 76
76 204 76
76 204 76
76 204 76
76 204 76
76 204 76
76 204 76
76 204 76
76 204 76
76 204 76
76 204 76
76 204 76
76 204 76
76 204 76
76 204 76
76 204 76
76 204 76
76 204 76
76 204 76
76 204 76
76 204 76
76 204 76
76 204 76
76 204 76
76 204 76
76 204 76
76 204 76
76 204 76
76 204 76
76 204 76
76 204 76
76 204 76
76 204 76
76 204 76
76 204 76
76 204 76
76 204 76
76 204 76
76 204 76
76 204 76
76 204 76
76 204 76
76 204 76
76 204 76
76 204 76
76 204 76
76 204 76
76 204 76
76 204 76
76 204 76
76 204 76
76 204 76
76 204 76
76 204 76
76 204 76
76 204 76
76 204 76
76 204 76
76 204 76
76 204 76
76 204 76
76 204 76
76 204 76
76 204 76
76 204 76
76 204 76
76 204 76
76 204 76
76 204 76
76 204 76
76 204 76
76 204 76
76 204 76
76 204 76
76 204 76
76 204 76
76 204 76
76 204 76
76 204 76
76 204 76
76 204 76
76 204 76
76 204 76
76 204 76
76 204 76
76 204 76
76 204 76
76 204 76
76 204 76
76 204 76
76 204 76
76 204 76
76 204 76
76 204 76
76 204 76
76 204 76
76 204 76
76 204 76
76 204 76
76 204 76
76 204 76
76 204 76
76 204 76
76 204 76
76 204 76
76 204 76
76 204 76
76 204 76
76 204 76
76 204 76
76 204 76
76 204 76
76 204 76
76 204 76
76 204 76
76 204 76
76 204 76
76 204 76
76 204 76
76 204 76
76 204 76
76 204 76
76 204 76
76 204 76
76 204 76
76 204 76
76 204 76
76 204 76
76 204 76
76 204 76
76 204 76
76 204 76
76 204 76
76 204 76
76 204 76
76 204 76
76 204 76
76 204 76
76 204 76
76 204 76
76 204 76
76 204 76
76 204 76
76 204 76
76 204 76
76 204 76
76 204 76
76 204 76
76 204 76
76 204 76
76 204 76
76 204 76
76 204 76
76 204 76
76 204 76
76 204 76
76 204 76
76 204 76
76 204 76
76 204 76
76 204 76
76 204 76
76 204 76
76 204 76
76 204 76
76 204 76
76 204 76
76 204 76
76 204 76
76 204 76
76 204 76
76 204 76
76 204 76
76 204 76
76 204 76
76 204 76
76 204 76
76 204 76
76 204 76
76 204 76
76 204 76
76 204 76
76 204 76
76 204 76
76 204 76
76 204 76
76 204 76
76 204 76
76 204 76
76 204 76
76 204 76
76 204 76
76 204 76
76 204 76
76 204 76
76 204 76
76 204 76
76 204 76
76 204 76
76 204 76
76 204 76
76 204 76
76 204 76
76 204 76
76 204 76
76 204 76
76 204 76
76 204 76
76 204 76
76 204 76
76 204 76
76 204 76
76 204 76
76 204 76
76 204 76
76 204 76
76 204 76
76 204 76
76 204 76
76 204 76
76 204 76
76 204 76
76 204 76
76 204 76
76 204 76
76 204 76
76 204 76
76 204 76
76 204 76
76 204 76
76 204 76
76 204 76
76 204 76
76 204 76
76 204 76
76 204 76
76 204 76
76 204 76
76 204 76
76 204 76
76 204 76
76 204 76
76 204 76
76 204 76
76 204 76
76 204 76
76 204 76
76 204 76
76 204 76
76 204 76
76 204 76
76 204 76
76 204 76
76 204 76
76 204 76
76 204 76
76 204 76
76 204 76
76 204 76
76 204 76
76 204 76
76 204 76
76 204 76
76 204 76
76 204 76
76 204 76
76 204 76
76 204 76
76 204 76
76 204 76
76 204 76
76 204 76
76 204 76
76 204 76
76 204 76
76 204 76
76 204 76
76 204 76
76 204 76
76 204 76
76 204 76
76 204 76
76 204 76
76 204 76
76 204 76
76 204 76
76 204 76
76 204 76
76 204 76
76 204 76
76 204 76
76 204 76
76 204 76
76 204 76
76 204 76
76 204 76
76 204 76
76 204 76
76 204 76
76 204 76
76 204 76
76 204 76
76 204 76
76 204 76
76 204 76
76 204 76
76 204 76
76 204 76
76 204 76
76 204 76
76 204 76
76 204 76
76 204 76
76 204 76
76 204 76
76 204 76
76 204 76
76 204 76
76 204 76
76 204 76
76 204 76
76 204 76
76 204 76
76 204 76
76 204 76
76 204 76
76 204 76
76 204 76
76 204 76
76 204 76
76 204 76
76 204 76
76 204 76
76 204 76
76 204 76
76 204 76
76 204 76
76 204 76
76 204 76
76 204 76
76 204 76
76 204 76
76 204 76
76 204 76
76 204 76
76 204 76
76 204 76
76 204 76
76 204 76
76 204 76
76 204 76
76 204 76
76 204 76
76 204 76
76 204 76
76 204 76
76 204 76
76 204 76
76 204 76
76 204 76
76 204 76
76 204 76
76 204 76
76 204 76
76 204 76
76 204 76
76 204 76
76 204 76
76 204 76
76 204 76
76 204 76
76 204 76
76 204 76
76 204 76
76 204 76
76 204 76
76 204 76
76 204 76
76 204 76
76 204 76
76 204 76
76 204 76
76 204 76
76 204 76
76 204 76
76 204 76
76 204 76
76 204 76
76 204 76
76 204 76
76 204 76
76 204 76
76 204 76
76 204 76
76 204 76
76 204 76
76 204 76
76 204 76
76 204 76
76 204 76
76 204 76
76 204 76
76 204 76
76 204 76
76 204 76
76 204 76
76 204 76
76 204 76
76 204 76
76 204 76
76 204 76
76 204 76
76 204 76
76 204 76
76 204 76
76 204 76
76 204 76
76 204 76
76 204 76
76 204 76
76 204 76
76 204 76
76 204 76
76 204 76
76 204 76
76 204 76
76 204 76
76 204 76
76 204 76
76 204 76
76 204 76
76 204 76
76 204 76
76 204 76
76 204 76
76 204 76
76 204 76
76 204 76
76 204 76
76 204 76
76 204 76
76 204 76
76 204 76
76 204 76
76 204 76
76 204 76
76 204 76
76 204 76
76 204 76
76 204 76
76 204 76
76 204 76
76 204 76
76 204 76
76 204 76
76 204 76
76 204 76
76 204 76
76 204 76
76 204 76
76 204 76
76 204 76
76 204 76
76 204 76
76 204 76
76 204 76
76 204 76
76 204 76
76 204 76
76 204 76
76 204 76
76 204 76
76 204 76
76 204 76
76 204 76
76 204 76
76 204 76
76 204 76
76 204 76
76 204 76
76 204 76
76 204 76
76 204 76
76 204 76
76 204 76
76 204 76
76 204 76
76 204 76
76 204 76
76 204 76
76 204 76
76 204 76
76 204 76
76 204 76
76 204 76
76 204 76
76 204 76
76 204 76
76 204 76
76 204 76
76 204 76
76 204 76
76 204 76
76 204 76
76 204 76
76 204 76
76 204 76
76 204 76
76 204 76
76 204 76
76 204 76
76 204 76
76 204 76
76 204 76
76 204 76
76 204 76
76 204 76
76 204 76
76 204 76
76 204 76
76 204 76
76 204 76
76 204 76
76 204 76
76 204 76
76 204 76
76 204 76
76 204 76
76 204 76
76 204 76
76 204 76
76 204 76
76 204 76
76 204 76
76 204 76
76 204 76
76 204 76
76 204 76
76 204 76
76 204 76
76 204 76
76 204 76
76 204 76
76 204 76
76 204 76
76 204 76
76 204 76
76 204 76
76 204 76
76 204 76
76 204 76
76 204 76
76 204 76
76 204 76
76 204 76
76 204 76
76 204 76
76 204 76
76 204 76
76 204 76
76 204 76
76 204 76
76 204 76
76 204 76
76 204 76
76 204 76
76 204 76
76 204 76
76 204 76
76 204 76
76 204 76
76 204 76
76 204 76
76 204 76
76 204 76
76 204 76
76 204 76
76 204 76
76 204 76
76 204 76
76 204 76
76 204 76
76 204 76
76 204 76
76 204 76
76 204 76
76 204 76
76 204 76
76 204 76
76 204 76
76 204 76
76 204 76
76 204 76
76 204 76
76 204 76
76 204 76
76 204 76
76 204 76
76 204 76
76 204 76
76 204 76
76 204 76
76 204 76
76 204 76
76 204 76
76 204 76
76 204 76
76 204 76
76 204 76
76 204 76
76 204 76
76 204 76
76 204 76
76 204 76
76 204 76
76 204 76
76 204 76
76 204 76
76 204 76
76 204 76
76 204 76
76 204 76
76 204 76
76 204 76
76 204 76
76 204 76
76 204 76
76 204 76
76 204 76
76 204 76
76 204 76
76 204 76
76 204 76
76 204 76
76 204 76
76 204 76
76 204 76
76 204 76
76 204 76
76 204 76
76 204 76
76 204 76
76 204 76
76 204 76
76 204 76
76 204 76
76 204 76
76 204 76
76 204 76
76 204 76
76 204 76
76 204 76
76 204 76
76 204 76
76 204 76
76 204 76
76 204 76
76 204 76
76 204 76
76 204 76
76 204 76
76 204 76
76 204 76
76 204 76
76 204 76
76 204 76
76 204 76
76 204 76
76 204 76
76 204 76
76 204 76
76 204 76
76 204 76
76 204 76
76 204 76
76 204 76
76 204 76
76 204 76
76 204 76
76 204 76
76 204 76
76 204 76
76 204 76
76 204 76
76 204 76
76 204 76
76 204 76
76 204 76
76 204 76
76 204 76
76 204 76
76 204 76
76 204 76
76 204 76
76 204 76
76 204 76
76 204 76
76 204 76
76 204 76
76 204 76
76 204 76
76 204 76
76 204 76
76 204 76
76 204 76
76 204 76
76 204 76
76 204 76
76 204 76
76 204 76
76 204 76
76 204 76
76 204 76
76 204 76
76 204 76
76 204 76
76 204 76
76 204 76
76 204 76
76 204 76
76 204 76
76 204 76
76 204 76
76 204 76
76 204 76
76 204 76
76 204 76
76 204 76
76 204 76
76 204 76
76 204 76
76 204 76
76 204 76
76 204 76
76 204 76
76 204 76
76 204 76
76 204 76
76 204 76
76 204 76
76 204 76
76 204 76
76 204 76
76 204 76
76 204 76
76 204 76
76 204 76
76 204 76
76 204 76
76 204 76
76 204 76
76 204 76
76 204 76
76 204 76
76 204 76
76 204 76
76 204 76
76 204 76
76 204 76
76 204 76
76 204 76
76 204 76
76 204 76
76 204 76
76 204 76
76 204 76
76 204 76
76 204 76
76 204 76
76 204 76
76 204 76
76 204 76
76 204 76
76 204 76
76 204 76
76 204 76
76 204 76
76 204 76
76 204 76
76 204 76
76 204 76
76 204 76
76 204 76
76 204 76
76 204 76
76 204 76
76 204 76
76 204 76
76 204 76
76 204 76
76 204 76
76 204 76
76 204 76
76 204 76
76 204 76
76 204 76
76 204 76
76 204 76
76 204 76
76 204 76
76 204 76
76 204 76
76 204 76
76 204 76
76 204 76
76 204 76
76 204 76
76 204 76
76 204 76
76 204 76
76 204 76
76 204 76
76 204 76
76 204 76
76 204 76
76 204 76
76 204 76
76 204 76
76 204 76
76 204 76
76 204 76
76 204 76
76 204 76
76 204 76
76 204 76
76 204 76
76 204 76
76 204 76
76 204 76
76 204 76
76 204 76
76 204 76
76 204 76
76 204 76
76 204 76
76 204 76
76 204 76
76 204 76
76 204 76
76 204 76
76 204 76
76 204 76
76 204 76
76 204 76
76 204 76
76 204 76
76 204 76
76 204 76
76 204 76
76 204 76
76 204 76
76 204 76
76 204 76
76 204 76
76 204 76
76 204 76
76 204 76
76 204 76
76 204 76
76 204 76
76 204 76
76 204 76
76 204 76
76 204 76
76 204 76
76 204 76
76 204 76
76 204 76
76 204 76
76 204 76
76 204 76
76 204 76
76 204 76
76 204 76
76 204 76
76 204 76
76 204 76
76 204 76
76 204 76
76 204 76
76 204 76
76 204 76
76 204 76
76 204 76
76 204 76
76 204 76
76 204 76
76 204 76
76 204 76
76 204 76
76 204 76
76 204 76
76 204 76
76 204 76
76 204 76
76 204 76
76 204 76
76 204 76
76 204 76
76 204 76
76 204 76
76 204 76
76 204 76
76 204 76
76 204 76
76 204 76
76 204 76
76 204 76
76 204 76
76 204 76
76 204 76
76 204 76
76 204 76
76 204 76
76 204 76
76 204 76
76 204 76
76 204 76
76 204 76
76 204 76
76 204 76
76 204 76
76 204 76
76 204 76
76 204 76
76 204 76
76 204 76
76 204 76
76 204 76
76 204 76
76 204 76
76 204 76
76 204 76
76 204 76
76 204 76
76 204 76
76 204 76
76 204 76
76 204 76
76 204 76
76 204 76
76 204 76
76 204 76
76 204 76
76 204 76
76 204 76
76 204 76
76 204 76
76 204 76
76 204 76
76 204 76
76 204 76
76 204 76
76 204 76
76 204 76
76 204 76
76 204 76
76 204 76
76 204 76
76 204 76
76 204 76
76 204 76
76 204 76
76 204 76
76 204 76
76 204 76
76 204 76
76 204 76
76 204 76
76 204 76
76 204 76
76 204 76
76 204 76
76 204 76
76 204 76
76 204 76
76 204 76
76 204 76
76 204 76
76 204 76
76 204 76
76 204 76
76 204 76
76 204 76
76 204 76
76 204 76
76 204 76
76 204 76
76 204 76
76 204 76
76 204 76
76 204 76
76 204 76
76 204 76
76 204 76
76 204 76
76 204 76
76 204 76
76 204 76
76 204 76
76 204 76
76 204 76
76 204 76
76 204 76
76 204 76
76 204 76
76 204 76
76 204 76
76 204 76
76 204 76
76 204 76
76 204 76
76 204 76
76 204 76
76 204 76
76 204 76
76 204 76
76 204 76
76 204 76
76 204 76
76 204 76
76 204 76
76 204 76
76 204 76
76 204 76
76 204 76
76 204 76
76 204 76
76 204 76
76 204 76
76 204 76
76 204 76
76 204 76
76 204 76
76 204 76
76 204 76
76 204 76
76 204 76
76 204 76
76 204 76
76 204 76
76 204 76
76 204 76
76 204 76
76 204 76
76 204 76
76 204 76
76 204 76
76 204 76
76 204 76
76 204 76
76 204 76
76 204 76
76 204 76
76 204 76
76 204 76
76 204 76
76 204 76
76 204 76
76 204 76
76 204 76
76 204 76
76 204 76
76 204 76
76 204 76
76 204 76
76 204 76
76 204 76
76 204 76
76 204 76
76 204 76
76 204 76
76 204 76
76 204 76
76 204 76
76 204 76
76 204 76
76 204 76
76 204 76
76 204 76
76 204 76
76 204 76
76 204 76
76 204 76
76 204 76
76 204 76
76 204 76
76 204 76
76 204 76
76 204 76
76 204 76
76 204 76
76 204 76
76 204 76
76 204 76
76 204 76
76 204 76
76 204 76
76 204 76
76 204 76
76 204 76
76 204 76
76 204 76
76 204 76
76 204 76
76 204 76
76 204 76
76 204 76
76 204 76
76 204 76
76 204 76
76 204 76
76 204 76
76 204 76
76 204 76
76 204 76
76 204 76
76 204 76
76 204 76
76 204 76
76 204 76
76 204 76
76 204 76
76 204 76
76 204 76
76 204 76
76 204 76
76 204 76
76 204 76
76 204 76
76 204 76
76 204 76
76 204 76
76 204 76
76 204 76
76 204 76
76 204 76
76 204 76
76 204 76
76 204 76
76 204 76
76 204 76
76 204 76
76 204 76
76 204 76
76 204 76
76 204 76
76 204 76
76 204 76
76 204 76
76 204 76
76 204 76
76 204 76
76 204 76
76 204 76
76 204 76
76 204 76
76 204 76
76 204 76
76 204 76
76 204 76
76 204 76
76 204 76
76 204 76
76 204 76
76 204 76
76 204 76
76 204 76
76 204 76
76 204 76
76 204 76
76 204 76
76 204 76
76 204 76
76 204 76
76 204 76
76 204 76
76 204 76
76 204 76
76 204 76
76 204 76
76 204 76
76 204 76
76 204 76
76 204 76
76 204 76
76 204 76
76 204 76
76 204 76
76 204 76
76 204 76
76 204 76
76 204 76
76 204 76
76 204 76
76 204 76
76 204 76
76 204 76
76 204 76
76 204 76
76 204 76
76 204 76
76 204 76
76 204 76
76 204 76
76 204 76
76 204 76
76 204 76
76 204 76
76 204 76
76 204 76
76 204 76
76 204 76
76 204 76
76 204 76
76 204 76
76 204 76
76 204 76
76 204 76
76 204 76
76 204 76
76 204 76
76 204 76
76 204 76
76 204 76
76 204 76
76 204 76
76 204 76
76 204 76
76 204 76
76 204 76
76 204 76
76 204 76
76 204 76
76 204 76
76 204 76
76 204 76
76 204 76
76 204 76
76 204 76
76 204 76
76 204 76
76 204 76
76 204 76
76 204 76
76 204 76
76 204 76
76 204 76
76 204 76
76 204 76
76 204 76
76 204 76
76 204 76
76 204 76
76 204 76
76 204 76
76 204 76
76 204 76
76 204 76
76 204 76
76 204 76
76 204 76
76 204 76
76 204 76
76 204 76
76 204 76
76 204 76
76 204 76
76 204 76
76 204 76
76 204 76
76 204 76
76 204 76
76 204 76
76 204 76
76 204 76
76 204 76
76 204 76
76 204 76
76 204 76
76 204 76
76 204 76
76 204 76
76 204 76
76 204 76
76 204 76
76 204 76
76 204 76
76 204 76
76 204 76
76 204 76
76 204 76
76 204 76
76 204 76
76 204 76
76 204 76
76 204 76
76 204 76
76 204 76
76 204 76
76 204 76
76 204 76
76 204 76
76 204 76
76 204 76
76 204 76
76 204 76
76 204 76
76 204 76
76 204 76
76 204 76
76 204 76
76 204 76
76 204 76
76 204 76
76 204 76
76 204 76
76 204 76
76 204 76
76 204 76
76 204 76
76 204 76
76 204 76
76 204 76
76 204 76
76 204 76
76 204 76
76 204 76
76 204 76
76 204 76
76 204 76
76 204 76
76 204 76
76 204 76
76 204 76
76 204 76
76 204 76
76 204 76
76 204 76
76 204 76
76 204 76
76 204 76
76 204 76
76 204 76
76 204 76
76 204 76
76 204 76
76 204 76
76 204 76
76 204 76
76 204 76
76 204 76
76 204 76
76 204 76
76 204 76
76 204 76
76 204 76
76 204 76
76 204 76
76 204 76
76 204 76
76 204 76
76 204 76
76 204 76
76 204 76
76 204 76
76 204 76
76 204 76
76 204 76
76 204 76
76 204 76
76 204 76
76 204 76
76 204 76
76 204 76
76 204 76
76 204 76
76 204 76
76 204 76
76 204 76
76 204 76
76 204 76
76 204 76
76 204 76
76 204 76
76 204 76
76 204 76
76 204 76
76 204 76
76 204 76
76 204 76
76 204 76
76 204 76
76 204 76
76 204 76
76 204 76
76 204 76
76 204 76
76 204 76
76 204 76
76 204 76
76 204 76
76 204 76
76 204 76
76 204 76
76 204 76
76 204 76
76 204 76
76 204 76
76 204 76
76 204 76
76 204 76
76 204 76
76 204 76
76 204 76
76 204 76
76 204 76
76 204 76
76 204 76
76 204 76
76 204 76
76 204 76
76 204 76
76 204 76
76 204 76
76 204 76
76 204 76
76 204 76
76 204 76
76 204 76
76 204 76
76 204 76
76 204 76
76 204 76
76 204 76
76 204 76
76 204 76
76 204 76
76 204 76
76 204 76
76 204 76
76 204 76
76 204 76
76 204 76
76 204 76
76 204 76
76 204 76
76 204 76
76 204 76
76 204 76
76 204 76
76 204 76
76 204 76
76 204 76
76 204 76
76 204 76
76 204 76
76 204 76
76 204 76
76 204 76
76 204 76
76 204 76
76 204 76
76 204 76
76 204 76
76 204 76
76 204 76
76 204 76
76 204 76
76 204 76
76 204 76
76 204 76
76 204 76
76 204 76
76 204 76
76 204 76
76 204 76
76 204 76
76 204 76
76 204 76
76 204 76
76 204 76
76 204 76
76 204 76
76 204 76
76 204 76
76 204 76
76 204 76
76 204 76
76 204 76
76 204 76
76 204 76
76 204 76
76 204 76
76 204 76
76 204 76
76 204 76
76 204 76
76 204 76
76 204 76
76 204 76
76 204 76
76 204 76
76 204 76
76 204 76
76 204 76
76 204 76
76 204 76
76 204 76
76 204 76
76 204 76
76 204 76
76 204 76
76 204 76
76 204 76
76 204 76
76 204 76
76 204 76
76 204 76
76 204 76
76 204 76
76 204 76
76 204 76
76 204 76
76 204 76
76 204 76
76 204 76
76 204 76
76 204 76
76 204 76
76 204 76
76 204 76
76 204 76
76 204 76
76 204 76
76 204 76
76 204 76
76 204 76
76 204 76
76 204 76
76 204 76
76 204 76
76 204 76
76 204 76
76 204 76
76 204 76
76 204 76
76 204 76
76 204 76
76 204 76
76 204 76
76 204 76
76 204 76
76 204 76
76 204 76
76 204 76
76 204 76
76 204 76
76 204 76
76 204 76
76 204 76
76 204 76
76 204 76
76 204 76
76 204 76
76 204 76
76 204 76
76 204 76
76 204 76
76 204 76
76 204 76
76 204 76
76 204 76
76 204 76
76 204 76
76 204 76
76 204 76
76 204 76
76 204 76
76 204 76
76 204 76
76 204 76
76 204 76
76 204 76
76 204 76
76 204 76
76 204 76
76 204 76
76 204 76
76 204 76
76 204 76
76 204 76
76 204 76
76 204 76
76 204 76
76 204 76
76 204 76
76 204 76
76 204 76
76 204 76
76 204 76
76 204 76
76 204 76
76 204 76
76 204 76
76 204 76
76 204 76
76 204 76
76 204 76
76 204 76
76 204 76
76 204 76
76 204 76
76 204 76
76 204 76
76 204 76
76 204 76
76 204 76
76 204 76
76 204 76
76 204 76
76 204 76
76 204 76
76 204 76
76 204 76
76 204 76
76 204 76
76 204 76
76 204 76
76 204 76
76 204 76
76 204 76
76 204 76
76 204 76
76 204 76
76 204 76
76 204 76
76 204 76
76 204 76
76 204 76
76 204 76
76 204 76
76 204 76
76 204 76
76 204 76
76 204 76
76 204 76
76 204 76
76 204 76
76 204 76
76 204 76
76 204 76
76 204 76
76 204 76
76 204 76
76 204 76
76 204 76
76 204 76
76 204 76
76 204 76
76 204 76
76 204 76
76 204 76
76 204 76
76 204 76
76 204 76
76 204 76
76 204 76
76 204 76
76 204 76
76 204 76
76 204 76
76 204 76
76 204 76
76 204 76
76 204 76
76 204 76
76 204 76
76 204 76
76 204 76
76 204 76
76 204 76
76 204 76
76 204 76
76 204 76
76 204 76
76 204 76
76 204 76
76 204 76
76 204 76
76 204 76
76 204 76
76 204 76
76 204 76
76 204 76
76 204 76
76 204 76
76 204 76
76 204 76
76 204 76
76 204 76
76 204 76
76 204 76
76 204 76
76 204 76
76 204 76
76 204 76
76 204 76
76 204 76
76 204 76
76 204 76
76 204 76
76 204 76
76 204 76
76 204 76
76 204 76
76 204 76
76 204 76
76 204 76
76 204 76
76 204 76
76 204 76
76 204 76
76 204 76
76 204 76
76 204 76
76 204 76
76 204 76
76 204 76
76 204 76
76 204 76
76 204 76
76 204 76
76 204 76
76 204 76
76 204 76
76 204 76
76 204 76
76 204 76
76 204 76
76 204 76
76 204 76
76 204 76
76 204 76
76 204 76
76 204 76
76 204 76
76 204 76
76 204 76
76 204 76
76 204 76
76 204 76
76 204 76
76 204 76
76 204 76
76 204 76
76 204 76
76 204 76
76 204 76
76 204 76
76 204 76
76 204 76
76 204 76
76 204 76
76 204 76
76 204 76
76 204 76
76 204 76
76 204 76
76 204 76
76 204 76
76 204 76
76 204 76
76 204 76
76 204 76
76 204 76
76 204 76
76 204 76
76 204 76
76 204 76
76 204 76
76 204 76
76 204 76
76 204 76
76 204 76
76 204 76
76 204 76
76 204 76
76 204 76
76 204 76
76 204 76
76 204 76
76 204 76
76 204 76
76 204 76
76 204 76
76 204 76
76 204 76
76 204 76
76 204 76
76 204 76
76 204 76
76 204 76
76 204 76
76 204 76
76 204 76
76 204 76
76 204 76
76 204 76
76 204 76
76 204 76
76 204 76
76 204 76
76 204 76
76 204 76
76 204 76
76 204 76
76 204 76
76 204 76
76 204 76
76 204 76
76 204 76
76 204 76
76 204 76
76 204 76
76 204 76
76 204 76
76 204 76
76 204 76
76 204 76
76 204 76
76 204 76
76 204 76
76 204 76
76 204 76
76 204 76
76 204 76
76 204 76
76 204 76
76 204 76
76 204 76
76 204 76
76 204 76
76 204 76
76 204 76
76 204 76
76 204 76
76 204 76
76 204 76
76 204 76
76 204 76
76 204 76
76 204 76
76 204 76
76 204 76
76 204 76
76 204 76
76 204 76
76 204 76
76 204 76
76 204 76
76 204 76
76 204 76
76 204 76
76 204 76
76 204 76
76 204 76
76 204 76
76 204 76
76 204 76
76 204 76
76 204 76
76 204 76
76 204 76
76 204 76
76 204 76
76 204 76
76 204 76
76 204 76
76 204 76
76 204 76
76 204 76
76 204 76
76 204 76
76 204 76
76 204 76
76 204 76
76 204 76
76 204 76
76 204 76
76 204 76
76 204 76
76 204 76
76 204 76
76 204 76
76 204 76
76 204 76
76 204 76
76 204 76
76 204 76
76 204 76
76 204 76
76 204 76
76 204 76
76 204 76
76 204 76
76 204 76
76 204 76
76 204 76
76 204 76
76 204 76
76 204 76
76 204 76
76 204 76
76 204 76
76 204 76
76 204 76
76 204 76
76 204 76
76 204 76
76 204 76
76 204 76
76 204 76
76 204 76
76 204 76
76 204 76
76 204 76
76 204 76
76 204 76
76 204 76
76 204 76
76 204 76
76 204 76
76 204 76
76 204 76
76 204 76
76 204 76
76 204 76
76 204 76
76 204 76
76 204 76
76 204 76
76 204 76
76 204 76
76 204 76
76 204 76
76 204 76
76 204 76
76 204 76
76 204 76
76 204 76
76 204 76
76 204 76
76 204 76
76 204 76
76 204 76
76 204 76
76 204 76
76 204 76
76 204 76
76 204 76
76 204 76
76 204 76
76 204 76
76 204 76
76 204 76
76 204 76
76 204 76
76 204 76
76 204 76
76 204 76
76 204 76
76 204 76
76 204 76
76 204 76
76 204 76
76 204 76
76 204 76
76 204 76
76 204 76
76 204 76
76 204 76
76 204 76
76 204 76
76 204 76
76 204 76
76 204 76
76 204 76
76 204 76
76 204 76
76 204 76
76 204 76
76 204 76
76 204 76
76 204 76
76 204 76
76 204 76
76 204 76
76 204 76
76 204 76
76 204 76
76 204 76
76 204 76
76 204 76
76 204 76
76 204 76
76 204 76
76 204 76
76 204 76
76 204 76
76 204 76
76 204 76
76 204 76
76 204 76
76 204 76
76 204 76
76 204 76
76 204 76
76 204 76
76 204 76
76 204 76
76 204 76
76 204 76
76 204 76
76 204 76
76 204 76
76 204 76
76 204 76
76 204 76
76 204 76
76 204 76
76 204 76
76 204 76
76 204 76
76 204 76
76 204 76
76 204 76
76 204 76
76 204 76
76 204 76
76 204 76
76 204 76
76 204 76
76 204 76
76 204 76
76 204 76
76 204 76
76 204 76
76 204 76
76 204 76
76 204 76
76 204 76
76 204 76
76 204 76
76 204 76
76 204 76
76 204 76
76 204 76
76 204 76
76 204 76
76 204 76
76 204 76
76 204 76
76 204 76
76 204 76
76 204 76
76 204 76
76 204 76
76 204 76
76 204 76
76 204 76
76 204 76
76 204 76
76 204 76
76 204 76
76 204 76
76 204 76
76 204 76
76 204 76
76 204 76
76 204 76
76 204 76
76 204 76
76 204 76
76 204 76
76 204 76
76 204 76
76 204 76
76 204 76
76 204 76
76 204 76
76 204 76
76 204 76
76 204 76
76 204 76
76 204 76
76 204 76
76 204 76
76 204 76
76 204 76
76 204 76
76 204 76
76 204 76
76 204 76
76 204 76
76 204 76
76 204 76
76 204 76
76 204 76
76 204 76
76 204 76
76 204 76
76 204 76
76 204 76
76 204 76
76 204 76
76 204 76
76 204 76
76 204 76
76 204 76
76 204 76
76 204 76
76 204 76
76 204 76
76 204 76
76 204 76
76 204 76
76 204 76
76 204 76
76 204 76
76 204 76
76 204 76
76 204 76
76 204 76
76 204 76
76 204 76
76 204 76
76 204 76
76 204 76
76 204 76
76 204 76
76 204 76
76 204 76
76 204 76
76 204 76
76 204 76
76 204 76
76 204 76
76 204 76
76 204 76
76 204 76
76 204 76
76 204 76
76 204 76
76 204 76
76 204 76
76 204 76
76 204 76
76 204 76
76 204 76
76 204 76
76 204 76
76 204 76
76 204 76
76 204 76
76 204 76
76 204 76
76 204 76
76 204 76
76 204 76
76 204 76
76 204 76
76 204 76
76 204 76
76 204 76
76 204 76
76 204 76
76 204 76
76 204 76
76 204 76
76 204 76
76 204 76
76 204 76
76 204 76
76 204 76
76 204 76
76 204 76
76 204 76
76 204 76
76 204 76
76 204 76
76 204 76
76 204 76
76 204 76
76 204 76
76 204 76
76 204 76
76 204 76
76 204 76
76 204 76
76 204 76
76 204 76
76 204 76
76 204 76
76 204 76
76 204 76
76 204 76
76 204 76
76 204 76
76 204 76
76 204 76
76 204 76
76 204 76
76 204 76
76 204 76
76 204 76
76 204 76
76 204 76
76 204 76
76 204 76
76 204 76
76 204 76
76 204 76
76 204 76
76 204 76
76 204 76
76 204 76
76 204 76
76 204 76
76 204 76
76 204 76
76 204 76
76 204 76
76 204 76
76 204 76
76 204 76
76 204 76
76 204 76
76 204 76
76 204 76
76 204 76
76 204 76
76 204 76
76 204 76
76 204 76
76 204 76
76 204 76
76 204 76
76 204 76
76 204 76
76 204 76
76 204 76
76 204 76
76 204 76
76 204 76
76 204 76
76 204 76
76 204 76
76 204 76
76 204 76
76 204 76
76 204 76
76 204 76
76 204 76
76 204 76
76 204 76
76 204 76
76 204 76
76 204 76
76 204 76
76 204 76
76 204 76
76 204 76
76 204 76
76 204 76
76 204 76
76 204 76
76 204 76
76 204 76
76 204 76
76 204 76
76 204 76
76 204 76
76 204 76
76 204 76
76 204 76
76 204 76
76 204 76
76 204 76
76 204 76
76 204 76
76 204 76
76 204 76
76 204 76
76 204 76
76 204 76
76 204 76
76 204 76
76 204 76
76 204 76
76 204 76
76 204 76
76 204 76
76 204 76
76 204 76
76 204 76
76 204 76
76 204 76
76 204 76
76 204 76
76 204 76
76 204 76
76 204 76
76 204 76
76 204 76
76 204 76
76 204 76
76 204 76
76 204 76
76 204 76
76 204 76
76 204 76
76 204 76
76 204 76
76 204 76
76 204 76
76 204 76
76 204 76
76 204 76
76 204 76
76 204 76
76 204 76
76 204 76
76 204 76
76 204 76
76 204 76
76 204 76
76 204 76
76 204 76
76 204 76
76 204 76
76 204 76
76 204 76
76 204 76
76 204 76
76 204 76
76 204 76
76 204 76
76 204 76
76 204 76
76 204 76
76 204 76
76 204 76
76 204 76
76 204 76
76 204 76
76 204 76
76 204 76
76 204 76
76 204 76
76 204 76
76 204 76
76 204 76
76 204 76
76 204 76
76 204 76
76 204 76
76 204 76
76 204 76
76 204 76
76 204 76
76 204 76
76 204 76
76 204 76
76 204 76
76 204 76
76 204 76
76 204 76
76 204 76
76 204 76
76 204 76
76 204 76
76 204 76
76 204 76
76 204 76
76 204 76
76 204 76
76 204 76
76 204 76
76 204 76
76 204 76
76 204 76
76 204 76
76 204 76
76 204 76
76 204 76
76 204 76
76 204 76
76 204 76
76 204 76
76 204 76
76 204 76
76 204 76
76 204 76
76 204 76
76 204 76
76 204 76
76 204 76
76 204 76
76 204 76
76 204 76
76 204 76
76 204 76
76 204 76
76 204 76
76 204 76
76 204 76
76 204 76
76 204 76
76 204 76
76 204 76
76 204 76
76 204 76
76 204 76
76 204 76
76 204 76
76 204 76
76 204 76
76 204 76
76 204 76
76 204 76
76 204 76
76 204 76
76 204 76
76 204 76
76 204 76
76 204 76
76 204 76
76 204 76
76 204 76
76 204 76
76 204 76
76 204 76
76 204 76
76 204 76
76 204 76
76 204 76
76 204 76
76 204 76
76 204 76
76 204 76
76 204 76
76 204 76
76 204 76
76 204 76
76 204 76
76 204 76
76 204 76
76 204 76
76 204 76
76 204 76
76 204 76
76 204 76
76 204 76
76 204 76
76 204 76
76 204 76
76 204 76
76 204 76
76 204 76
76 204 76
76 204 76
76 204 76
76 204 76
76 204 76
76 204 76
76 204 76
76 204 76
76 204 76
76 204 76
76 204 76
76 204 76
76 204 76
76 204 76
76 204 76
76 204 76
76 204 76
76 204 76
76 204 76
76 204 76
76 204 76
76 204 76
76 204 76
76 204 76
76 204 76
76 204 76
76 204 76
76 204 76
76 204 76
76 204 76
76 204 76
76 204 76
76 204 76
76 204 76
76 204 76
76 204 76
76 204 76
76 204 76
76 204 76
76 204 76
76 204 76
76 204 76
76 204 76
76 204 76
76 204 76
76 204 76
76 204 76
76 204 76
76 204 76
76 204 76
76 204 76
76 204 76
76 204 76
76 204 76
76 204 76
76 204 76
76 204 76
76 204 76
76 204 76
76 204 76
76 204 76
76 204 76
76 204 76
76 204 76
76 204 76
76 204 76
76 204 76
76 204 76
76 204 76
76 204 76
76 204 76
76 204 76
76 204 76
76 204 76
76 204 76
76 204 76
76 204 76
76 204 76
76 204 76
76 204 76
76 204 76
76 204 76
76 204 76
76 204 76
76 204 76
76 204 76
76 204 76
76 204 76
76 204 76
76 204 76
76 204 76
76 204 76
76 204 76
76 204 76
76 204 76
76 204 76
76 204 76
76 204 76
76 204 76
76 204 76
76 204 76
76 204 76
76 204 76
76 204 76
76 204 76
76 204 76
76 204 76
76 204 76
76 204 76
76 204 76
76 204 76
76 204 76
76 204 76
76 204 76
76 204 76
76 204 76
76 204 76
76 204 76
76 204 76
76 204 76
76 204 76
76 204 76
76 204 76
76 204 76
76 204 76
76 204 76
76 204 76
76 204 76
76 204 76
76 204 76
76 204 76
76 204 76
76 204 76
76 204 76
76 204 76
76 204 76
76 204 76
76 204 76
76 204 76
76 204 76
76 204 76
76 204 76
76 204 76
76 204 76
76 204 76
76 204 76
76 204 76
76 204 76
76 204 76
76 204 76
76 204 76
76 204 76
76 204 76
76 204 76
76 204 76
76 204 76
76 204 76
76 204 76
76 204 76
76 204 76
76 204 76
76 204 76
76 204 76
76 204 76
76 204 76
76 204 76
76 204 76
76 204 76
76 204 76
76 204 76
76 204 76
76 204 76
76 204 76
76 204 76
76 204 76
76 204 76
76 204 76
76 204 76
76 204 76
76 204 76
76 204 76
76 204 76
76 204 76
76 204 76
76 204 76
76 204 76
76 204 76
76 204 76
76 204 76
76 204 76
76 204 76
76 204 76
76 204 76
76 204 76
76 204 76
76 204 76
76 204 76
76 204 76
76 204 76
76 204 76
76 204 76
76 204 76
76 204 76
76 204 76
76 204 76
76 204 76
76 204 76
76 204 76
76 204 76
76 204 76
76 204 76
76 204 76
76 204 76
76 204 76
76 204 76
76 204 76
76 204 76
76 204 76
76 204 76
76 204 76
76 204 76
76 204 76
76 204 76
76 204 76
76 204 76
76 204 76
76 204 76
76 204 76
76 204 76
76 204 76
76 204 76
76 204 76
76 204 76
76 204 76
76 204 76
76 204 76
76 204 76
76 204 76
76 204 76
76 204 76
76 204 76
76 204 76
76 204 76
76 204 76
76 204 76
76 204 76
76 204 76
76 204 76
76 204 76
76 204 76
76 204 76
76 204 76
76 204 76
76 204 76
76 204 76
76 204 76
76 204 76
76 204 76
76 204 76
76 204 76
76 204 76
76 204 76
76 204 76
76 204 76
76 204 76
76 204 76
76 204 76
76 204 76
76 204 76
76 204 76
76 204 76
76 204 76
76 204 76
76 204 76
76 204 76
76 204 76
76 204 76
76 204 76
76 204 76
76 204 76
76 204 76
76 204 76
76 204 76
76 204 76
76 204 76
76 204 76
76 204 76
76 204 76
76 204 76
76 204 76
76 204 76
76 204 76
76 204 76
76 204 76
76 204 76
76 204 76
76 204 76
76 204 76
76 204 76
76 204 76
76 204 76
76 204 76
76 204 76
76 204 76
76 204 76
76 204 76
76 204 76
76 204 76
76 204 76
76 204 76
76 204 76
76 204 76
76 204 76
76 204 76
76 204 76
76 204 76
76 204 76
76 204 76
76 204 76
76 204 76
76 204 76
76 204 76
76 204 76
76 204 76
76 204 76
76 204 76
76 204 76
76 204 76
76 204 76
76 204 76
76 204 76
76 204 76
76 204 76
76 204 76
76 204 76
76 204 76
76 204 76
76 204 76
76 204 76
76 204 76
76 204 76
76 204 76
76 204 76
76 204 76
76 204 76
76 204 76
76 204 76
76 204 76
76 204 76
76 204 76
76 204 76
76 204 76
76 204 76
76 204 76
76 204 76
76 204 76
76 204 76
76 204 76
76 204 76
76 204 76
76 204 76
76 204 76
76 204 76
76 204 76
76 204 76
76 204 76
76 204 76
76 204 76
76 204 76
76 204 76
76 204 76
76 204 76
76 204 76
76 204 76
76 204 76
76 204 76
76 204 76
76 204 76
76 204 76
76 204 76
76 204 76
76 204 76
76 204 76
76 204 76
76 204 76
76 204 76
76 204 76
76 204 76
76 204 76
76 204 76
76 204 76
76 204 76
76 204 76
76 204 76
76 204 76
76 204 76
76 204 76
76 204 76
76 204 76
76 204 76
76 204 76
76 204 76
76 204 76
76 204 76
76 204 76
76 204 76
76 204 76
76 204 76
76 204 76
76 204 76
76 204 76
76 204 76
76 204 76
76 204 76
76 204 76
76 204 76
76 204 76
76 204 76
76 204 76
76 204 76
76 204 76
76 204 76
76 204 76
76 204 76
76 204 76
76 204 76
76 204 76
76 204 76
76 204 76
76 204 76
76 204 76
76 204 76
76 204 76
76 204 76
76 204 76
76 204 76
76 204 76
76 204 76
76 204 76
76 204 76
76 204 76
76 204 76
76 204 76
76 204 76
76 204 76
76 204 76
76 204 76
76 204 76
76 204 76
76 204 76
76 204 76
76 204 76
76 204 76
76 204 76
76 204 76
76 204 76
76 204 76
76 204 76
76 204 76
76 204 76
76 204 76
76 204 76
76 204 76
76 204 76
76 204 76
76 204 76
76 204 76
76 204 76
76 204 76
76 204 76
76 204 76
76 204 76
76 204 76
76 204 76
76 204 76
76 204 76
76 204 76
76 204 76
76 204 76
76 204 76
76 204 76
76 204 76
76 204 76
76 204 76
76 204 76
76 204 76
76 204 76
76 204 76
76 204 76
76 204 76
76 204 76
76 204 76
76 204 76
76 204 76
76 204 76
76 204 76
76 204 76
76 204 76
76 204 76
76 204 76
76 204 76
76 204 76
76 204 76
76 204 76
76 204 76
76 204 76
76 204 76
76 204 76
76 204 76
76 204 76
76 204 76
76 204 76
76 204 76
76 204 76
76 204 76
76 204 76
76 204 76
76 204 76
76 204 76
76 204 76
76 204 76
76 204 76
76 204 76
76 204 76
76 204 76
76 204 76
76 204 76
76 204 76
76 204 76
76 204 76
76 204 76
76 204 76
76 204 76
76 204 76
76 204 76
76 204 76
76 204 76
76 204 76
76 204 76
76 204 76
76 204 76
76 204 76
76 204 76
76 204 76
76 204 76
76 204 76
76 204 76
76 204 76
76 204 76
76 204 76
76 204 76
76 204 76
76 204 76
76 204 76
76 204 76
76 204 76
76 204 76
76 204 76
76 204 76
76 204 76
76 204 76
76 204 76
76 204 76
76 204 76
76 204 76
76 204 76
76 204 76
76 204 76
76 204 76
76 204 76
76 204 76
76 204 76
76 204 76
76 204 76
76 204 76
76 204 76
76 204 76
76 204 76
76 204 76
76 204 76
76 204 76
76 204 76
76 204 76
76 204 76
76 204 76
76 204 76
76 204 76
76 204 76
76 204 76
76 204 76
76 204 76
76 204 76
76 204 76
76 204 76
76 204 76
76 204 76
76 204 76
76 204 76
76 204 76
76 204 76
76 204 76
76 204 76
76 204 76
76 204 76
76 204 76
76 204 76
76 204 76
76 204 76
76 204 76
76 204 76
76 204 76
76 204 76
76 204 76
76 204 76
76 204 76
76 204 76
76 204 76
76 204 76
76 204 76
76 204 76
76 204 76
76 204 76
76 204 76
76 204 76
76 204 76
76 204 76
76 204 76
76 204 76
76 204 76
76 204 76
76 204 76
76 204 76
76 204 76
76 204 76
76 204 76
76 204 76
76 204 76
76 204 76
76 204 76
76 204 76
76 204 76
76 204 76
76 204 76
76 204 76
76 204 76
76 204 76
76 204 76
76 204 76
76 204 76
76 204 76
76 204 76
76 204 76
76 204 76
76 204 76
76 204 76
76 204 76
76 204 76
76 204 76
76 204 76
76 204 76
76 204 76
76 204 76
76 204 76
76 204 76
76 204 76
76 204 76
76 204 76
76 204 76
76 204 76
76 204 76
76 204 76
76 204 76
76 204 76
76 204 76
76 204 76
76 204 76
76 204 76
76 204 76
76 204 76
76 204 76
76 204 76
76 204 76
76 204 76
76 204 76
76 204 76
76 204 76
76 204 76
76 204 76
76 204 76
76 204 76
76 204 76
76 204 76
76 204 76
76 204 76
76 204 76
76 204 76
76 204 76
76 204 76
76 204 76
76 204 76
76 204 76
76 204 76
76 204 76
76 204 76
76 204 76
76 204 76
76 204 76
76 204 76
76 204 76
76 204 76
76 204 76
76 204 76
76 204 76
76 204 76
76 204 76
76 204 76
76 204 76
76 204 76
76 204 76
76 204 76
76 204 76
76 204 76
76 204 76
76 204 76
76 204 76
76 204 76
76 204 76
76 204 76
76 204 76
76 204 76
76 204 76
76 204 76
76 204 76
76 204 76
76 204 76
76 204 76
76 204 76
76 204 76
76 204 76
76 204 76
76 204 76
76 204 76
76 204 76
76 204 76
76 204 76
76 204 76
76 204 76
76 204 76
76 204 76
76 204 76
76 204 76
76 204 76
76 204 76
76 204 76
76 204 76
76 204 76
76 204 76
76 204 76
76 204 76
76 204 76
76 204 76
76 204 76
76 204 76
76 204 76
76 204 76
76 204 76
76 204 76
76 204 76
76 204 76
76 204 76
76 204 76
76 204 76
76 204 76
76 204 76
76 204 76
76 204 76
76 204 76
76 204 76
76 204 76
76 204 76
76 204 76
76 204 76
76 204 76
76 204 76
76 204 76
76 204 76
76 204 76
76 204 76
76 204 76
76 204 76
76 204 76
76 204 76
76 204 76
76 204 76
76 204 76
76 204 76
76 204 76
76 204 76
76 204 76
76 204 76
76 204 76
76 204 76
76 204 76
76 204 76
76 204 76
76 204 76
76 204 76
76 204 76
76 204 76
76 204 76
76 204 76
76 204 76
76 204 76
76 204 76
76 204 76
76 204 76
76 204 76
76 204 76
76 204 76
76 204 76
76 204 76
76 204 76
76 204 76
76 204 76
76 204 76
76 204 76
76 204 76
76 204 76
76 204 76
76 204 76
76 204 76
76 204 76
76 204 76
76 204 76
76 204 76
76 204 76
76 204 76
76 204 76
76 204 76
76 204 76
76 204 76
76 204 76
76 204 76
76 204 76
76 204 76
76 204 76
76 204 76
76 204 76
76 204 76
76 204 76
76 204 76
76 204 76
76 204 76
76 204 76
76 204 76
76 204 76
76 204 76
76 204 76
76 204 76
76 204 76
76 204 76
76 204 76
76 204 76
76 204 76
76 204 76
76 204 76
76 204 76
76 204 76
76 204 76
76 204 76
76 204 76
76 204 76
76 204 76
76 204 76
76 204 76
76 204 76
76 204 76
76 204 76
76 204 76
76 204 76
76 204 76
76 204 76
76 204 76
76 204 76
76 204 76
76 204 76
76 204 76
76 204 76
76 204 76
76 204 76
76 204 76
76 204 76
76 204 76
76 204 76
76 204 76
76 204 76
76 204 76
76 204 76
76 204 76
76 204 76
76 204 76
76 204 76
76 204 76
76 204 76
76 204 76
76 204 76
76 204 76
76 204 76
76 204 76
76 204 76
76 204 76
76 204 76
76 204 76
76 204 76
76 204 76
76 204 76
76 204 76
76 204 76
76 204 76
76 204 76
76 204 76
76 204 76
76 204 76
76 204 76
76 204 76
76 204 76
76 204 76
76 204 76
76 204 76
76 204 76
76 204 76
76 204 76
76 204 76
76 204 76
76 204 76
76 204 76
76 204 76
76 204 76
76 204 76
76 204 76
76 204 76
76 204 76
76 204 76
76 204 76
76 204 76
76 204 76
76 204 76
76 204 76
76 204 76
76 204 76
76 204 76
76 204 76
76 204 76
76 204 76
76 204 76
76 204 76
76 204 76
76 204 76
76 204 76
76 204 76
76 204 76
76 204 76
76 204 76
76 204 76
76 204 76
76 204 76
76 204 76
76 204 76
76 204 76
76 204 76
76 204 76
76 204 76
76 204 76
76 204 76
76 204 76
76 204 76
76 204 76
76 204 76
76 204 76
76 204 76
76 204 76
76 204 76
76 204 76
76 204 76
76 204 76
76 204 76
76 204 76
76 204 76
76 204 76
76 204 76
76 204 76
76 204 76
76 204 76
76 204 76
76 204 76
76 204 76
76 204 76
76 204 76
76 204 76
76 204 76
76 204 76
76 204 76
76 204 76
76 204 76
76 204 76
76 204 76
76 204 76
76 204 76
76 204 76
76 204 76
76 204 76
76 204 76
76 204 76
76 204 76
76 204 76
76 204 76
76 204 76
76 204 76
76 204 76
76 204 76
76 204 76
76 204 76
76 204 76
76 204 76
76 204 76
76 204 76
76 204 76
76 204 76
76 204 76
76 204 76
76 204 76
76 204 76
76 204 76
76 204 76
76 204 76
76 204 76
76 204 76
76 204 76
76 204 76
76 204 76
76 204 76
76 204 76
76 204 76
76 204 76
76 204 76
76 204 76
76 204 76
76 204 76
76 204 76
76 204 76
76 204 76
76 204 76
76 204 76
76 204 76
76 204 76
76 204 76
76 204 76
76 204 76
76 204 76
76 204 76
76 204 76
76 204 76
76 204 76
76 204 76
76 204 76
76 204 76
76 204 76
76 204 76
76 204 76
76 204 76
76 204 76
76 204 76
76 204 76
76 204 76
76 204 76
76 204 76
76 204 76
76 204 76
76 204 76
76 204 76
76 204 76
76 204 76
76 204 76
76 204 76
76 204 76
76 204 76
76 204 76
76 204 76
76 204 76
76 204 76
76 204 76
76 204 76
76 204 76
76 204 76
76 204 76
76 204 76
76 204 76
76 204 76
76 204 76
76 204 76
76 204 76
76 204 76
76 204 76
76 204 76
76 204 76
76 204 76
76 204 76
76 204 76
76 204 76
76 204 76
76 204 76
76 204 76
76 204 76
76 204 76
76 204 76
76 204 76
76 204 76
76 204 76
76 204 76
76 204 76
76 204 76
76 204 76
76 204 76
76 204 76
76 204 76
76 204 76
76 204 76
76 204 76
76 204 76
76 204 76
76 204 76
76 204 76
76 204 76
76 204 76
76 204 76
76 204 76
76 204 76
76 204 76
76 204 76
76 204 76
76 204 76
76 204 76
76 204 76
76 204 76
76 204 76
76 204 76
76 204 76
76 204 76
76 204 76
76 204 76
76 204 76
76 204 76
76 204 76
76 204 76
76 204 76
76 204 76
76 204 76
76 204 76
76 204 76
76 204 76
76 204 76
76 204 76
76 204 76
76 204 76
76 204 76
76 204 76
76 204 76
76 204 76
76 204 76
76 204 76
76 204 76
76 204 76
76 204 76
76 204 76
76 204 76
76 204 76
76 204 76
76 204 76
76 204 76
76 204 76
76 204 76
76 204 76
76 204 76
76 204 76
76 204 76
76 204 76
76 204 76
76 204 76
76 204 76
76 204 76
76 204 76
76 204 76
76 204 76
76 204 76
76 204 76
76 204 76
76 204 76
76 204 76
76 204 76
76 204 76
76 204 76
76 204 76
76 204 76
76 204 76
76 204 76
76 204 76
76 204 76
76 204 76
76 204 76
76 204 76
76 204 76
76 204 76
76 204 76
76 204 76
76 204 76
76 204 76
76 204 76
76 204 76
76 204 76
76 204 76
76 204 76
76 204 76
76 204 76
76 204 76
76 204 76
76 204 76
76 204 76
76 204 76
76 204 76
76 204 76
76 204 76
76 204 76
76 204 76
76 204 76
76 204 76
76 204 76
76 204 76
76 204 76
76 204 76
76 204 76
76 204 76
76 204 76
76 204 76
76 204 76
76 204 76
76 204 76
76 204 76
76 204 76
76 204 76
76 204 76
76 204 76
76 204 76
76 204 76
76 204 76
76 204 76
76 204 76
76 204 76
76 204 76
76 204 76
76 204 76
76 204 76
76 204 76
76 204 76
76 204 76
76 204 76
76 204 76
76 204 76
76 204 76
76 204 76
76 204 76
76 204 76
76 204 76
76 204 76
76 204 76
76 204 76
76 204 76
76 204 76
76 204 76
76 204 76
76 204 76
76 204 76
76 204 76
76 204 76
76 204 76
76 204 76
76 204 76
76 204 76
76 204 76
76 204 76
76 204 76
76 204 76
76 204 76
76 204 76
76 204 76
76 204 76
76 204 76
76 204 76
76 204 76
76 204 76
76 204 76
76 204 76
76 204 76
76 204 76
76 204 76
76 204 76
76 204 76
76 204 76
76 204 76
76 204 76
76 204 76
76 204 76
76 204 76
76 204 76
76 204 76
76 204 76
76 204 76
76 204 76
76 204 76
76 204 76
76 204 76
76 204 76
76 204 76
76 204 76
76 204 76
76 204 76
76 204 76
76 204 76
76 204 76
76 204 76
76 204 76
76 204 76
76 204 76
76 204 76
76 204 76
76 204 76
76 204 76
76 204 76
76 204 76
76 204 76
76 204 76
76 204 76
76 204 76
76 204 76
76 204 76
76 204 76
76 204 76
76 204 76
76 204 76
76 204 76
76 204 76
76 204 76
76 204 76
76 204 76
76 204 76
76 204 76
76 204 76
76 204 76
76 204 76
76 204 76
76 204 76
76 204 76
76 204 76
76 204 76
76 204 76
76 204 76
76 204 76
76 204 76
76 204 76
76 204 76
76 204 76
76 204 76
76 204 76
76 204 76
76 204 76
76 204 76
76 204 76
76 204 76
76 204 76
76 204 76
76 204 76
76 204 76
76 204 76
76 204 76
76 204 76
76 204 76
76 204 76
76 204 76
76 204 76
76 204 76
76 204 76
76 204 76
76 204 76
76 204 76
76 204 76
76 204 76
76 204 76
76 204 76
76 204 76
76 204 76
76 204 76
76 204 76
76 204 76
76 204 76
76 204 76
76 204 76
76 204 76
76 204 76
76 204 76
76 204 76
76 204 76
76 204 76
76 204 76
76 204 76
76 204 76
76 204 76
76 204 76
76 204 76
76 204 76
76 204 76
76 204 76
76 204 76
76 204 76
76 204 76
76 204 76
76 204 76
76 204 76
76 204 76
76 204 76
76 204 76
76 204 76
76 204 76
76 204 76
76 204 76
76 204 76
76 204 76
76 204 76
76 204 76
76 204 76
76 204 76
76 204 76
76 204 76
76 204 76
76 204 76
76 204 76
76 204 76
76 204 76
76 204 76
76 204 76
76 204 76
76 204 76
76 204 76
76 204 76
76 204 76
76 204 76
76 204 76
76 204 76
76 204 76
76 204 76
76 204 76
76 204 76
76 204 76
76 204 76
76 204 76
76 204 76
76 204 76
76 204 76
76 204 76
76 204 76
76 204 76
76 204 76
76 204 76
76 204 76
76 204 76
76 204 76
76 204 76
76 204 76
76 204 76
76 204 76
76 204 76
76 204 76
76 204 76
76 204 76
76 204 76
76 204 76
76 204 76
76 204 76
76 204 76
76 204 76
76 204 76
76 204 76
76 204 76
76 204 76
76 204 76
76 204 76
76 204 76
76 204 76
76 204 76
76 204 76
76 204 76
76 204 76
76 204 76
76 204 76
76 204 76
76 204 76
76 204 76
76 204 76
76 204 76
76 204 76
76 204 76
76 204 76
76 204 76
76 204 76
76 204 76
76 204 76
76 204 76
76 204 76
76 204 76
76 204 76
76 204 76
76 204 76
76 204 76
76 204 76
76 204 76
76 204 76
76 204 76
76 204 76
76 204 76
76 204 76
76 204 76
76 204 76
76 204 76
76 204 76
76 204 76
76 204 76
76 204 76
76 204 76
76 204 76
76 204 76
76 204 76
76 204 76
76 204 76
76 204 76
76 204 76
76 204 76
76 204 76
76 204 76
76 204 76
76 204 76
76 204 76
76 204 76
76 204 76
76 204 76
76 204 76
76 204 76
76 204 76
76 204 76
76 204 76
76 204 76
76 204 76
76 204 76
76 204 76
76 204 76
76 204 76
76 204 76
76 204 76
76 204 76
76 204 76
76 204 76
76 204 76
76 204 76
76 204 76
76 204 76
76 204 76
76 204 76
76 204 76
76 204 76
76 204 76
76 204 76
76 204 76
76 204 76
76 204 76
76 204 76
76 204 76
76 204 76
76 204 76
76 204 76
76 204 76
76 204 76
76 204 76
76 204 76
76 204 76
76 204 76
76 204 76
76 204 76
76 204 76
76 204 76
76 204 76
76 204 76
76 204 76
76 204 76
76 204 76
76 204 76
76 204 76
76 204 76
76 204 76
76 204 76
76 204 76
76 204 76
76 204 76
76 204 76
76 204 76
76 204 76
76 204 76
76 204 76
76 204 76
76 204 76
76 204 76
76 204 76
76 204 76
76 204 76
76 204 76
76 204 76
76 204 76
76 204 76
76 204 76
76 204 76
76 204 76
76 204 76
76 204 76
76 204 76
76 204 76
76 204 76
76 204 76
76 204 76
76 204 76
76 204 76
76 204 76
76 204 76
76 204 76
76 204 76
76 204 76
76 204 76
76 204 76
76 204 76
76 204 76
76 204 76
76 204 76
76 204 76
76 204 76
76 204 76
76 204 76
76 204 76
76 204 76
76 204 76
76 204 76
76 204 76
76 204 76
76 204 76
76 204 76
76 204 76
76 204 76
76 204 76
76 204 76
76 204 76
76 204 76
76 204 76
76 204 76
76 204 76
76 204 76
76 204 76
76 204 76
76 204 76
76 204 76
76 204 76
76 204 76
76 204 76
76 204 76
76 204 76
76 204 76
76 204 76
76 204 76
76 204 76
76 204 76
76 204 76
76 204 76
76 204 76
76 204 76
76 204 76
76 204 76
76 204 76
76 204 76
76 204 76
76 204 76
76 204 76
76 204 76
76 204 76
76 204 76
76 204 76
76 204 76
76 204 76
76 204 76
76 204 76
76 204 76
76 204 76
76 204 76
76 204 76
76 204 76
76 204 76
76 204 76
76 204 76
76 204 76
76 204 76
76 204 76
76 204 76
76 204 76
76 204 76
76 204 76
76 204 76
76 204 76
76 204 76
76 204 76
76 204 76
76 204 76
76 204 76
76 204 76
76 204 76
76 204 76
76 204 76
76 204 76
76 204 76
76 204 76
76 204 76
76 204 76
76 204 76
76 204 76
76 204 76
76 204 76
76 204 76
76 204 76
76 204 76
76 204 76
76 204 76
76 204 76
76 204 76
76 204 76
76 204 76
76 204 76
76 204 76
76 204 76
76 204 76
76 204 76
76 204 76
76 204 76
76 204 76
76 204 76
76 204 76
76 204 76
76 204 76
76 204 76
76 204 76
76 204 76
76 204 76
76 204 76
76 204 76
76 204 76
76 204 76
76 204 76
76 204 76
76 204 76
76 204 76
76 204 76
76 204 76
76 204 76
76 204 76
76 204 76
76 204 76
76 204 76
76 204 76
76 204 76
76 204 76
76 204 76
76 204 76
76 204 76
76 204 76
76 204 76
76 204 76
76 204 76
76 204 76
76 204 76
76 204 76
76 204 76
76 204 76
76 204 76
76 204 76
76 204 76
76 204 76
76 204 76
76 204 76
76 204 76
76 204 76
76 204 76
76 204 76
76 204 76
76 204 76
76 204 76
76 204 76
76 204 76
76 204 76
76 204 76
76 204 76
76 204 76
76 204 76
76 204 76
76 204 76
76 204 76
76 204 76
76 204 76
76 204 76
76 204 76
76 204 76
76 204 76
76 204 76
76 204 76
76 204 76
76 204 76
76 204 76
76 204 76
76 204 76
76 204 76
76 204 76
76 204 76
76 204 76
76 204 76
76 204 76
76 204 76
76 204 76
76 204 76
76 204 76
76 204 76
76 204 76
76 204 76
76 204 76
76 204 76
76 204 76
76 204 76
76 204 76
76 204 76
76 204 76
76 204 76
76 204 76
76 204 76
76 204 76
76 204 76
76 204 76
76 204 76
76 204 76
76 204 76
76 204 76
76 204 76
76 204 76
76 204 76
76 204 76
76 204 76
76 204 76
76 204 76
76 204 76
76 204 76
76 204 76
76 204 76
76 204 76
76 204 76
76 204 76
76 204 76
76 204 76
76 204 76
76 204 76
76 204 76
76 204 76
76 204 76
76 204 76
76 204 76
76 204 76
76 204 76
76 204 76
76 204 76
76 204 76
76 204 76
76 204 76
76 204 76
76 204 76
76 204 76
76 204 76
76 204 76
76 204 76
76 204 76
76 204 76
76 204 76
76 204 76
76 204 76
76 204 76
76 204 76
76 204 76
76 204 76
76 204 76
76 204 76
76 204 76
76 204 76
76 204 76
76 204 76
76 204 76
76 204 76
76 204 76
76 204 76
76 204 76
76 204 76
76 204 76
76 204 76
76 204 76
76 204 76
76 204 76
76 204 76
76 204 76
76 204 76
76 204 76
76 204 76
76 204 76
76 204 76
76 204 76
76 204 76
76 204 76
76 204 76
76 204 76
76 204 76
76 204 76
76 204 76
76 204 76
76 204 76
76 204 76
76 204 76
76 204 76
76 204 76
76 204 76
76 204 76
76 204 76
76 204 76
76 204 76
76 204 76
76 204 76
76 204 76
76 204 76
76 204 76
76 204 76
76 204 76
76 204 76
76 204 76
76 204 76
76 204 76
76 204 76
76 204 76
76 204 76
76 204 76
76 204 76
76 204 76
76 204 76
76 204 76
76 204 76
76 204 76
76 204 76
76 204 76
76 204 76
76 204 76
76 204 76
76 204 76
76 204 76
76 204 76
76 204 76
76 204 76
76 204 76
76 204 76
76 204 76
76 204 76
76 204 76
76 204 76
76 204 76
76 204 76
76 204 76
76 204 76
76 204 76
76 204 76
76 204 76
76 204 76
76 204 76
76 204 76
76 204 76
76 204 76
76 204 76
76 204 76
76 204 76
76 204 76
76 204 76
76 204 76
76 204 76
76 204 76
76 204 76
76 204 76
76 204 76
76 204 76
76 204 76
76 204 76
76 204 76
76 204 76
76 204 76
76 204 76
76 204 76
76 204 76
76 204 76
76 204 76
76 204 76
76 204 76
76 204 76
76 204 76
76 204 76
76 204 76
76 204 76
76 204 76
76 204 76
76 204 76
76 204 76
76 204 76
76 204 76
76 204 76
76 204 76
76 204 76
76 204 76
76 204 76
76 204 76
76 204 76
76 204 76
76 204 76
76 204 76
76 204 76
76 204 76
76 204 76
76 204 76
76 204 76
76 204 76
76 204 76
76 204 76
76 204 76
76 204 76
76 204 76
76 204 76
76 204 76
76 204 76
76 204 76
76 204 76
76 204 76
76 204 76
76 204 76
76 204 76
76 204 76
76 204 76
76 204 76
76 204 76
76 204 76
76 204 76
76 204 76
76 204 76
76 204 76
76 204 76
76 204 76
76 204 76
76 204 76
76 204 76
76 204 76
76 204 76
76 204 76
76 204 76
76 204 76
76 204 76
76 204 76
76 204 76
76 204 76
76 204 76
76 204 76
76 204 76
76 204 76
76 204 76
76 204 76
76 204 76
76 204 76
76 204 76
76 204 76
76 204 76
76 204 76
76 204 76
76 204 76
76 204 76
76 204 76
76 204 76
76 204 76
76 204 76
76 204 76
76 204 76
76 204 76
76 204 76
76 204 76
76 204 76
76 204 76
76 204 76
76 204 76
76 204 76
76 204 76
76 204 76
76 204 76
76 204 76
76 204 76
76 204 76
76 204 76
76 204 76
76 204 76
76 204 76
76 204 76
76 204 76
76 204 76
76 204 76
76 204 76
76 204 76
76 204 76
76 204 76
76 204 76
76 204 76
76 204 76
76 204 76
76 204 76
76 204 76
76 204 76
76 204 76
76 204 76
76 204 76
76 204 76
76 204 76
76 204 76
76 204 76
76 204 76
76 204 76
76 204 76
76 204 76
76 204 76
76 204 76
76 204 76
76 204 76
76 204 76
76 204 76
76 204 76
76 204 76
76 204 76
76 204 76
76 204 76
76 204 76
76 204 76
76 204 76
76 204 76
76 204 76
76 204 76
76 204 76
76 204 76
76 204 76
76 204 76
76 204 76
76 204 76
76 204 76
76 204 76
76 204 76
76 204 76
76 204 76
76 204 76
76 204 76
76 204 76
76 204 76
76 204 76
76 204 76
76 204 76
76 204 76
76 204 76
76 204 76
76 204 76
76 204 76
76 204 76
76 204 76
76 204 76
76 204 76
76 204 76
76 204 76
76 204 76
76 204 76
76 204 76
76 204 76
76 204 76
76 204 76
76 204 76
76 204 76
76 204 76
76 204 76
76 204 76
76 204 76
76 204 76
76 204 76
76 204 76
76 204 76
76 204 76
76 204 76
76 204 76
76 204 76
76 204 76
76 204 76
76 204 76
76 204 76
76 204 76
76 204 76
76 204 76
76 204 76
76 204 76
76 204 76
76 204 76
76 204 76
76 204 76
76 204 76
76 204 76
76 204 76
76 204 76
76 204 76
76 204 76
76 204 76
76 204 76
76 204 76
76 204 76
76 204 76
76 204 76
76 204 76
76 204 76
76 204 76
76 204 76
76 204 76
76 204 76
76 204 76
76 204 76
76 204 76
76 204 76
76 204 76
76 204 76
76 204 76
76 204 76
76 204 76
76 204 76
76 204 76
76 204 76
76 204 76
76 204 76
76 204 76
76 204 76
76 204 76
76 204 76
76 204 76
76 204 76
76 204 76
76 204 76
76 204 76
76 204 76
76 204 76
76 204 76
76 204 76
76 204 76
76 204 76
76 204 76
76 204 76
76 204 76
76 204 76
76 204 76
76 204 76
76 204 76
76 204 76
76 204 76
76 204 76
76 204 76
76 204 76
76 204 76
76 204 76
76 204 76
76 204 76
76 204 76
76 204 76
76 204 76
76 204 76
76 204 76
76 204 76
76 204 76
76 204 76
76 204 76
76 204 76
76 204 76
76 204 76
76 204 76
76 204 76
76 204 76
76 204 76
76 204 76
76 204 76
76 204 76
76 204 76
76 204 76
76 204 76
76 204 76
76 204 76
76 204 76
76 204 76
76 204 76
76 204 76
76 204 76
76 204 76
76 204 76
76 204 76
76 204 76
76 204 76
76 204 76
76 204 76
76 204 76
76 204 76
76 204 76
76 204 76
76 204 76
76 204 76
76 204 76
76 204 76
76 204 76
76 204 76
76 204 76
76 204 76
76 204 76
76 204 76
76 204 76
76 204 76
76 204 76
76 204 76
76 204 76
76 204 76
76 204 76
76 204 76
76 204 76
76 204 76
76 204 76
76 204 76
76 204 76
76 204 76
76 204 76
76 204 76
76 204 76
76 204 76
76 204 76
76 204 76
76 204 76
76 204 76
76 204 76
76 204 76
76 204 76
76 204 76
76 204 76
76 204 76
76 204 76
76 204 76
76 204 76
76 204 76
76 204 76
76 204 76
76 204 76
76 204 76
76 204 76
76 204 76
76 204 76
76 204 76
76 204 76
76 204 76
76 204 76
76 204 76
76 204 76
76 204 76
76 204 76
76 204 76
76 204 76
76 204 76
76 204 76
76 204 76
76 204 76
76 204 76
76 204 76
76 204 76
76 204 76
76 204 76
76 204 76
76 204 76
76 204 76
76 204 76
76 204 76
76 204 76
76 204 76
76 204 76
76 204 76
76 204 76
76 204 76
76 204 76
76 204 76
76 204 76
76 204 76
76 204 76
76 204 76
76 204 76
76 204 76
76 204 76
76 204 76
76 204 76
76 204 76
76 204 76
76 204 76
76 204 76
76 204 76
76 204 76
76 204 76
76 204 76
76 204 76
76 204 76
76 204 76
76 204 76
76 204 76
76 204 76
76 204 76
76 204 76
76 204 76
76 204 76
76 204 76
76 204 76
76 204 76
76 204 76
76 204 76
76 204 76
76 204 76
76 204 76
76 204 76
76 204 76
76 204 76
76 204 76
76 204 76
76 204 76
76 204 76
76 204 76
76 204 76
76 204 76
76 204 76
76 204 76
76 204 76
76 204 76
76 204 76
76 204 76
76 204 76
76 204 76
76 204 76
76 204 76
76 204 76
76 204 76
76 204 76
76 204 76
76 204 76
76 204 76
76 204 76
76 204 76
76 204 76
76 204 76
76 204 76
76 204 76
76 204 76
76 204 76
76 204 76
76 204 76
76 204 76
76 204 76
76 204 76
76 204 76
76 204 76
76 204 76
76 204 76
76 204 76
76 204 76
76 204 76
76 204 76
76 204 76
76 204 76
76 204 76
76 204 76
76 204 76
76 204 76
76 204 76
76 204 76
76 204 76
76 204 76
76 204 76
76 204 76
76 204 76
76 204 76
76 204 76
76 204 76
76 204 76
76 204 76
76 204 76
76 204 76
76 204 76
76 204 76
76 204 76
76 204 76
76 204 76
76 204 76
76 204 76
76 204 76
76 204 76
76 204 76
76 204 76
76 204 76
76 204 76
76 204 76
76 204 76
76 204 76
76 204 76
76 204 76
76 204 76
76 204 76
76 204 76
76 204 76
76 204 76
76 204 76
76 204 76
76 204 76
76 204 76
76 204 76
76 204 76
76 204 76
76 204 76
76 204 76
76 204 76
76 204 76
76 204 76
76 204 76
76 204 76
76 204 76
76 204 76
76 204 76
76 204 76
76 204 76
76 204 76
76 204 76
76 204 76
76 204 76
76 204 76
76 204 76
76 204 76
76 204 76
76 204 76
76 204 76
76 204 76
76 204 76
76 204 76
76 204 76
76 204 76
76 204 76
76 204 76
76 204 76
76 204 76
76 204 76
76 204 76
76 204 76
76 204 76
76 204 76
76 204 76
76 204 76
76 204 76
76 204 76
76 204 76
76 204 76
76 204 76
76 204 76
76 204 76
76 204 76
76 204 76
76 204 76
76 204 76
76 204 76
76 204 76
76 204 76
76 204 76
76 204 76
76 204 76
76 204 76
76 204 76
76 204 76
76 204 76
76 204 76
76 204 76
76 204 76
76 204 76
76 204 76
76 204 76
76 204 76
76 204 76
76 204 76
76 204 76
76 204 76
76 204 76
76 204 76
76 204 76
76 204 76
76 204 76
76 204 76
76 204 76
76 204 76
76 204 76
76 204 76
76 204 76
76 204 76
76 204 76
76 204 76
76 204 76
76 204 76
76 204 76
76 204 76
76 204 76
76 204 76
76 204 76
76 204 76
76 204 76
76 204 76
76 204 76
76 204 76
76 204 76
76 204 76
76 204 76
76 204 76
76 204 76
76 204 76
76 204 76
76 204 76
76 204 76
76 204 76
76 204 76
76 204 76
76 204 76
76 204 76
76 204 76
76 204 76
76 204 76
76 204 76
76 204 76
76 204 76
76 204 76
76 204 76
76 204 76
76 204 76
76 204 76
76 204 76
76 204 76
76 204 76
76 204 76
76 204 76
76 204 76
76 204 76
76 204 76
76 204 76
76 204 76
76 204 76
76 204 76
76 204 76
76 204 76
76 204 76
76 204 76
76 204 76
76 204 76
76 204 76
76 204 76
76 204 76
76 204 76
76 204 76
76 204 76
76 204 76
76 204 76
76 204 76
76 204 76
76 204 76
76 204 76
76 204 76
76 204 76
76 204 76
76 204 76
76 204 76
76 204 76
76 204 76
76 204 76
76 204 76
76 204 76
76 204 76
76 204 76
76 204 76
76 204 76
76 204 76
76 204 76
76 204 76
76 204 76
76 204 76
76 204 76
76 204 76
76 204 76
76 204 76
76 204 76
76 204 76
76 204 76
76 204 76
76 204 76
76 204 76
76 204 76
76 204 76
76 204 76
76 204 76
76 204 76
76 204 76
76 204 76
76 204 76
76 204 76
76 204 76
76 204 76
76 204 76
76 204 76
76 204 76
76 204 76
76 204 76
76 204 76
76 204 76
76 204 76
76 204 76
76 204 76
76 204 76
76 204 76
76 204 76
76 204 76
76 204 76
76 204 76
76 204 76
76 204 76
76 204 76
76 204 76
76 204 76
76 204 76
76 204 76
76 204 76
76 204 76
76 204 76
76 204 76
76 204 76
76 204 76
76 204 76
76 204 76
76 204 76
76 204 76
76 204 76
76 204 76
76 204 76
76 204 76
76 204 76
76 204 76
76 204 76
76 204 76
76 204 76
76 204 76
76 204 76
76 204 76
76 204 76
76 204 76
76 204 76
76 204 76
76 204 76
76 204 76
76 204 76
76 204 76
76 204 76
76 204 76
76 204 76
76 204 76
76 204 76
76 204 76
76 204 76
76 204 76
76 204 76
76 204 76
76 204 76
76 204 76
76 204 76
76 204 76
76 204 76
76 204 76
76 204 76
76 204 76
76 204 76
76 204 76
76 204 76
76 204 76
76 204 76
76 204 76
76 204 76
76 204 76
76 204 76
76 204 76
76 204 76
76 204 76
76 204 76
76 204 76
76 204 76
76 204 76
76 204 76
76 204 76
76 204 76
76 204 76
76 204 76
76 204 76
76 204 76
76 204 76
76 204 76
76 204 76
76 204 76
76 204 76
76 204 76
76 204 76
76 204 76
76 204 76
76 204 76
76 204 76
76 204 76
76 204 76
76 204 76
76 204 76
76 204 76
76 204 76
76 204 76
76 204 76
76 204 76
76 204 76
76 204 76
76 204 76
76 204 76
76 204 76
76 204 76
76 204 76
76 204 76
76 204 76
76 204 76
76 204 76
76 204 76
76 204 76
76 204 76
76 204 76
76 204 76
76 204 76
76 204 76
76 204 76
76 204 76
76 204 76
76 204 76
76 204 76
76 204 76
76 204 76
76 204 76
76 204 76
76 204 76
76 204 76
76 204 76
76 204 76
76 204 76
76 204 76
76 204 76
76 204 76
76 204 76
76 204 76
76 204 76
76 204 76
76 204 76
76 204 76
76 204 76
76 204 76
76 204 76
76 204 76
76 204 76
76 204 76
76 204 76
76 204 76
76 204 76
76 204 76
76 204 76
76 204 76
76 204 76
76 204 76
76 204 76
76 204 76
76 204 76
76 204 76
76 204 76
76 204 76
76 204 76
76 204 76
76 204 76
76 204 76
76 204 76
76 204 76
76 204 76
76 204 76
76 204 76
76 204 76
76 204 76
76 204 76
76 204 76
76 204 76
76 204 76
76 204 76
76 204 76
76 204 76
76 204 76
76 204 76
76 204 76
76 204 76
76 204 76
76 204 76
76 204 76
76 204 76
76 204 76
76 204 76
76 204 76
76 204 76
76 204 76
76 204 76
76 204 76
76 204 76
76 204 76
76 204 76
76 204 76
76 204 76
76 204 76
76 204 76
76 204 76
76 204 76
76 204 76
76 204 76
76 204 76
76 204 76
76 204 76
76 204 76
76 204 76
76 204 76
76 204 76
76 204 76
76 204 76
76 204 76
76 204 76
76 204 76
76 204 76
76 204 76
76 204 76
76 204 76
76 204 76
76 204 76
76 204 76
76 204 76
76 204 76
76 204 76
76 204 76
76 204 76
76 204 76
76 204 76
76 204 76
76 204 76
76 204 76
76 204 76
76 204 76
76 204 76
76 204 76
76 204 76
76 204 76
76 204 76
76 204 76
76 204 76
76 204 76
76 204 76
76 204 76
76 204 76
76 204 76
76 204 76
76 204 76
76 204 76
76 204 76
76 204 76
76 204 76
76 204 76
76 204 76
76 204 76
76 204 76
76 204 76
76 204 76
76 204 76
76 204 76
76 204 76
76 204 76
76 204 76
76 204 76
76 204 76
76 204 76
76 204 76
76 204 76
76 204 76
76 204 76
76 204 76
76 204 76
76 204 76
76 204 76
76 204 76
76 204 76
76 204 76
76 204 76
76 204 76
76 204 76
76 204 76
76 204 76
76 204 76
76 204 76
76 204 76
76 204 76
76 204 76
76 204 76
76 204 76
76 204 76
76 204 76
76 204 76
76 204 76
76 204 76
76 204 76
76 204 76
76 204 76
76 204 76
76 204 76
76 204 76
76 204 76
76 204 76
76 204 76
76 204 76
76 204 76
76 204 76
76 204 76
76 204 76
76 204 76
76 204 76
76 204 76
76 204 76
76 204 76
76 204 76
76 204 76
76 204 76
76 204 76
76 204 76
76 204 76
76 204 76
76 204 76
76 204 76
76 204 76
76 204 76
76 204 76
76 204 76
76 204 76
76 204 76
76 204 76
76 204 76
76 204 76
76 204 76
76 204 76
76 204 76
76 204 76
76 204 76
76 204 76
76 204 76
76 204 76
76 204 76
76 204 76
76 204 76
76 204 76
76 204 76
76 204 76
76 204 76
76 204 76
76 204 76
76 204 76
76 204 76
76 204 76
76 204 76
76 204 76
76 204 76
76 204 76
76 204 76
76 204 76
76 204 76
76 204 76
76 204 76
76 204 76
76 204 76
76 204 76
76 204 76
76 204 76
76 204 76
76 204 76
76 204 76
76 204 76
76 204 76
76 204 76
76 204 76
76 204 76
76 204 76
76 204 76
76 204 76
76 204 76
76 204 76
76 204 76
76 204 76
76 204 76
76 204 76
76 204 76
76 204 76
76 204 76
76 204 76
76 204 76
76 204 76
76 204 76
76 204 76
76 204 76
76 204 76
76 204 76
76 204 76
76 204 76
76 204 76
76 204 76
76 204 76
76 204 76
76 204 76
76 204 76
76 204 76
76 204 76
76 204 76
76 204 76
76 204 76
76 204 76
76 204 76
76 204 76
76 204 76
76 204 76
76 204 76
76 204 76
76 204 76
76 204 76
76 204 76
76 204 76
76 204 76
76 204 76
76 204 76
76 204 76
76 204 76
76 204 76
76 204 76
76 204 76
76 204 76
76 204 76
76 204 76
76 204 76
76 204 76
76 204 76
76 204 76
76 204 76
76 204 76
76 204 76
76 204 76
76 204 76
76 204 76
76 204 76
76 204 76
76 204 76
76 204 76
76 204 76
76 204 76
76 204 76
76 204 76
76 204 76
76 204 76
76 204 76
76 204 76
76 204 76
76 204 76
76 204 76
76 204 76
76 204 76
76 204 76
76 204 76
76 204 76
76 204 76
76 204 76
76 204 76
76 204 76
76 204 76
76 204 76
76 204 76
76 204 76
76 204 76
76 204 76
76 204 76
76 204 76
76 204 76
76 204 76
76 204 76
76 204 76
76 204 76
76 204 76
76 204 76
76 204 76
76 204 76
76 204 76
76 204 76
76 204 76
76 204 76
76 204 76
76 204 76
76 204 76
76 204 76
76 204 76
76 204 76
76 204 76
76 204 76
76 204 76
76 204 76
76 204 76
76 204 76
76 204 76
76 204 76
76 204 76
76 204 76
76 204 76
76 204 76
76 204 76
76 204 76
76 204 76
76 204 76
76 204 76
76 204 76
76 204 76
76 204 76
76 204 76
76 204 76
76 204 76
76 204 76
76 204 76
76 204 76
76 204 76
76 204 76
76 204 76
76 204 76
76 204 76
76 204 76
76 204 76
76 204 76
76 204 76
76 204 76
76 204 76
76 204 76
76 204 76
76 204 76
76 204 76
76 204 76
76 204 76
76 204 76
76 204 76
76 204 76
76 204 76
76 204 76
76 204 76
76 204 76
76 204 76
76 204 76
76 204 76
76 204 76
76 204 76
76 204 76
76 204 76
76 204 76
76 204 76
76 204 76
76 204 76
76 204 76
76 204 76
76 204 76
76 204 76
76 204 76
76 204 76
76 204 76
76 204 76
76 204 76
76 204 76
76 204 76
76 204 76
76 204 76
76 204 76
76 204 76
76 204 76
76 204 76
76 204 76
76 204 76
76 204 76
76 204 76
76 204 76
76 204 76
76 204 76
76 204 76
76 204 76
76 204 76
76 204 76
76 204 76
76 204 76
76 204 76
76 204 76
76 204 76
76 204 76
76 204 76
76 204 76
76 204 76
76 204 76
76 204 76
76 204 76
76 204 76
76 204 76
76 204 76
76 204 76
76 204 76
76 204 76
76 204 76
76 204 76
76 204 76
76 204 76
76 204 76
76 204 76
76 204 76
76 204 76
76 204 76
76 204 76
76 204 76
76 204 76
76 204 76
76 204 76
76 204 76
76 204 76
76 204 76
76 204 76
76 204 76
76 204 76
76 204 76
76 204 76
76 204 76
76 204 76
76 204 76
76 204 76
76 204 76
76 204 76
76 204 76
76 204 76
76 204 76
76 204 76
76 204 76
76 204 76
76 204 76
76 204 76
76 204 76
76 204 76
76 204 76
76 204 76
76 204 76
76 204 76
76 204 76
76 204 76
76 204 76
76 204 76
76 204 76
76 204 76
76 204 76
76 204 76
76 204 76
76 204 76
76 204 76
76 204 76
76 204 76
76 204 76
76 204 76
76 204 76
76 204 76
76 204 76
76 204 76
76 204 76
76 204 76
76 204 76
76 204 76
76 204 76
76 204 76
76 204 76
76 204 76
76 204 76
76 204 76
76 204 76
76 204 76
76 204 76
76 204 76
76 204 76
76 204 76
76 204 76
76 204 76
76 204 76
76 204 76
76 204 76
76 204 76
76 204 76
76 204 76
76 204 76
76 204 76
76 204 76
76 204 76
76 204 76
76 204 76
76 204 76
76 204 76
76 204 76
76 204 76
76 204 76
76 204 76
76 204 76
76 204 76
76 204 76
76 204 76
76 204 76
76 204 76
76 204 76
76 204 76
76 204 76
76 204 76
76 204 76
76 204 76
76 204 76
76 204 76
76 204 76
76 204 76
76 204 76
76 204 76
76 204 76
76 204 76
76 204 76
76 204 76
76 204 76
76 204 76
76 204 76
76 204 76
76 204 76
76 204 76
76 204 76
76 204 76
76 204 76
76 204 76
76 204 76
76 204 76
76 204 76
76 204 76
76 204 76
76 204 76
76 204 76
76 204 76
76 204 76
76 204 76
76 204 76
76 204 76
76 204 76
76 204 76
76 204 76
76 204 76
76 204 76
76 204 76
76 204 76
76 204 76
76 204 76
76 204 76
76 204 76
76 204 76
76 204 76
76 204 76
76 204 76
76 204 76
76 204 76
76 204 76
76 204 76
76 204 76
76 204 76
76 204 76
76 204 76
76 204 76
76 204 76
76 204 76
76 204 76
76 204 76
76 204 76
76 204 76
76 204 76
76 204 76
76 204 76
76 204 76
76 204 76
76 204 76
76 204 76
76 204 76
76 204 76
76 204 76
76 204 76
76 204 76
76 204 76
76 204 76
76 204 76
76 204 76
76 204 76
76 204 76
76 204 76
76 204 76
76 204 76
76 204 76
76 204 76
76 204 76
76 204 76
76 204 76
76 204 76
76 204 76
76 204 76
76 204 76
76 204 76
76 204 76
76 204 76
76 204 76
76 204 76
76 204 76
76 204 76
76 204 76
76 204 76
76 204 76
76 204 76
76 204 76
76 204 76
76 204 76
76 204 76
76 204 76
76 204 76
76 204 76
76 204 76
76 204 76
76 204 76
76 204 76
76 204 76
76 204 76
76 204 76
76 204 76
76 204 76
76 204 76
76 204 76
76 204 76
76 204 76
76 204 76
76 204 76
76 204 76
76 204 76
76 204 76
76 204 76
76 204 76
76 204 76
76 204 76
76 204 76
76 204 76
76 204 76
76 204 76
76 204 76
76 204 76
76 204 76
76 204 76
76 204 76
76 204 76
76 204 76
76 204 76
76 204 76
76 204 76
76 204 76
76 204 76
76 204 76
76 204 76
76 204 76
76 204 76
76 204 76
76 204 76
76 204 76
76 204 76
76 204 76
76 204 76
76 204 76
76 204 76
76 204 76
76 204 76
76 204 76
76 204 76
76 204 76
76 204 76
76 204 76
76 204 76
76 204 76
76 204 76
76 204 76
76 204 76
76 204 76
76 204 76
76 204 76
76 204 76
76 204 76
76 204 76
76 204 76
76 204 76
76 204 76
76 204 76
76 204 76
76 204 76
76 204 76
76 204 76
76 204 76
76 204 76
76 204 76
76 204 76
76 204 76
76 204 76
76 204 76
76 204 76
76 204 76
76 204 76
76 204 76
76 204 76
76 204 76
76 204 76
76 204 76
76 204 76
76 204 76
76 204 76
76 204 76
76 204 76
76 204 76
76 204 76
76 204 76
76 204 76
76 204 76
76 204 76
76 204 76
76 204 76
76 204 76
76 204 76
76 204 76
76 204 76
76 204 76
76 204 76
76 204 76
76 204 76
76 204 76
76 204 76
76 204 76
76 204 76
76 204 76
76 204 76
76 204 76
76 204 76
76 204 76
76 204 76
76 204 76
76 204 76
76 204 76
76 204 76
76 204 76
76 204 76
76 204 76
76 204 76
76 204 76
76 204 76
76 204 76
76 204 76
76 204 76
76 204 76
76 204 76
76 204 76
76 204 76
76 204 76
76 204 76
76 204 76
76 204 76
76 204 76
76 204 76
76 204 76
76 204 76
76 204 76
76 204 76
76 204 76
76 204 76
76 204 76
76 204 76
76 204 76
76 204 76
76 204 76
76 204 76
76 204 76
76 204 76
76 204 76
76 204 76
76 204 76
76 204 76
76 204 76
76 204 76
76 204 76
76 204 76
76 204 76
76 204 76
76 204 76
76 204 76
76 204 76
76 204 76
76 204 76
76 204 76
76 204 76
76 204 76
76 204 76
76 204 76
76 204 76
76 204 76
76 204 76
76 204 76
76 204 76
76 204 76
76 204 76
76 204 76
76 204 76
76 204 76
76 204 76
76 204 76
76 204 76
76 204 76
76 204 76
76 204 76
76 204 76
76 204 76
76 204 76
76 204 76
76 204 76
76 204 76
76 204 76
76 204 76
76 204 76
76 204 76
76 204 76
76 204 76
76 204 76
76 204 76
76 204 76
76 204 76
76 204 76
76 204 76
76 204 76
76 204 76
76 204 76
76 204 76
76 204 76
76 204 76
76 204 76
76 204 76
76 204 76
76 204 76
76 204 76
76 204 76
76 204 76
76 204 76
76 204 76
76 204 76
76 204 76
76 204 76
76 204 76
76 204 76
76 204 76
76 204 76
76 204 76
76 204 76
76 204 76
76 204 76
76 204 76
76 204 76
76 204 76
76 204 76
76 204 76
76 204 76
76 204 76
76 204 76
76 204 76
76 204 76
76 204 76
76 204 76
76 204 76
76 204 76
76 204 76
76 204 76
76 204 76
76 204 76
76 204 76
76 204 76
76 204 76
76 204 76
76 204 76
76 204 76
76 204 76
76 204 76
76 204 76
76 204 76
76 204 76
76 204 76
76 204 76
76 204 76
76 204 76
76 204 76
76 204 76
76 204 76
76 204 76
76 204 76
76 204 76
76 204 76
76 204 76
76 204 76
76 204 76
76 204 76
76 204 76
76 204 76
76 204 76
76 204 76
76 204 76
76 204 76
76 204 76
76 204 76
76 204 76
76 204 76
76 204 76
76 204 76
76 204 76
76 204 76
76 204 76
76 204 76
76 204 76
76 204 76
76 204 76
76 204 76
76 204 76
76 204 76
76 204 76
76 204 76
76 204 76
76 204 76
76 204 76
76 204 76
76 204 76
76 204 76
76 204 76
76 204 76
76 204 76
76 204 76
76 204 76
76 204 76
76 204 76
76 204 76
76 204 76
76 204 76
76 204 76
76 204 76
76 204 76
76 204 76
76 204 76
76 204 76
76 204 76
76 204 76
76 204 76
76 204 76
76 204 76
76 204 76
76 204 76
76 204 76
76 204 76
76 204 76
76 204 76
76 204 76
76 204 76
76 204 76
76 204 76
76 204 76
76 204 76
76 204 76
76 204 76
76 204 76
76 204 76
76 204 76
76 204 76
76 204 76
76 204 76
76 204 76
76 204 76
76 204 76
76 204 76
76 204 76
76 204 76
76 204 76
76 204 76
76 204 76
76 204 76
76 204 76
76 204 76
76 204 76
76 204 76
76 204 76
76 204 76
76 204 76
76 204 76
76 204 76
76 204 76
76 204 76
76 204 76
76 204 76
76 204 76
76 204 76
76 204 76
76 204 76
76 204 76
76 204 76
76 204 76
76 204 76
76 204 76
76 204 76
76 204 76
76 204 76
76 204 76
76 204 76
76 204 76
76 204 76
76 204 76
76 204 76
76 204 76
76 204 76
76 204 76
76 204 76
76 204 76
76 204 76
76 204 76
76 204 76
76 204 76
76 204 76
76 204 76
76 204 76
76 204 76
76 204 76
76 204 76
76 204 76
76 204 76
76 204 76
76 204 76
76 204 76
76 204 76
76 204 76
76 204 76
76 204 76
76 204 76
76 204 76
76 204 76
76 204 76
76 204 76
76 204 76
76 204 76
76 204 76
76 204 76
76 204 76
76 204 76
76 204 76
76 204 76
76 204 76
76 204 76
76 204 76
76 204 76
76 204 76
76 204 76
76 204 76
76 204 76
76 204 76
76 204 76
76 204 76
76 204 76
76 204 76
76 204 76
76 204 76
76 204 76
76 204 76
76 204 76
76 204 76
76 204 76
76 204 76
76 204 76
76 204 76
76 204 76
76 204 76
76 204 76
76 204 76
76 204 76
76 204 76
76 204 76
76 204 76
76 204 76
76 204 76
76 204 76
76 204 76
76 204 76
76 204 76
76 204 76
76 204 76
76 204 76
76 204 76
76 204 76
76 204 76
76 204 76
76 204 76
76 204 76
76 204 76
76 204 76
76 204 76
76 204 76
76 204 76
76 204 76
76 204 76
76 204 76
76 204 76
76 204 76
76 204 76
76 204 76
76 204 76
76 204 76
76 204 76
76 204 76
76 204 76
76 204 76
76 204 76
76 204 76
76 204 76
76 204 76
76 204 76
76 204 76
76 204 76
76 204 76
76 204 76
76 204 76
76 204 76
76 204 76
76 204 76
76 204 76
76 204 76
76 204 76
76 204 76
76 204 76
76 204 76
76 204 76
76 204 76
76 204 76
76 204 76
76 204 76
76 204 76
76 204 76
76 204 76
76 204 76
76 204 76
76 204 76
76 204 76
76 204 76
76 204 76
76 204 76
76 204 76
76 204 76
76 204 76
76 204 76
76 204 76
76 204 76
76 204 76
76 204 76
76 204 76
76 204 76
76 204 76
76 204 76
76 204 76
76 204 76
76 204 76
76 204 76
76 204 76
76 204 76
76 204 76
76 204 76
76 204 76
76 204 76
76 204 76
76 204 76
76 204 76
76 204 76
76 204 76
76 204 76
76 204 76
76 204 76
76 204 76
76 204 76
76 204 76
76 204 76
76 204 76
76 204 76
76 204 76
76 204 76
76 204 76
76 204 76
76 204 76
76 204 76
76 204 76
76 204 76
76 204 76
76 204 76
76 204 76
76 204 76
76 204 76
76 204 76
76 204 76
76 204 76
76 204 76
76 204 76
76 204 76
76 204 76
76 204 76
76 204 76
76 204 76
76 204 76
76 204 76
76 204 76
76 204 76
76 204 76
76 204 76
76 204 76
76 204 76
76 204 76
76 204 76
76 204 76
76 204 76
76 204 76
76 204 76
76 204 76
76 204 76
76 204 76
76 204 76
76 204 76
76 204 76
76 204 76
76 204 76
76 204 76
76 204 76
76 204 76
76 204 76
76 204 76
76 204 76
76 204 76
76 204 76
76 204 76
76 204 76
76 204 76
76 204 76
76 204 76
76 204 76
76 204 76
76 204 76
76 204 76
76 204 76
76 204 76
76 204 76
76 204 76
76 204 76
76 204 76
76 204 76
76 204 76
76 204 76
76 204 76
76 204 76
76 204 76
76 204 76
76 204 76
76 204 76
76 204 76
76 204 76
76 204 76
76 204 76
76 204 76
76 204 76
76 204 76
76 204 76
76 204 76
76 204 76
76 204 76
76 204 76
76 204 76
76 204 76
76 204 76
76 204 76
76 204 76
76 204 76
76 204 76
76 204 76
76 204 76
76 204 76
76 204 76
76 204 76
76 204 76
76 204 76
76 204 76
76 204 76
76 204 76
76 204 76
76 204 76
76 204 76
76 204 76
76 204 76
76 204 76
76 204 76
76 204 76
76 204 76
76 204 76
76 204 76
76 204 76
76 204 76
76 204 76
76 204 76
76 204 76
76 204 76
76 204 76
76 204 76
76 204 76
76 204 76
76 204 76
76 204 76
76 204 76
76 204 76
76 204 76
76 204 76
76 204 76
76 204 76
76 204 76
76 204 76
76 204 76
76 204 76
76 204 76
76 204 76
76 204 76
76 204 76
76 204 76
76 204 76
76 204 76
76 204 76
76 204 76
76 204 76
76 204 76
76 204 76
76 204 76
76 204 76
76 204 76
76 204 76
76 204 76
76 204 76
76 204 76
76 204 76
76 204 76
76 204 76
76 204 76
76 204 76
76 204 76
76 204 76
76 204 76
76 204 76
76 204 76
76 204 76
76 204 76
76 204 76
76 204 76
76 204 76
76 204 76
76 204 76
76 204 76
76 204 76
76 204 76
76 204 76
76 204 76
76 204 76
76 204 76
76 204 76
76 204 76
76 204 76
76 204 76
76 204 76
76 204 76
76 204 76
76 204 76
76 204 76
76 204 76
76 204 76
76 204 76
76 204 76
76 204 76
76 204 76
76 204 76
76 204 76
76 204 76
76 204 76
76 204 76
76 204 76
76 204 76
76 204 76
76 204 76
76 204 76
76 204 76
76 204 76
76 204 76
76 204 76
76 204 76
76 204 76
76 204 76
76 204 76
76 204 76
76 204 76
76 204 76
76 204 76
76 204 76
76 204 76
76 204 76
76 204 76
76 204 76
76 204 76
76 204 76
76 204 76
76 204 76
76 204 76
76 204 76
76 204 76
76 204 76
76 204 76
76 204 76
76 204 76
76 204 76
76 204 76
76 204 76
76 204 76
76 204 76
76 204 76
76 204 76
76 204 76
76 204 76
76 204 76
76 204 76
76 204 76
76 204 76
76 204 76
76 204 76
76 204 76
76 204 76
76 204 76
76 204 76
76 204 76
76 204 76
76 204 76
76 204 76
76 204 76
76 204 76
76 204 76
76 204 76
76 204 76
76 204 76
76 204 76
76 204 76
76 204 76
76 204 76
76 204 76
76 204 76
76 204 76
76 204 76
76 204 76
76 204 76
76 204 76
76 204 76
76 204 76
76 204 76
76 204 76
76 204 76
76 204 76
76 204 76
76 204 76
76 204 76
76 204 76
76 204 76
76 204 76
76 204 76
76 204 76
76 204 76
76 204 76
76 204 76
76 204 76
76 204 76
76 204 76
76 204 76
76 204 76
76 204 76
76 204 76
76 204 76
76 204 76
76 204 76
76 204 76
76 204 76
76 204 76
76 204 76
76 204 76
76 204 76
76 204 76
76 204 76
76 204 76
76 204 76
76 204 76
76 204 76
76 204 76
76 204 76
76 204 76
76 204 76
76 204 76
76 204 76
76 204 76
76 204 76
76 204 76
76 204 76
76 204 76
76 204 76
76 204 76
76 204 76
76 204 76
76 204 76
76 204 76
76 204 76
76 204 76
76 204 76
76 204 76
76 204 76
76 204 76
76 204 76
76 204 76
76 204 76
76 204 76
76 204 76
76 204 76
76 204 76
76 204 76
76 204 76
76 204 76
76 204 76
76 204 76
76 204 76
76 204 76
76 204 76
76 204 76
76 204 76
76 204 76
76 204 76
76 204 76
76 204 76
76 204 76
76 204 76
76 204 76
76 204 76
76 204 76
76 204 76
76 204 76
76 204 76
76 204 76
76 204 76
76 204 76
76 204 76
76 204 76
76 204 76
76 204 76
76 204 76
76 204 76
76 204 76
76 204 76
76 204 76
76 204 76
76 204 76
76 204 76
76 204 76
76 204 76
76 204 76
76 204 76
76 204 76
76 204 76
76 204 76
76 204 76
76 204 76
76 204 76
76 204 76
76 204 76
76 204 76
76 204 76
76 204 76
76 204 76
76 204 76
76 204 76
76 204 76
76 204 76
76 204 76
76 204 76
76 204 76
76 204 76
76 204 76
76 204 76
76 204 76
76 204 76
76 204 76
76 204 76
76 204 76
76 204 76
76 204 76
76 204 76
76 204 76
76 204 76
76 204 76
76 204 76
76 204 76
76 204 76
76 204 76
76 204 76
76 204 76
76 204 76
76 204 76
76 204 76
76 204 76
76 204 76
76 204 76
76 204 76
76 204 76
76 204 76
76 204 76
76 204 76
76 204 76
76 204 76
76 204 76
76 204 76
76 204 76
76 204 76
76 204 76
76 204 76
76 204 76
76 204 76
76 204 76
76 204 76
76 204 76
76 204 76
76 204 76
76 204 76
76 204 76
76 204 76
76 204 76
76 204 76
76 204 76
76 204 76
76 204 76
76 204 76
76 204 76
76 204 76
76 204 76
76 204 76
76 204 76
76 204 76
76 204 76
76 204 76
76 204 76
76 204 76
76 204 76
76 204 76
76 204 76
76 204 76
76 204 76
76 204 76
76 204 76
76 204 76
76 204 76
76 204 76
76 204 76
76 204 76
76 204 76
76 204 76
76 204 76
76 204 76
76 204 76
76 204 76
76 204 76
76 204 76
76 204 76
76 204 76
76 204 76
76 204 76
76 204 76
76 204 76
76 204 76
76 204 76
76 204 76
76 204 76
76 204 76
76 204 76
76 204 76
76 204 76
76 204 76
76 204 76
76 204 76
76 204 76
76 204 76
76 204 76
76 204 76
76 204 76
76 204 76
76 204 76
76 204 76
76 204 76
76 204 76
76 204 76
76 204 76
76 204 76
76 204 76
76 204 76
76 204 76
76 204 76
76 204 76
76 204 76
76 204 76
76 204 76
76 204 76
76 204 76
76 204 76
76 204 76
76 204 76
76 204 76
76 204 76
76 204 76
76 204 76
76 204 76
76 204 76
76 204 76
76 204 76
76 204 76
76 204 76
76 204 76
76 204 76
76 204 76
76 204 76
76 204 76
76 204 76
76 204 76
76 204 76
76 204 76
76 204 76
76 204 76
76 204 76
76 204 76
76 204 76
76 204 76
76 204 76
76 204 76
76 204 76
76 204 76
76 204 76
76 204 76
76 204 76
76 204 76
76 204 76
76 204 76
76 204 76
76 204 76
76 204 76
76 204 76
76 204 76
76 204 76
76 204 76
76 204 76
76 204 76
76 204 76
76 204 76
76 204 76
76 204 76
76 204 76
76 204 76
76 204 76
76 204 76
76 204 76
76 204 76
76 204 76
76 204 76
76 204 76
76 204 76
76 204 76
76 204 76
76 204 76
76 204 76
76 204 76
76 204 76
76 204 76
76 204 76
76 204 76
76 204 76
76 204 76
76 204 76
76 204 76
76 204 76
76 204 76
76 204 76
76 204 76
76 204 76
76 204 76
76 204 76
76 204 76
76 204 76
76 204 76
76 204 76
76 204 76
76 204 76
76 204 76
76 204 76
76 204 76
76 204 76
76 204 76
76 204 76
76 204 76
76 204 76
76 204 76
76 204 76
76 204 76
76 204 76
76 204 76
76 204 76
76 204 76
76 204 76
76 204 76
76 204 76
76 204 76
76 204 76
76 204 76
76 204 76
76 204 76
76 204 76
76 204 76
76 204 76
76 204 76
76 204 76
76 204 76
76 204 76
76 204 76
76 204 76
76 204 76
76 204 76
76 204 76
76 204 76
76 204 76
76 204 76
76 204 76
76 204 76
76 204 76
76 204 76
76 204 76
76 204 76
76 204 76
76 204 76
76 204 76
76 204 76
76 204 76
76 204 76
76 204 76
76 204 76
76 204 76
76 204 76
76 204 76
76 204 76
76 204 76
76 204 76
76 204 76
76 204 76
76 204 76
76 204 76
76 204 76
76 204 76
76 204 76
76 204 76
76 204 76
76 204 76
76 204 76
76 204 76
76 204 76
76 204 76
76 204 76
76 204 76
76 204 76
76 204 76
76 204 76
76 204 76
76 204 76
76 204 76
76 204 76
76 204 76
76 204 76
76 204 76
76 204 76
76 204 76
76 204 76
76 204 76
76 204 76
76 204 76
76 204 76
76 204 76
76 204 76
76 204 76
76 204 76
76 204 76
76 204 76
76 204 76
76 204 76
76 204 76
76 204 76
76 204 76
76 204 76
76 204 76
76 204 76
76 204 76
76 204 76
76 204 76
76 204 76
76 204 76
76 204 76
76 204 76
76 204 76
76 204 76
76 204 76
76 204 76
76 204 76
76 204 76
76 204 76
76 204 76
76 204 76
76 204 76
76 204 76
76 204 76
76 204 76
76 204 76
76 204 76
76 204 76
76 204 76
76 204 76
76 204 76
76 204 76
76 204 76
76 204 76
76 204 76
76 204 76
76 204 76
76 204 76
76 204 76
76 204 76
76 204 76
76 204 76
76 204 76
76 204 76
76 204 76
76 204 76
76 204 76
76 204 76
76 204 76
76 204 76
76 204 76
76 204 76
76 204 76
76 204 76
76 204 76
76 204 76
76 204 76
76 204 76
76 204 76
76 204 76
76 204 76
76 204 76
76 204 76
76 204 76
76 204 76
76 204 76
76 204 76
76 204 76
76 204 76
76 204 76
76 204 76
76 204 76
76 204 76
76 204 76
76 204 76
76 204 76
76 204 76
76 204 76
76 204 76
76 204 76
76 204 76
76 204 76
76 204 76
76 204 76
76 204 76
76 204 76
76 204 76
76 204 76
76 204 76
76 204 76
76 204 76
76 204 76
76 204 76
76 204 76
76 204 76
76 204 76
76 204 76
76 204 76
76 204 76
76 204 76
76 204 76
76 204 76
76 204 76
76 204 76
76 204 76
76 204 76
76 204 76
76 204 76
76 204 76
76 204 76
76 204 76
76 204 76
76 204 76
76 204 76
76 204 76
76 204 76
76 204 76
76 204 76
76 204 76
76 204 76
76 204 76
76 204 76
76 204 76
76 204 76
76 204 76
76 204 76
76 204 76
76 204 76
76 204 76
76 204 76
76 204 76
76 204 76
76 204 76
76 204 76
76 204 76
76 204 76
76 204 76
76 204 76
76 204 76
76 204 76
76 204 76
76 204 76
76 204 76
76 204 76
76 204 76
76 204 76
76 204 76
76 204 76
76 204 76
76 204 76
76 204 76
76 204 76
76 204 76
76 204 76
76 204 76
76 204 76
76 204 76
76 204 76
76 204 76
76 204 76
76 204 76
76 204 76
76 204 76
76 204 76
76 204 76
76 204 76
76 204 76
76 204 76
76 204 76
76 204 76
76 204 76
76 204 76
76 204 76
76 204 76
76 204 76
76 204 76
76 204 76
76 204 76
76 204 76
76 204 76
76 204 76
76 204 76
76 204 76
76 204 76
76 204 76
76 204 76
76 204 76
76 204 76
76 204 76
76 204 76
76 204 76
76 204 76
76 204 76
76 204 76
76 204 76
76 204 76
76 204 76
76 204 76
76 204 76
76 204 76
76 204 76
76 204 76
76 204 76
76 204 76
76 204 76
76 204 76
76 204 76
76 204 76
76 204 76
76 204 76
76 204 76
76 204 76
76 204 76
76 204 76
76 204 76
76 204 76
76 204 76
76 204 76
76 204 76
76 204 76
76 204 76
76 204 76
76 204 76
76 204 76
76 204 76
76 204 76
76 204 76
76 204 76
76 204 76
76 204 76
76 204 76
76 204 76
76 204 76
76 204 76
76 204 76
76 204 76
76 204 76
76 204 76
76 204 76
76 204 76
76 204 76
76 204 76
76 204 76
76 204 76
76 204 76
76 204 76
76 204 76
76 204 76
76 204 76
76 204 76
76 204 76
76 204 76
76 204 76
76 204 76
76 204 76
76 204 76
76 204 76
76 204 76
76 204 76
76 204 76
76 204 76
76 204 76
76 204 76
76 204 76
76 204 76
76 204 76
76 204 76
76 204 76
76 204 76
76 204 76
76 204 76
76 204 76
76 204 76
76 204 76
76 204 76
76 204 76
76 204 76
76 204 76
76 204 76
76 204 76
76 204 76
76 204 76
76 204 76
76 204 76
76 204 76
76 204 76
76 204 76
76 204 76
76 204 76
76 204 76
76 204 76
76 204 76
76 204 76
76 204 76
76 204 76
76 204 76
76 204 76
76 204 76
76 204 76
76 204 76
76 204 76
76 204 76
76 204 76
76 204 76
76 204 76
76 204 76
76 204 76
76 204 76
76 204 76
76 204 76
76 204 76
76 204 76
76 204 76
76 204 76
76 204 76
76 204 76
76 204 76
76 204 76
76 204 76
76 204 76
76 204 76
76 204 76
76 204 76
76 204 76
76 204 76
76 204 76
76 204 76
76 204 76
76 204 76
76 204 76
76 204 76
76 204 76
76 204 76
76 204 76
76 204 76
76 204 76
76 204 76
76 204 76
76 204 76
76 204 76
76 204 76
76 204 76
76 204 76
76 204 76
76 204 76
76 204 76
76 204 76
76 204 76
76 204 76
76 204 76
76 204 76
76 204 76
76 204 76
76 204 76
76 204 76
76 204 76
76 204 76
76 204 76
76 204 76
76 204 76
76 204 76
76 204 76
76 204 76
76 204 76
76 204 76
76 204 76
76 204 76
76 204 76
76 204 76
76 204 76
76 204 76
76 204 76
76 204 76
76 204 76
76 204 76
76 204 76
76 204 76
76 204 76
76 204 76
76 204 76
76 204 76
76 204 76
76 204 76
76 204 76
76 204 76
76 204 76
76 204 76
76 204 76
76 204 76
76 204 76
76 204 76
76 204 76
76 204 76
76 204 76
76 204 76
76 204 76
76 204 76
76 204 76
76 204 76
76 204 76
76 204 76
76 204 76
76 204 76
76 204 76
76 204 76
76 204 76
76 204 76
76 204 76
76 204 76
76 204 76
76 204 76
76 204 76
76 204 76
76 204 76
76 204 76
76 204 76
76 204 76
76 204 76
76 204 76
76 204 76
76 204 76
76 204 76
76 204 76
76 204 76
76 204 76
76 204 76
76 204 76
76 204 76
76 204 76
76 204 76
76 204 76
76 204 76
76 204 76
76 204 76
76 204 76
76 204 76
76 204 76
76 204 76
76 204 76
76 204 76
76 204 76
76 204 76
76 204 76
76 204 76
76 204 76
76 204 76
76 204 76
76 204 76
76 204 76
76 204 76
76 204 76
76 204 76
76 204 76
76 204 76
76 204 76
76 204 76
76 204 76
76 204 76
76 204 76
76 204 76
76 204 76
76 204 76
76 204 76
76 204 76
76 204 76
76 204 76
76 204 76
76 204 76
76 204 76
76 204 76
76 204 76
76 204 76
76 204 76
76 204 76
76 204 76
76 204 76
76 204 76
76 204 76
76 204 76
76 204 76
76 204 76
76 204 76
76 204 76
76 204 76
76 204 76
76 204 76
76 204 76
76 204 76
76 204 76
76 204 76
76 204 76
76 204 76
76 204 76
76 204 76
76 204 76
76 204 76
76 204 76
76 204 76
76 204 76
76 204 76
76 204 76
76 204 76
76 204 76
76 204 76
76 204 76
76 204 76
76 204 76
76 204 76
76 204 76
76 204 76
76 204 76
76 204 76
76 204 76
76 204 76
76 204 76
76 204 76
76 204 76
76 204 76
76 204 76
76 204 76
76 204 76
76 204 76
76 204 76
76 204 76
76 204 76
76 204 76
76 204 76
76 204 76
76 204 76
76 204 76
76 204 76
76 204 76
76 204 76
76 204 76
76 204 76
76 204 76
76 204 76
76 204 76
76 204 76
76 204 76
76 204 76
76 204 76
76 204 76
76 204 76
76 204 76
76 204 76
76 204 76
76 204 76
76 204 76
76 204 76
76 204 76
76 204 76
76 204 76
76 204 76
76 204 76
76 204 76
76 204 76
76 204 76
76 204 76
76 204 76
76 204 76
76 204 76
76 204 76
76 204 76
76 204 76
76 204 76
76 204 76
76 204 76
76 204 76
76 204 76
76 204 76
76 204 76
76 204 76
76 204 76
76 204 76
76 204 76
76 204 76
76 204 76
76 204 76
76 204 76
76 204 76
76 204 76
76 204 76
76 204 76
76 204 76
76 204 76
76 204 76
76 204 76
76 204 76
76 204 76
76 204 76
76 204 76
76 204 76
76 204 76
76 204 76
76 204 76
76 204 76
76 204 76
76 204 76
76 204 76
76 204 76
76 204 76
76 204 76
76 204 76
76 204 76
76 204 76
76 204 76
76 204 76
76 204 76
76 204 76
76 204 76
76 204 76
76 204 76
76 204 76
76 204 76
76 204 76
76 204 76
76 204 76
76 204 76
76 204 76
76 204 76
76 204 76
76 204 76
76 204 76
76 204 76
76 204 76
76 204 76
76 204 76
76 204 76
76 204 76
76 204 76
76 204 76
76 204 76
76 204 76
76 204 76
76 204 76
76 204 76
76 204 76
76 204 76
76 204 76
76 204 76
76 204 76
76 204 76
76 204 76
76 204 76
76 204 76
76 204 76
76 204 76
76 204 76
76 204 76
76 204 76
76 204 76
76 204 76
76 204 76
76 204 76
76 204 76
76 204 76
76 204 76
76 204 76
76 204 76
76 204 76
76 204 76
76 204 76
76 204 76
76 204 76
76 204 76
76 204 76
76 204 76
76 204 76
76 204 76
76 204 76
76 204 76
76 204 76
76 204 76
76 204 76
76 204 76
76 204 76
76 204 76
76 204 76
76 204 76
76 204 76
76 204 76
76 204 76
76 204 76
76 204 76
76 204 76
76 204 76
76 204 76
76 204 76
76 204 76
76 204 76
76 204 76
76 204 76
76 204 76
76 204 76
76 204 76
76 204 76
76 204 76
76 204 76
76 204 76
76 204 76
76 204 76
76 204 76
76 204 76
76 204 76
76 204 76
76 204 76
76 204 76
76 204 76
76 204 76
76 204 76
76 204 76
76 204 76
76 204 76
76 204 76
76 204 76
76 204 76
76 204 76
76 204 76
76 204 76
76 204 76
76 204 76
76 204 76
76 204 76
76 204 76
76 204 76
76 204 76
76 204 76
76 204 76
76 204 76
76 204 76
76 204 76
76 204 76
76 204 76
76 204 76
76 204 76
76 204 76
76 204 76
76 204 76
76 204 76
76 204 76
76 204 76
76 204 76
76 204 76
76 204 76
76 204 76
76 204 76
76 204 76
76 204 76
76 204 76
76 204 76
76 204 76
76 204 76
76 204 76
76 204 76
76 204 76
76 204 76
76 204 76
76 204 76
76 204 76
76 204 76
76 204 76
76 204 76
76 204 76
76 204 76
76 204 76
76 204 76
76 204 76
76 204 76
76 204 76
76 204 76
76 204 76
76 204 76
76 204 76
76 204 76
76 204 76
76 204 76
76 204 76
76 204 76
76 204 76
76 204 76
76 204 76
76 204 76
76 204 76
76 204 76
76 204 76
76 204 76
76 204 76
76 204 76
76 204 76
76 204 76
76 204 76
76 204 76
76 204 76
76 204 76
76 204 76
76 204 76
76 204 76
76 204 76
76 204 76
76 204 76
76 204 76
76 204 76
76 204 76
76 204 76
76 204 76
76 204 76
76 204 76
76 204 76
76 204 76
76 204 76
76 204 76
76 204 76
76 204 76
76 204 76
76 204 76
76 204 76
76 204 76
76 204 76
76 204 76
76 204 76
76 204 76
76 204 76
76 204 76
76 204 76
76 204 76
76 204 76
76 204 76
76 204 76
76 204 76
76 204 76
76 204 76
76 204 76
76 204 76
76 204 76
76 204 76
76 204 76
76 204 76
76 204 76
76 204 76
76 204 76
76 204 76
76 204 76
76 204 76
76 204 76
76 204 76
76 204 76
76 204 76
76 204 76
76 204 76
76 204 76
76 204 76
76 204 76
76 204 76
76 204 76
76 204 76
76 204 76
76 204 76
76 204 76
76 204 76
76 204 76
76 204 76
76 204 76
76 204 76
76 204 76
76 204 76
76 204 76
76 204 76
76 204 76
76 204 76
76 204 76
76 204 76
76 204 76
76 204 76
76 204 76
76 204 76
76 204 76
76 204 76
76 204 76
76 204 76
76 204 76
76 204 76
76 204 76
76 204 76
76 204 76
76 204 76
76 204 76
76 204 76
76 204 76
76 204 76
76 204 76
76 204 76
76 204 76
76 204 76
76 204 76
76 204 76
76 204 76
76 204 76
76 204 76
76 204 76
76 204 76
76 204 76
76 204 76
76 204 76
76 204 76
76 204 76
76 204 76
76 204 76
76 204 76
76 204 76
76 204 76
76 204 76
76 204 76
76 204 76
76 204 76
76 204 76
76 204 76
76 204 76
76 204 76
76 204 76
76 204 76
76 204 76
76 204 76
76 204 76
76 204 76
76 204 76
76 204 76
76 204 76
76 204 76
76 204 76
76 204 76
76 204 76
76 204 76
76 204 76
76 204 76
76 204 76
76 204 76
76 204 76
76 204 76
76 204 76
76 204 76
76 204 76
76 204 76
76 204 76
76 204 76
76 204 76
76 204 76
76 204 76
76 204 76
76 204 76
76 204 76
76 204 76
76 204 76
76 204 76
76 204 76
76 204 76
76 204 76
76 204 76
76 204 76
76 204 76
76 204 76
76 204 76
76 204 76
76 204 76
76 204 76
76 204 76
76 204 76
76 204 76
76 204 76
76 204 76
76 204 76
76 204 76
76 204 76
76 204 76
76 204 76
76 204 76
76 204 76
76 204 76
76 204 76
76 204 76
76 204 76
76 204 76
76 204 76
76 204 76
76 204 76
76 204 76
76 204 76
76 204 76
76 204 76
76 204 76
76 204 76
76 204 76
76 204 76
76 204 76
76 204 76
76 204 76
76 204 76
76 204 76
76 204 76
76 204 76
76 204 76
76 204 76
76 204 76
76 204 76
76 204 76
76 204 76
76 204 76
76 204 76
76 204 76
76 204 76
76 204 76
76 204 76
76 204 76
76 204 76
76 204 76
76 204 76
76 204 76
76 204 76
76 204 76
76 204 76
76 204 76
76 204 76
76 204 76
76 204 76
76 204 76
76 204 76
76 204 76
76 204 76
76 204 76
76 204 76
76 204 76
76 204 76
76 204 76
76 204 76
76 204 76
76 204 76
76 204 76
76 204 76
76 204 76
76 204 76
76 204 76
76 204 76
76 204 76
76 204 76
76 204 76
76 204 76
76 204 76
76 204 76
76 204 76
76 204 76
76 204 76
76 204 76
76 204 76
76 204 76
76 204 76
76 204 76
76 204 76
76 204 76
76 204 76
76 204 76
76 204 76
76 204 76
76 204 76
76 204 76
76 204 76
76 204 76
76 204 76
76 204 76
76 204 76
76 204 76
76 204 76
76 204 76
76 204 76
76 204 76
76 204 76
76 204 76
76 204 76
76 204 76
76 204 76
76 204 76
76 204 76
76 204 76
76 204 76
76 204 76
76 204 76
76 204 76
76 204 76
76 204 76
76 204 76
76 204 76
76 204 76
76 204 76
76 204 76
76 204 76
76 204 76
76 204 76
76 204 76
76 204 76
76 204 76
76 204 76
76 204 76
76 204 76
76 204 76
76 204 76
76 204 76
76 204 76
76 204 76
76 204 76
76 204 76
76 204 76
76 204 76
76 204 76
76 204 76
76 204 76
76 204 76
76 204 76
76 204 76
76 204 76
76 204 76
76 204 76
76 204 76
76 204 76
76 204 76
76 204 76
76 204 76
76 204 76
76 204 76
76 204 76
76 204 76
76 204 76
76 204 76
76 204 76
76 204 76
76 204 76
76 204 76
76 204 76
76 204 76
76 204 76
76 204 76
76 204 76
76 204 76
76 204 76
76 204 76
76 204 76
76 204 76
76 204 76
76 204 76
76 204 76
76 204 76
76 204 76
76 204 76
76 204 76
76 204 76
76 204 76
76 204 76
76 204 76
76 204 76
76 204 76
76 204 76
76 204 76
76 204 76
76 204 76
76 204 76
76 204 76
76 204 76
76 204 76
76 204 76
76 204 76
76 204 76
76 204 76
76 204 76
76 204 76
76 204 76
76 204 76
76 204 76
76 204 76
76 204 76
76 204 76
76 204 76
76 204 76
76 204 76
76 204 76
76 204 76
76 204 76
76 204 76
76 204 76
76 204 76
76 204 76
76 204 76
76 204 76
76 204 76
76 204 76
76 204 76
76 204 76
76 204 76
76 204 76
76 204 76
76 204 76
76 204 76
76 204 76
76 204 76
76 204 76
76 204 76
76 204 76
76 204 76
76 204 76
76 204 76
76 204 76
76 204 76
76 204 76
76 204 76
76 204 76
76 204 76
76 204 76
76 204 76
76 204 76
76 204 76
76 204 76
76 204 76
76 204 76
76 204 76
76 204 76
76 204 76
76 204 76
76 204 76
76 204 76
76 204 76
76 204 76
76 204 76
76 204 76
76 204 76
76 204 76
76 204 76
76 204 76
76 204 76
76 204 76
76 204 76
76 204 76
76 204 76
76 204 76
76 204 76
76 204 76
76 204 76
76 204 76
76 204 76
76 204 76
76 204 76
76 204 76
76 204 76
76 204 76
76 204 76
76 204 76
76 204 76
76 204 76
76 204 76
76 204 76
76 204 76
76 204 76
76 204 76
76 204 76
76 204 76
76 204 76
76 204 76
76 204 76
76 204 76
76 204 76
76 204 76
76 204 76
76 204 76
76 204 76
76 204 76
76 204 76
76 204 76
76 204 76
76 204 76
76 204 76
76 204 76
76 204 76
76 204 76
76 204 76
76 204 76
76 204 76
76 204 76
76 204 76
76 204 76
76 204 76
76 204 76
76 204 76
76 204 76
76 204 76
76 204 76
76 204 76
76 204 76
76 204 76
76 204 76
76 204 76
76 204 76
76 204 76
76 204 76
76 204 76
76 204 76
76 204 76
76 204 76
76 204 76
76 204 76
76 204 76
76 204 76
76 204 76
76 204 76
76 204 76
76 204 76
76 204 76
76 204 76
76 204 76
76 204 76
76 204 76
76 204 76
76 204 76
76 204 76
76 204 76
76 204 76
76 204 76
76 204 76
76 204 76
76 204 76
76 204 76
76 204 76
76 204 76
76 204 76
76 204 76
76 204 76
76 204 76
76 204 76
76 204 76
76 204 76
76 204 76
76 204 76
76 204 76
76 204 76
76 204 76
76 204 76
76 204 76
76 204 76
76 204 76
76 204 76
76 204 76
76 204 76
76 204 76
76 204 76
76 204 76
76 204 76
76 204 76
76 204 76
76 204 76
76 204 76
76 204 76
76 204 76
76 204 76
76 204 76
76 204 76
76 204 76
76 204 76
76 204 76
76 204 76
76 204 76
76 204 76
76 204 76
76 204 76
76 204 76
76 204 76
76 204 76
76 204 76
76 204 76
76 204 76
76 204 76
76 204 76
76 204 76
76 204 76
76 204 76
76 204 76
76 204 76
76 204 76
76 204 76
76 204 76
76 204 76
76 204 76
76 204 76
76 204 76
76 204 76
76 204 76
76 204 76
76 204 76
76 204 76
76 204 76
76 204 76
76 204 76
76 204 76
76 204 76
76 204 76
76 204 76
76 204 76
76 204 76
76 204 76
76 204 76
76 204 76
76 204 76
76 204 76
76 204 76
76 204 76
76 204 76
76 204 76
76 204 76
76 204 76
76 204 76
76 204 76
76 204 76
76 204 76
76 204 76
76 204 76
76 204 76
76 204 76
76 204 76
76 204 76
76 204 76
76 204 76
76 204 76
76 204 76
76 204 76
76 204 76
76 204 76
76 204 76
76 204 76
76 204 76
76 204 76
76 204 76
76 204 76
76 204 76
76 204 76
76 204 76
76 204 76
76 204 76
76 204 76
76 204 76
76 204 76
76 204 76
76 204 76
76 204 76
76 204 76
76 204 76
76 204 76
76 204 76
76 204 76
76 204 76
76 204 76
76 204 76
76 204 76
76 204 76
76 204 76
76 204 76
76 204 76
76 204 76
76 204 76
76 204 76
76 204 76
76 204 76
76 204 76
76 204 76
76 204 76
76 204 76
76 204 76
76 204 76
76 204 76
76 204 76
76 204 76
76 204 76
76 204 76
76 204 76
76 204 76
76 204 76
76 204 76
76 204 76
76 204 76
76 204 76
76 204 76
76 204 76
76 204 76
76 204 76
76 204 76
76 204 76
76 204 76
76 204 76
76 204 76
76 204 76
76 204 76
76 204 76
76 204 76
76 204 76
76 204 76
76 204 76
76 204 76
76 204 76
76 204 76
76 204 76
76 204 76
76 204 76
76 204 76
76 204 76
76 204 76
76 204 76
76 204 76
76 204 76
76 204 76
76 204 76
76 204 76
76 204 76
76 204 76
76 204 76
76 204 76
76 204 76
76 204 76
76 204 76
76 204 76
76 204 76
76 204 76
76 204 76
76 204 76
76 204 76
76 204 76
76 204 76
76 204 76
76 204 76
76 204 76
76 204 76
76 204 76
76 204 76
76 204 76
76 204 76
76 204 76
76 204 76
76 204 76
76 204 76
76 204 76
76 204 76
76 204 76
76 204 76
76 204 76
76 204 76
76 204 76
76 204 76
76 204 76
76 204 76
76 204 76
76 204 76
76 204 76
76 204 76
76 204 76
76 204 76
76 204 76
76 204 76
76 204 76
76 204 76
76 204 76
76 204 76
76 204 76
76 204 76
76 204 76
76 204 76
76 204 76
76 204 76
76 204 76
76 204 76
76 204 76
76 204 76
76 204 76
76 204 76
76 204 76
76 204 76
76 204 76
76 204 76
76 204 76
76 204 76
76 204 76
76 204 76
76 204 76
76 204 76
76 204 76
76 204 76
76 204 76
76 204 76
76 204 76
76 204 76
76 204 76
76 204 76
76 204 76
76 204 76
76 204 76
76 204 76
76 204 76
76 204 76
76 204 76
76 204 76
76 204 76
76 204 76
76 204 76
76 204 76
76 204 76
76 204 76
76 204 76
76 204 76
76 204 76
76 204 76
76 204 76
76 204 76
76 204 76
76 204 76
76 204 76
76 204 76
76 204 76
76 204 76
76 204 76
76 204 76
76 204 76
76 204 76
76 204 76
76 204 76
76 204 76
76 204 76
76 204 76
76 204 76
76 204 76
76 204 76
76 204 76
76 204 76
76 204 76
76 204 76
76 204 76
76 204 76
76 204 76
76 204 76
76 204 76
76 204 76
76 204 76
76 204 76
76 204 76
76 204 76
76 204 76
76 204 76
76 204 76
76 204 76
76 204 76
76 204 76
76 204 76
76 204 76
76 204 76
76 204 76
76 204 76
76 204 76
76 204 76
76 204 76
76 204 76
76 204 76
76 204 76
76 204 76
76 204 76
76 204 76
76 204 76
76 204 76
76 204 76
76 204 76
76 204 76
76 204 76
76 204 76
76 204 76
76 204 76
76 204 76
76 204 76
76 204 76
76 204 76
76 204 76
76 204 76
76 204 76
76 204 76
76 204 76
76 204 76
76 204 76
76 204 76
76 204 76
76 204 76
76 204 76
76 204 76
76 204 76
76 204 76
76 204 76
76 204 76
76 204 76
76 204 76
76 204 76
76 204 76
76 204 76
76 204 76
76 204 76
76 204 76
76 204 76
76 204 76
76 204 76
76 204 76
76 204 76
76 204 76
76 204 76
76 204 76
76 204 76
76 204 76
76 204 76
76 204 76
76 204 76
76 204 76
76 204 76
76 204 76
76 204 76
76 204 76
76 204 76
76 204 76
76 204 76
76 204 76
76 204 76
76 204 76
76 204 76
76 204 76
76 204 76
76 204 76
76 204 76
76 204 76
76 204 76
76 204 76
76 204 76
76 204 76
76 204 76
76 204 76
76 204 76
76 204 76
76 204 76
76 204 76
76 204 76
76 204 76
76 204 76
76 204 76
76 204 76
76 204 76
76 204 76
76 204 76
76 204 76
76 204 76
76 204 76
76 204 76
76 204 76
76 204 76
76 204 76
76 204 76
76 204 76
76 204 76
76 204 76
76 204 76
76 204 76
76 204 76
76 204 76
76 204 76
76 204 76
76 204 76
76 204 76
76 204 76
76 204 76
76 204 76
76 204 76
76 204 76
76 204 76
76 204 76
76 204 76
76 204 76
76 204 76
76 204 76
76 204 76
76 204 76
76 204 76
76 204 76
76 204 76
76 204 76
76 204 76
76 204 76
76 204 76
76 204 76
76 204 76
76 204 76
76 204 76
76 204 76
76 204 76
76 204 76
76 204 76
76 204 76
76 204 76
76 204 76
76 204 76
76 204 76
76 204 76
76 204 76
76 204 76
76 204 76
76 204 76
76 204 76
76 204 76
76 204 76
76 204 76
76 204 76
76 204 76
76 204 76
76 204 76
76 204 76
76 204 76
76 204 76
76 204 76
76 204 76
76 204 76
76 204 76
76 204 76
76 204 76
76 204 76
76 204 76
76 204 76
76 204 76
76 204 76
76 204 76
76 204 76
76 204 76
76 204 76
76 204 76
76 204 76
76 204 76
76 204 76
76 204 76
76 204 76
76 204 76
76 204 76
76 204 76
76 204 76
76 204 76
76 204 76
76 204 76
76 204 76
76 204 76
76 204 76
76 204 76
76 204 76
76 204 76
76 204 76
76 204 76
76 204 76
76 204 76
76 204 76
76 204 76
76 204 76
76 204 76
76 204 76
76 204 76
76 204 76
76 204 76
76 204 76
76 204 76
76 204 76
76 204 76
76 204 76
76 204 76
76 204 76
76 204 76
76 204 76
76 204 76
76 204 76
76 204 76
76 204 76
76 204 76
76 204 76
76 204 76
76 204 76
76 204 76
76 204 76
76 204 76
76 204 76
76 204 76
76 204 76
76 204 76
76 204 76
76 204 76
76 204 76
76 204 76
76 204 76
76 204 76
76 204 76
76 204 76
76 204 76
76 204 76
76 204 76
76 204 76
76 204 76
76 204 76
76 204 76
76 204 76
76 204 76
76 204 76
76 204 76
76 204 76
76 204 76
76 204 76
76 204 76
76 204 76
76 204 76
76 204 76
76 204 76
76 204 76
76 204 76
76 204 76
76 204 76
76 204 76
76 204 76
76 204 76
76 204 76
76 204 76
76 204 76
76 204 76
76 204 76
76 204 76
76 204 76
76 204 76
76 204 76
76 204 76
76 204 76
76 204 76
76 204 76
76 204 76
76 204 76
76 204 76
76 204 76
76 204 76
76 204 76
76 204 76
76 204 76
76 204 76
76 204 76
76 204 76
76 204 76
76 204 76
76 204 76
76 204 76
76 204 76
76 204 76
76 204 76
76 204 76
76 204 76
76 204 76
76 204 76
76 204 76
76 204 76
76 204 76
76 204 76
76 204 76
76 204 76
76 204 76
76 204 76
76 204 76
76 204 76
76 204 76
76 204 76
76 204 76
76 204 76
76 204 76
76 204 76
76 204 76
76 204 76
76 204 76
76 204 76
76 204 76
76 204 76
76 204 76
76 204 76
76 204 76
76 204 76
76 204 76
76 204 76
76 204 76
76 204 76
76 204 76
76 204 76
76 204 76
76 204 76
76 204 76
76 204 76
76 204 76
76 204 76
76 204 76
76 204 76
76 204 76
76 204 76
76 204 76
76 204 76
76 204 76
76 204 76
76 204 76
76 204 76
76 204 76
76 204 76
76 204 76
76 204 76
76 204 76
76 204 76
76 204 76
76 204 76
76 204 76
76 204 76
76 204 76
76 204 76
76 204 76
76 204 76
76 204 76
76 204 76
76 204 76
76 204 76
76 204 76
76 204 76
76 204 76
76 204 76
76 204 76
76 204 76
76 204 76
76 204 76
76 204 76
76 204 76
76 204 76
76 204 76
76 204 76
76 204 76
76 204 76
76 204 76
76 204 76
76 204 76
76 204 76
76 204 76
76 204 76
76 204 76
76 204 76
76 204 76
76 204 76
76 204 76
76 204 76
76 204 76
76 204 76
76 204 76
76 204 76
76 204 76
76 204 76
76 204 76
76 204 76
76 204 76
76 204 76
76 204 76
76 204 76
76 204 76
76 204 76
76 204 76
76 204 76
76 204 76
76 204 76
76 204 76
76 204 76
76 204 76
76 204 76
76 204 76
76 204 76
76 204 76
76 204 76
76 204 76
76 204 76
76 204 76
76 204 76
76 204 76
76 204 76
76 204 76
76 204 76
76 204 76
76 204 76
76 204 76
76 204 76
76 204 76
76 204 76
76 204 76
76 204 76
76 204 76
76 204 76
76 204 76
76 204 76
76 204 76
76 204 76
76 204 76
76 204 76
76 204 76
76 204 76
76 204 76
76 204 76
76 204 76
76 204 76
76 204 76
76 204 76
76 204 76
76 204 76
76 204 76
76 204 76
76 204 76
76 204 76
76 204 76
76 204 76
76 204 76
76 204 76
76 204 76
76 204 76
76 204 76
76 204 76
76 204 76
76 204 76
76 204 76
76 204 76
76 204 76
76 204 76
76 204 76
76 204 76
76 204 76
76 204 76
76 204 76
76 204 76
76 204 76
76 204 76
76 204 76
76 204 76
76 204 76
76 204 76
76 204 76
76 204 76
76 204 76
76 204 76
76 204 76
76 204 76
76 204 76
76 204 76
76 204 76
76 204 76
76 204 76
76 204 76
76 204 76
76 204 76
76 204 76
76 204 76
76 204 76
76 204 76
76 204 76
76 204 76
76 204 76
76 204 76
76 204 76
76 204 76
76 204 76
76 204 76
76 204 76
76 204 76
76 204 76
76 204 76
76 204 76
76 204 76
76 204 76
76 204 76
76 204 76
76 204 76
76 204 76
76 204 76
76 204 76
76 204 76
76 204 76
76 204 76
76 204 76
76 204 76
76 204 76
76 204 76
76 204 76
76 204 76
76 204 76
76 204 76
76 204 76
76 204 76
76 204 76
76 204 76
76 204 76
76 204 76
76 204 76
76 204 76
76 204 76
76 204 76
76 204 76
76 204 76
76 204 76
76 204 76
76 204 76
76 204 76
76 204 76
76 204 76
76 204 76
76 204 76
76 204 76
76 204 76
76 204 76
76 204 76
76 204 76
76 204 76
76 204 76
76 204 76
76 204 76
76 204 76
76 204 76
76 204 76
76 204 76
76 204 76
76 204 76
76 204 76
76 204 76
76 204 76
76 204 76
76 204 76
76 204 76
76 204 76
76 204 76
76 204 76
76 204 76
76 204 76
76 204 76
76 204 76
76 204 76
76 204 76
76 204 76
76 204 76
76 204 76
76 204 76
76 204 76
76 204 76
76 204 76
76 204 76
76 204 76
76 204 76
76 204 76
76 204 76
76 204 76
76 204 76
76 204 76
76 204 76
76 204 76
76 204 76
76 204 76
76 204 76
76 204 76
76 204 76
76 204 76
76 204 76
76 204 76
76 204 76
76 204 76
76 204 76
76 204 76
76 204 76
76 204 76
76 204 76
76 204 76
76 204 76
76 204 76
76 204 76
76 204 76
76 204 76
76 204 76
76 204 76
76 204 76
76 204 76
76 204 76
76 204 76
76 204 76
76 204 76
76 204 76
76 204 76
76 204 76
76 204 76
76 204 76
76 204 76
76 204 76
76 204 76
76 204 76
76 204 76
76 204 76
76 204 76
76 204 76
76 204 76
76 204 76
76 204 76
76 204 76
76 204 76
76 204 76
76 204 76
76 204 76
76 204 76
76 204 76
76 204 76
76 204 76
76 204 76
76 204 76
76 204 76
76 204 76
76 204 76
76 204 76
76 204 76
76 204 76
76 204 76
76 204 76
76 204 76
76 204 76
76 204 76
76 204 76
76 204 76
76 204 76
76 204 76
76 204 76
76 204 76
76 204 76
76 204 76
76 204 76
76 204 76
76 204 76
76 204 76
76 204 76
76 204 76
76 204 76
76 204 76
76 204 76
76 204 76
76 204 76
76 204 76
76 204 76
76 204 76
76 204 76
76 204 76
76 204 76
76 204 76
76 204 76
76 204 76
76 204 76
76 204 76
76 204 76
76 204 76
76 204 76
76 204 76
76 204 76
76 204 76
76 204 76
76 204 76
76 204 76
76 204 76
76 204 76
76 204 76
76 204 76
76 204 76
76 204 76
76 204 76
76 204 76
76 204 76
76 204 76
76 204 76
76 204 76
76 204 76
76 204 76
76 204 76
76 204 76
76 204 76
76 204 76
76 204 76
76 204 76
76 204 76
76 204 76
76 204 76
76 204 76
76 204 76
76 204 76
76 204 76
76 204 76
76 204 76
76 204 76
76 204 76
76 204 76
76 204 76
76 204 76
76 204 76
76 204 76
76 204 76
76 204 76
76 204 76
76 204 76
76 204 76
76 204 76
76 204 76
76 204 76
76 204 76
76 204 76
76 204 76
76 204 76
76 204 76
76 204 76
76 204 76
76 204 76
76 204 76
76 204 76
76 204 76
76 204 76
76 204 76
76 204 76
76 204 76
76 204 76
76 204 76
76 204 76
76 204 76
76 204 76
76 204 76
76 204 76
76 204 76
76 204 76
76 204 76
76 204 76
76 204 76
76 204 76
76 204 76
76 204 76
76 204 76
76 204 76
76 204 76
76 204 76
76 204 76
76 204 76
76 204 76
76 204 76
76 204 76
76 204 76
76 204 76
76 204 76
76 204 76
76 204 76
76 204 76
76 204 76
76 204 76
76 204 76
76 204 76
76 204 76
76 204 76
76 204 76
76 204 76
76 204 76
76 204 76
76 204 76
76 204 76
76 204 76
76 204 76
76 204 76
76 204 76
76 204 76
76 204 76
76 204 76
76 204 76
76 204 76
76 204 76
76 204 76
76 204 76
76 204 76
76 204 76
76 204 76
76 204 76
76 204 76
76 204 76
76 204 76
76 204 76
76 204 76
76 204 76
76 204 76
76 204 76
76 204 76
76 204 76
76 204 76
76 204 76
76 204 76
76 204 76
76 204 76
76 204 76
76 204 76
76 204 76
76 204 76
76 204 76
76 204 76
76 204 76
76 204 76
76 204 76
76 204 76
76 204 76
76 204 76
76 204 76
76 204 76
76 204 76
76 204 76
76 204 76
76 204 76
76 204 76
76 204 76
76 204 76
76 204 76
76 204 76
76 204 76
76 204 76
76 204 76
76 204 76
76 204 76
76 204 76
76 204 76
76 204 76
76 204 76
76 204 76
76 204 76
76 204 76
76 204 76
76 204 76
76 204 76
76 204 76
76 204 76
76 204 76
76 204 76
76 204 76
76 204 76
76 204 76
76 204 76
76 204 76
76 204 76
76 204 76
76 204 76
76 204 76
76 204 76
76 204 76
76 204 76
76 204 76
76 204 76
76 204 76
76 204 76
76 204 76
76 204 76
76 204 76
76 204 76
76 204 76
76 204 76
76 204 76
76 204 76
76 204 76
76 204 76
76 204 76
76 204 76
76 204 76
76 204 76
76 204 76
76 204 76
76 204 76
76 204 76
76 204 76
76 204 76
76 204 76
76 204 76
76 204 76
76 204 76
76 204 76
76 204 76
76 204 76
76 204 76
76 204 76
76 204 76
76 204 76
76 204 76
76 204 76
76 204 76
76 204 76
76 204 76
76 204 76
76 204 76
76 204 76
76 204 76
76 204 76
76 204 76
76 204 76
76 204 76
76 204 76
76 204 76
76 204 76
76 204 76
76 204 76
76 204 76
76 204 76
76 204 76
76 204 76
76 204 76
76 204 76
76 204 76
76 204 76
76 204 76
76 204 76
76 204 76
76 204 76
76 204 76
76 204 76
76 204 76
76 204 76
76 204 76
76 204 76
76 204 76
76 204 76
76 204 76
76 204 76
76 204 76
76 204 76
76 204 76
76 204 76
76 204 76
76 204 76
76 204 76
76 204 76
76 204 76
76 204 76
76 204 76
76 204 76
76 204 76
76 204 76
76 204 76
76 204 76
76 204 76
76 204 76
76 204 76
76 204 76
76 204 76
76 204 76
76 204 76
76 204 76
76 204 76
76 204 76
76 204 76
76 204 76
76 204 76
76 204 76
76 204 76
76 204 76
76 204 76
76 204 76
76 204 76
76 204 76
76 204 76
76 204 76
76 204 76
76 204 76
76 204 76
76 204 76
76 204 76
76 204 76
76 204 76
76 204 76
76 204 76
76 204 76
76 204 76
76 204 76
76 204 76
76 204 76
76 204 76
76 204 76
76 204 76
76 204 76
76 204 76
76 204 76
76 204 76
76 204 76
76 204 76
76 204 76
76 204 76
76 204 76
76 204 76
76 204 76
76 204 76
76 204 76
76 204 76
76 204 76
76 204 76
76 204 76
76 204 76
76 204 76
76 204 76
76 204 76
76 204 76
76 204 76
76 204 76
76 204 76
76 204 76
76 204 76
76 204 76
76 204 76
76 204 76
76 204 76
76 204 76
76 204 76
76 204 76
76 204 76
76 204 76
76 204 76
76 204 76
76 204 76
76 204 76
76 204 76
76 204 76
76 204 76
76 204 76
76 204 76
76 204 76
76 204 76
76 204 76
76 204 76
76 204 76
76 204 76
76 204 76
76 204 76
76 204 76
76 204 76
76 204 76
76 204 76
76 204 76
76 204 76
76 204 76
76 204 76
76 204 76
76 204 76
76 204 76
76 204 76
76 204 76
76 204 76
76 204 76
76 204 76
76 204 76
76 204 76
76 204 76
76 204 76
76 204 76
76 204 76
76 204 76
76 204 76
76 204 76
76 204 76
76 204 76
76 204 76
76 204 76
76 204 76
76 204 76
76 204 76
76 204 76
76 204 76
76 204 76
76 204 76
76 204 76
76 204 76
76 204 76
76 204 76
76 204 76
76 204 76
76 204 76
76 204 76
76 204 76
76 204 76
76 204 76
76 204 76
76 204 76
76 204 76
76 204 76
76 204 76
76 204 76
76 204 76
76 204 76
76 204 76
76 204 76
76 204 76
76 204 76
76 204 76
76 204 76
76 204 76
76 204 76
76 204 76
76 204 76
76 204 76
76 204 76
76 204 76
76 204 76
76 204 76
76 204 76
76 204 76
76 204 76
76 204 76
76 204 76
76 204 76
76 204 76
76 204 76
76 204 76
76 204 76
76 204 76
76 204 76
76 204 76
76 204 76
76 204 76
76 204 76
76 204 76
76 204 76
76 204 76
76 204 76
76 204 76
76 204 76
76 204 76
76 204 76
76 204 76
76 204 76
76 204 76
76 204 76
76 204 76
76 204 76
76 204 76
76 204 76
76 204 76
76 204 76
76 204 76
76 204 76
76 204 76
76 204 76
76 204 76
76 204 76
76 204 76
76 204 76
76 204 76
76 204 76
76 204 76
76 204 76
76 204 76
76 204 76
76 204 76
76 204 76
76 204 76
76 204 76
76 204 76
76 204 76
76 204 76
76 204 76
76 204 76
76 204 76
76 204 76
76 204 76
76 204 76
76 204 76
76 204 76
76 204 76
76 204 76
76 204 76
76 204 76
76 204 76
76 204 76
76 204 76
76 204 76
76 204 76
76 204 76
76 204 76
76 204 76
76 204 76
76 204 76
76 204 76
76 204 76
76 204 76
76 204 76
76 204 76
76 204 76
76 204 76
76 204 76
76 204 76
76 204 76
76 204 76
76 204 76
76 204 76
76 204 76
76 204 76
76 204 76
76 204 76
76 204 76
76 204 76
76 204 76
76 204 76
76 204 76
76 204 76
76 204 76
76 204 76
76 204 76
76 204 76
76 204 76
76 204 76
76 204 76
76 204 76
76 204 76
76 204 76
76 204 76
76 204 76
76 204 76
76 204 76
76 204 76
76 204 76
76 204 76
76 204 76
76 204 76
76 204 76
76 204 76
76 204 76
76 204 76
76 204 76
76 204 76
76 204 76
76 204 76
76 204 76
76 204 76
76 204 76
76 204 76
76 204 76
76 204 76
76 204 76
76 204 76
76 204 76
76 204 76
76 204 76
76 204 76
76 204 76
76 204 76
76 204 76
76 204 76
76 204 76
76 204 76
76 204 76
76 204 76
76 204 76
76 204 76
76 204 76
76 204 76
76 204 76
76 204 76
76 204 76
76 204 76
76 204 76
76 204 76
76 204 76
76 204 76
76 204 76
76 204 76
76 204 76
76 204 76
76 204 76
76 204 76
76 204 76
76 204 76
76 204 76
76 204 76
76 204 76
76 204 76
76 204 76
76 204 76
76 204 76
76 204 76
76 204 76
76 204 76
76 204 76
76 204 76
76 204 76
76 204 76
76 204 76
76 204 76
76 204 76
76 204 76
76 204 76
76 204 76
76 204 76
76 204 76
76 204 76
76 204 76
76 204 76
76 204 76
76 204 76
76 204 76
76 204 76
76 204 76
76 204 76
76 204 76
76 204 76
76 204 76
76 204 76
76 204 76
76 204 76
76 204 76
76 204 76
76 204 76
76 204 76
76 204 76
76 204 76
76 204 76
76 204 76
76 204 76
76 204 76
76 204 76
76 204 76
76 204 76
76 204 76
76 204 76
76 204 76
76 204 76
76 204 76
76 204 76
76 204 76
76 204 76
76 204 76
76 204 76
76 204 76
76 204 76
76 204 76
76 204 76
76 204 76
76 204 76
76 204 76
76 204 76
76 204 76
76 204 76
76 204 76
76 204 76
76 204 76
76 204 76
76 204 76
76 204 76
76 204 76
76 204 76
76 204 76
76 204 76
76 204 76
76 204 76
76 204 76
76 204 76
76 204 76
76 204 76
76 204 76
76 204 76
76 204 76
76 204 76
76 204 76
76 204 76
76 204 76
76 204 76
76 204 76
76 204 76
76 204 76
76 204 76
76 204 76
76 204 76
76 204 76
76 204 76
76 204 76
76 204 76
76 204 76
76 204 76
76 204 76
76 204 76
76 204 76
76 204 76
76 204 76
76 204 76
76 204 76
76 204 76
76 204 76
76 204 76
76 204 76
76 204 76
76 204 76
76 204 76
76 204 76
76 204 76
76 204 76
76 204 76
76 204 76
76 204 76
76 204 76
76 204 76
76 204 76
76 204 76
76 204 76
76 204 76
76 204 76
76 204 76
76 204 76
76 204 76
76 204 76
76 204 76
76 204 76
76 204 76
76 204 76
76 204 76
76 204 76
76 204 76
76 204 76
76 204 76
76 204 76
76 204 76
76 204 76
76 204 76
76 204 76
76 204 76
76 204 76
76 204 76
76 204 76
76 204 76
76 204 76
76 204 76
76 204 76
76 204 76
76 204 76
76 204 76
76 204 76
76 204 76
76 204 76
76 204 76
76 204 76
76 204 76
76 204 76
76 204 76
76 204 76
76 204 76
76 204 76
76 204 76
76 204 76
76 204 76
76 204 76
76 204 76
76 204 76
76 204 76
76 204 76
76 204 76
76 204 76
76 204 76
76 204 76
76 204 76
76 204 76
76 204 76
76 204 76
76 204 76
76 204 76
76 204 76
76 204 76
76 204 76
76 204 76
76 204 76
76 204 76
76 204 76
76 204 76
76 204 76
76 204 76
76 204 76
76 204 76
76 204 76
76 204 76
76 204 76
76 204 76
76 204 76
76 204 76
76 204 76
76 204 76
76 204 76
76 204 76
76 204 76
76 204 76
76 204 76
76 204 76
76 204 76
76 204 76
76 204 76
76 204 76
76 204 76
76 204 76
76 204 76
76 204 76
76 204 76
76 204 76
76 204 76
76 204 76
76 204 76
76 204 76
76 204 76
76 204 76
76 204 76
76 204 76
76 204 76
76 204 76
76 204 76
76 204 76
76 204 76
76 204 76
76 204 76
76 204 76
76 204 76
76 204 76
76 204 76
76 204 76
76 204 76
76 204 76
76 204 76
76 204 76
76 204 76
76 204 76
76 204 76
76 204 76
76 204 76
76 204 76
76 204 76
76 204 76
76 204 76
76 204 76
76 204 76
76 204 76
76 204 76
76 204 76
76 204 76
76 204 76
76 204 76
76 204 76
76 204 76
76 204 76
76 204 76
76 204 76
76 204 76
76 204 76
76 204 76
76 204 76
76 204 76
76 204 76
76 204 76
76 204 76
76 204 76
76 204 76
76 204 76
76 204 76
76 204 76
76 204 76
76 204 76
76 204 76
76 204 76
76 204 76
76 204 76
76 204 76
76 204 76
76 204 76
76 204 76
76 204 76
76 204 76
76 204 76
76 204 76
76 204 76
76 204 76
76 204 76
76 204 76
76 204 76
76 204 76
76 204 76
76 204 76
76 204 76
76 204 76
76 204 76
76 204 76
76 204 76
76 204 76
76 204 76
76 204 76
76 204 76
76 204 76
76 204 76
76 204 76
76 204 76
76 204 76
76 204 76
76 204 76
76 204 76
76 204 76
76 204 76
76 204 76
76 204 76
76 204 76
76 204 76
76 204 76
76 204 76
76 204 76
76 204 76
76 204 76
76 204 76
76 204 76
76 204 76
76 204 76
76 204 76
76 204 76
76 204 76
76 204 76
76 204 76
76 204 76
76 204 76
76 204 76
76 204 76
76 204 76
76 204 76
76 204 76
76 204 76
76 204 76
76 204 76
76 204 76
76 204 76
76 204 76
76 204 76
76 204 76
76 204 76
76 204 76
76 204 76
76 204 76
76 204 76
76 204 76
76 204 76
76 204 76
76 204 76
76 204 76
76 204 76
76 204 76
76 204 76
76 204 76
76 204 76
76 204 76
76 204 76
76 204 76
76 204 76
76 204 76
76 204 76
76 204 76
76 204 76
76 204 76
76 204 76
76 204 76
76 204 76
76 204 76
76 204 76
76 204 76
76 204 76
76 204 76
76 204 76
76 204 76
76 204 76
76 204 76
76 204 76
76 204 76
76 204 76
76 204 76
76 204 76
76 204 76
76 204 76
76 204 76
76 204 76
76 204 76
76 204 76
76 204 76
76 204 76
76 204 76
76 204 76
76 204 76
76 204 76
76 204 76
76 204 76
76 204 76
76 204 76
76 204 76
76 204 76
76 204 76
76 204 76
76 204 76
76 204 76
76 204 76
76 204 76
76 204 76
76 204 76
76 204 76
76 204 76
76 204 76
76 204 76
76 204 76
76 204 76
76 204 76
76 204 76
76 204 76
76 204 76
76 204 76
76 204 76
76 204 76
76 204 76
76 204 76
76 204 76
76 204 76
76 204 76
76 204 76
76 204 76
76 204 76
76 204 76
76 204 76
76 204 76
76 204 76
76 204 76
76 204 76
76 204 76
76 204 76
76 204 76
76 204 76
76 204 76
76 204 76
76 204 76
76 204 76
76 204 76
76 204 76
76 204 76
76 204 76
76 204 76
76 204 76
76 204 76
76 204 76
76 204 76
76 204 76
76 204 76
76 204 76
76 204 76
76 204 76
76 204 76
76 204 76
76 204 76
76 204 76
76 204 76
76 204 76
76 204 76
76 204 76
76 204 76
76 204 76
76 204 76
76 204 76
76 204 76
76 204 76
76 204 76
76 204 76
76 204 76
76 204 76
76 204 76
76 204 76
76 204 76
76 204 76
76 204 76
76 204 76
76 204 76
76 204 76
76 204 76
76 204 76
76 204 76
76 204 76
76 204 76
76 204 76
76 204 76
76 204 76
76 204 76
76 204 76
76 204 76
76 204 76
76 204 76
76 204 76
76 204 76
76 204 76
76 204 76
76 204 76
76 204 76
76 204 76
76 204 76
76 204 76
76 204 76
76 204 76
76 204 76
76 204 76
76 204 76
76 204 76
76 204 76
76 204 76
76 204 76
76 204 76
76 204 76
76 204 76
76 204 76
76 204 76
76 204 76
76 204 76
76 204 76
76 204 76
76 204 76
76 204 76
76 204 76
76 204 76
76 204 76
76 204 76
76 204 76
76 204 76
76 204 76
76 204 76
76 204 76
76 204 76
76 204 76
76 204 76
76 204 76
76 204 76
76 204 76
76 204 76
76 204 76
76 204 76
76 204 76
76 204 76
76 204 76
76 204 76
76 204 76
76 204 76
76 204 76
76 204 76
76 204 76
76 204 76
76 204 76
76 204 76
76 204 76
76 204 76
76 204 76
76 204 76
76 204 76
76 204 76
76 204 76
76 204 76
76 204 76
76 204 76
76 204 76
76 204 76
76 204 76
76 204 76
76 204 76
76 204 76
76 204 76
76 204 76
76 204 76
76 204 76
76 204 76
76 204 76
76 204 76
76 204 76
76 204 76
76 204 76
76 204 76
76 204 76
76 204 76
76 204 76
76 204 76
76 204 76
76 204 76
76 204 76
76 204 76
76 204 76
76 204 76
76 204 76
76 204 76
76 204 76
76 204 76
76 204 76
76 204 76
76 204 76
76 204 76
76 204 76
76 204 76
76 204 76
76 204 76
76 204 76
76 204 76
76 204 76
76 204 76
76 204 76
76 204 76
76 204 76
76 204 76
76 204 76
76 204 76
76 204 76
76 204 76
76 204 76
76 204 76
76 204 76
76 204 76
76 204 76
76 204 76
76 204 76
76 204 76
76 204 76
76 204 76
76 204 76
76 204 76
76 204 76
76 204 76
76 204 76
76 204 76
76 204 76
76 204 76
76 204 76
76 204 76
76 204 76
76 204 76
76 204 76
76 204 76
76 204 76
76 204 76
76 204 76
76 204 76
76 204 76
76 204 76
76 204 76
76 204 76
76 204 76
76 204 76
76 204 76
76 204 76
76 204 76
76 204 76
76 204 76
76 204 76
76 204 76
76 204 76
76 204 76
76 204 76
76 204 76
76 204 76
76 204 76
76 204 76
76 204 76
76 204 76
76 204 76
76 204 76
76 204 76
76 204 76
76 204 76
76 204 76
76 204 76
76 204 76
76 204 76
76 204 76
76 204 76
76 204 76
76 204 76
76 204 76
76 204 76
76 204 76
76 204 76
76 204 76
76 204 76
76 204 76
76 204 76
76 204 76
76 204 76
76 204 76
76 204 76
76 204 76
76 204 76
76 204 76
76 204 76
76 204 76
76 204 76
76 204 76
76 204 76
76 204 76
76 204 76
76 204 76
76 204 76
76 204 76
76 204 76
76 204 76
76 204 76
76 204 76
76 204 76
76 204 76
76 204 76
76 204 76
76 204 76
76 204 76
76 204 76
76 204 76
76 204 76
76 204 76
76 204 76
76 204 76
76 204 76
76 204 76
76 204 76
76 204 76
76 204 76
76 204 76
76 204 76
76 204 76
76 204 76
76 204 76
76 204 76
76 204 76
76 204 76
76 204 76
76 204 76
76 204 76
76 204 76
76 204 76
76 204 76
76 204 76
76 204 76
76 204 76
76 204 76
76 204 76
76 204 76
76 204 76
76 204 76
76 204 76
76 204 76
76 204 76
76 204 76
76 204 76
76 204 76
76 204 76
76 204 76
76 204 76
76 204 76
76 204 76
76 204 76
76 204 76
76 204 76
76 204 76
76 204 76
76 204 76
76 204 76
76 204 76
76 204 76
76 204 76
76 204 76
76 204 76
76 204 76
76 204 76
76 204 76
76 204 76
76 204 76
76 204 76
76 204 76
76 204 76
76 204 76
76 204 76
76 204 76
76 204 76
76 204 76
76 204 76
76 204 76
76 204 76
76 204 76
76 204 76
76 204 76
76 204 76
76 204 76
76 204 76
76 204 76
76 204 76
76 204 76
76 204 76
76 204 76
76 204 76
76 204 76
76 204 76
76 204 76
76 204 76
76 204 76
76 204 76
76 204 76
76 204 76
76 204 76
76 204 76
76 204 76
76 204 76
76 204 76
76 204 76
76 204 76
76 204 76
76 204 76
76 204 76
76 204 76
76 204 76
76 204 76
76 204 76
76 204 76
76 204 76
76 204 76
76 204 76
76 204 76
76 204 76
76 204 76
76 204 76
76 204 76
76 204 76
76 204 76
76 204 76
76 204 76
76 204 76
76 204 76
76 204 76
76 204 76
76 204 76
76 204 76
76 204 76
76 204 76
76 204 76
76 204 76
76 204 76
76 204 76
76 204 76
76 204 76
76 204 76
76 204 76
76 204 76
76 204 76
76 204 76
76 204 76
76 204 76
76 204 76
76 204 76
76 204 76
76 204 76
76 204 76
76 204 76
76 204 76
76 204 76
76 204 76
76 204 76
76 204 76
76 204 76
76 204 76
76 204 76
76 204 76
76 204 76
76 204 76
76 204 76
76 204 76
76 204 76
76 204 76
76 204 76
76 204 76
76 204 76
76 204 76
76 204 76
76 204 76
76 204 76
76 204 76
76 204 76
76 204 76
76 204 76
76 204 76
76 204 76
76 204 76
76 204 76
76 204 76
76 204 76
76 204 76
76 204 76
76 204 76
76 204 76
76 204 76
76 204 76
76 204 76
76 204 76
76 204 76
76 204 76
76 204 76
76 204 76
76 204 76
76 204 76
76 204 76
76 204 76
76 204 76
76 204 76
76 204 76
76 204 76
76 204 76
76 204 76
76 204 76
76 204 76
76 204 76
76 204 76
76 204 76
76 204 76
76 204 76
76 204 76
76 204 76
76 204 76
76 204 76
76 204 76
76 204 76
76 204 76
76 204 76
76 204 76
76 204 76
76 204 76
76 204 76
76 204 76
76 204 76
76 204 76
76 204 76
76 204 76
76 204 76
76 204 76
76 204 76
76 204 76
76 204 76
76 204 76
76 204 76
76 204 76
76 204 76
76 204 76
76 204 76
76 204 76
76 204 76
76 204 76
76 204 76
76 204 76
76 204 76
76 204 76
76 204 76
76 204 76
76 204 76
76 204 76
76 204 76
76 204 76
76 204 76
76 204 76
76 204 76
76 204 76
76 204 76
76 204 76
76 204 76
76 204 76
76 204 76
76 204 76
76 204 76
76 204 76
76 204 76
76 204 76
76 204 76
76 204 76
76 204 76
76 204 76
76 204 76
76 204 76
76 204 76
76 204 76
76 204 76
76 204 76
76 204 76
76 204 76
76 204 76
76 204 76
76 204 76
76 204 76
76 204 76
76 204 76
76 204 76
76 204 76
76 204 76
76 204 76
76 204 76
76 204 76
76 204 76
76 204 76
76 204 76
76 204 76
76 204 76
76 204 76
76 204 76
76 204 76
76 204 76
76 204 76
76 204 76
76 204 76
76 204 76
76 204 76
76 204 76
76 204 76
76 204 76
76 204 76
76 204 76
76 204 76
76 204 76
76 204 76
76 204 76
76 204 76
76 204 76
76 204 76
76 204 76
76 204 76
76 204 76
76 204 76
76 204 76
76 204 76
76 204 76
76 204 76
76 204 76
76 204 76
76 204 76
76 204 76
76 204 76
76 204 76
76 204 76
76 204 76
76 204 76
76 204 76
76 204 76
76 204 76
76 204 76
76 204 76
76 204 76
76 204 76
76 204 76
76 204 76
76 204 76
76 204 76
76 204 76
76 204 76
76 204 76
76 204 76
76 204 76
76 204 76
76 204 76
76 204 76
76 204 76
76 204 76
76 204 76
76 204 76
76 204 76
76 204 76
76 204 76
76 204 76
76 204 76
76 204 76
76 204 76
76 204 76
76 204 76
76 204 76
76 204 76
76 204 76
76 204 76
76 204 76
76 204 76
76 204 76
76 204 76
76 204 76
76 204 76
76 204 76
76 204 76
76 204 76
76 204 76
76 204 76
76 204 76
76 204 76
76 204 76
76 204 76
76 204 76
76 204 76
76 204 76
76 204 76
76 204 76
76 204 76
76 204 76
76 204 76
76 204 76
76 204 76
76 204 76
76 204 76
76 204 76
76 204 76
76 204 76
76 204 76
76 204 76
76 204 76
76 204 76
76 204 76
76 204 76
76 204 76
76 204 76
76 204 76
76 204 76
76 204 76
76 204 76
76 204 76
76 204 76
76 204 76
76 204 76
76 204 76
76 204 76
76 204 76
76 204 76
76 204 76
76 204 76
76 204 76
76 204 76
76 204 76
76 204 76
76 204 76
76 204 76
76 204 76
76 204 76
76 204 76
76 204 76
76 204 76
76 204 76
76 204 76
76 204 76
76 204 76
76 204 76
76 204 76
76 204 76
76 204 76
76 204 76
76 204 76
76 204 76
76 204 76
76 204 76
76 204 76
76 204 76
76 204 76
76 204 76
76 204 76
76 204 76
76 204 76
76 204 76
76 204 76
76 204 76
76 204 76
76 204 76
76 204 76
76 204 76
76 204 76
76 204 76
76 204 76
76 204 76
76 204 76
76 204 76
76 204 76
76 204 76
76 204 76
76 204 76
76 204 76
76 204 76
76 204 76
76 204 76
76 204 76
76 204 76
76 204 76
76 204 76
76 204 76
76 204 76
76 204 76
76 204 76
76 204 76
76 204 76
76 204 76
76 204 76
76 204 76
76 204 76
76 204 76
76 204 76
76 204 76
76 204 76
76 204 76
76 204 76
76 204 76
76 204 76
76 204 76
76 204 76
76 204 76
76 204 76
76 204 76
76 204 76
76 204 76
76 204 76
76 204 76
76 204 76
76 204 76
76 204 76
76 204 76
76 204 76
76 204 76
76 204 76
76 204 76
76 204 76
76 204 76
76 204 76
76 204 76
76 204 76
76 204 76
76 204 76
76 204 76
76 204 76
76 204 76
76 204 76
76 204 76
76 204 76
76 204 76
76 204 76
76 204 76
76 204 76
76 204 76
76 204 76
76 204 76
76 204 76
76 204 76
76 204 76
76 204 76
76 204 76
76 204 76
76 204 76
76 204 76
76 204 76
76 204 76
76 204 76
76 204 76
76 204 76
76 204 76
76 204 76
76 204 76
76 204 76
76 204 76
76 204 76
76 204 76
76 204 76
76 204 76
76 204 76
76 204 76
76 204 76
76 204 76
76 204 76
76 204 76
76 204 76
76 204 76
76 204 76
76 204 76
76 204 76
76 204 76
76 204 76
76 204 76
76 204 76
76 204 76
76 204 76
76 204 76
76 204 76
76 204 76
76 204 76
76 204 76
76 204 76
76 204 76
76 204 76
76 204 76
76 204 76
76 204 76
76 204 76
76 204 76
76 204 76
76 204 76
76 204 76
76 204 76
76 204 76
76 204 76
76 204 76
76 204 76
76 204 76
76 204 76
76 204 76
76 204 76
76 204 76
76 204 76
76 204 76
76 204 76
76 204 76
76 204 76
76 204 76
76 204 76
76 204 76
76 204 76
76 204 76
76 204 76
76 204 76
76 204 76
76 204 76
76 204 76
76 204 76
76 204 76
76 204 76
76 204 76
76 204 76
76 204 76
76 204 76
76 204 76
76 204 76
76 204 76
76 204 76
76 204 76
76 204 76
76 204 76
76 204 76
76 204 76
76 204 76
76 204 76
76 204 76
76 204 76
76 204 76
76 204 76
76 204 76
76 204 76
76 204 76
76 204 76
76 204 76
76 204 76
76 204 76
76 204 76
76 204 76
76 204 76
76 204 76
76 204 76
76 204 76
76 204 76
76 204 76
76 204 76
76 204 76
76 204 76
76 204 76
76 204 76
76 204 76
76 204 76
76 204 76
76 204 76
76 204 76
76 204 76
76 204 76
76 204 76
76 204 76
76 204 76
76 204 76
76 204 76
76 204 76
76 204 76
76 204 76
76 204 76
76 204 76
76 204 76
76 204 76
76 204 76
76 204 76
76 204 76
76 204 76
76 204 76
76 204 76
76 204 76
76 204 76
76 204 76
76 204 76
76 204 76
76 204 76
76 204 76
76 204 76
76 204 76
76 204 76
76 204 76
76 204 76
76 204 76
76 204 76
76 204 76
76 204 76
76 204 76
76 204 76
76 204 76
76 204 76
76 204 76
76 204 76
76 204 76
76 204 76
76 204 76
76 204 76
76 204 76
76 204 76
76 204 76
76 204 76
76 204 76
76 204 76
76 204 76
76 204 76
76 204 76
76 204 76
76 204 76
76 204 76
76 204 76
76 204 76
76 204 76
76 204 76
76 204 76
76 204 76
76 204 76
76 204 76
76 204 76
76 204 76
76 204 76
76 204 76
76 204 76
76 204 76
76 204 76
76 204 76
76 204 76
76 204 76
76 204 76
76 204 76
76 204 76
76 204 76
76 204 76
76 204 76
76 204 76
76 204 76
76 204 76
76 204 76
76 204 76
76 204 76
76 204 76
76 204 76
76 204 76
76 204 76
76 204 76
76 204 76
76 204 76
76 204 76
76 204 76
76 204 76
76 204 76
76 204 76
76 204 76
76 204 76
76 204 76
76 204 76
76 204 76
76 204 76
76 204 76
76 204 76
76 204 76
76 204 76
76 204 76
76 204 76
76 204 76
76 204 76
76 204 76
76 204 76
76 204 76
76 204 76
76 204 76
76 204 76
76 204 76
76 204 76
76 204 76
76 204 76
76 204 76
76 204 76
76 204 76
76 204 76
76 204 76
76 204 76
76 204 76
76 204 76
76 204 76
76 204 76
76 204 76
76 204 76
76 204 76
76 204 76
76 204 76
76 204 76
76 204 76
76 204 76
76 204 76
76 204 76
76 204 76
76 204 76
76 204 76
76 204 76
76 204 76
76 204 76
76 204 76
76 204 76
76 204 76
76 204 76
76 204 76
76 204 76
76 204 76
76 204 76
76 204 76
76 204 76
76 204 76
76 204 76
76 204 76
76 204 76
76 204 76
76 204 76
76 204 76
76 204 76
76 204 76
76 204 76
76 204 76
76 204 76
76 204 76
76 204 76
76 204 76
76 204 76
76 204 76
76 204 76
76 204 76
76 204 76
76 204 76
76 204 76
76 204 76
76 204 76
76 204 76
76 204 76
76 204 76
76 204 76
76 204 76
76 204 76
76 204 76
76 204 76
76 204 76
76 204 76
76 204 76
76 204 76
76 204 76
76 204 76
76 204 76
76 204 76
76 204 76
76 204 76
76 204 76
76 204 76
76 204 76
76 204 76
76 204 76
76 204 76
76 204 76
76 204 76
76 204 76
76 204 76
76 204 76
76 204 76
76 204 76
76 204 76
76 204 76
76 204 76
76 204 76
76 204 76
76 204 76
76 204 76
76 204 76
76 204 76
76 204 76
76 204 76
76 204 76
76 204 76
76 204 76
76 204 76
76 204 76
76 204 76
76 204 76
76 204 76
76 204 76
76 204 76
76 204 76
76 204 76
76 204 76
76 204 76
76 204 76
76 204 76
76 204 76
76 204 76
76 204 76
76 204 76
76 204 76
76 204 76
76 204 76
76 204 76
76 204 76
76 204 76
76 204 76
76 204 76
76 204 76
76 204 76
76 204 76
76 204 76
76 204 76
76 204 76
76 204 76
76 204 76
76 204 76
76 204 76
76 204 76
76 204 76
76 204 76
76 204 76
76 204 76
76 204 76
76 204 76
76 204 76
76 204 76
76 204 76
76 204 76
76 204 76
76 204 76
76 204 76
76 204 76
76 204 76
76 204 76
76 204 76
76 204 76
76 204 76
76 204 76
76 204 76
76 204 76
76 204 76
76 204 76
76 204 76
76 204 76
76 204 76
76 204 76
76 204 76
76 204 76
76 204 76
76 204 76
76 204 76
76 204 76
76 204 76
76 204 76
76 204 76
76 204 76
76 204 76
76 204 76
76 204 76
76 204 76
76 204 76
76 204 76
76 204 76
76 204 76
76 204 76
76 204 76
76 204 76
76 204 76
76 204 76
76 204 76
76 204 76
76 204 76
76 204 76
76 204 76
76 204 76
76 204 76
76 204 76
76 204 76
76 204 76
76 204 76
76 204 76
76 204 76
76 204 76
76 204 76
76 204 76
76 204 76
76 204 76
76 204 76
76 204 76
76 204 76
76 204 76
76 204 76
76 204 76
76 204 76
76 204 76
76 204 76
76 204 76
76 204 76
76 204 76
76 204 76
76 204 76
76 204 76
76 204 76
76 204 76
76 204 76
76 204 76
76 204 76
76 204 76
76 204 76
76 204 76
76 204 76
76 204 76
76 204 76
76 204 76
76 204 76
76 204 76
76 204 76
76 204 76
76 204 76
76 204 76
76 204 76
76 204 76
76 204 76
76 204 76
76 204 76
76 204 76
76 204 76
76 204 76
76 204 76
76 204 76
76 204 76
76 204 76
76 204 76
76 204 76
76 204 76
76 204 76
76 204 76
76 204 76
76 204 76
76 204 76
76 204 76
76 204 76
76 204 76
76 204 76
76 204 76
76 204 76
76 204 76
76 204 76
76 204 76
76 204 76
76 204 76
76 204 76
76 204 76
76 204 76
76 204 76
76 204 76
76 204 76
76 204 76
76 204 76
76 204 76
76 204 76
76 204 76
76 204 76
76 204 76
76 204 76
76 204 76
76 204 76
76 204 76
76 204 76
76 204 76
76 204 76
76 204 76
76 204 76
76 204 76
76 204 76
76 204 76
76 204 76
76 204 76
76 204 76
76 204 76
76 204 76
76 204 76
76 204 76
76 204 76
76 204 76
76 204 76
76 204 76
76 204 76
76 204 76
76 204 76
76 204 76
76 204 76
76 204 76
76 204 76
76 204 76
76 204 76
76 204 76
76 204 76
76 204 76
76 204 76
76 204 76
76 204 76
76 204 76
76 204 76
76 204 76
76 204 76
76 204 76
76 204 76
76 204 76
76 204 76
76 204 76
76 204 76
76 204 76
76 204 76
76 204 76
76 204 76
76 204 76
76 204 76
76 204 76
76 204 76
76 204 76
76 204 76
76 204 76
76 204 76
76 204 76
76 204 76
76 204 76
76 204 76
76 204 76
76 204 76
76 204 76
76 204 76
76 204 76
76 204 76
76 204 76
76 204 76
76 204 76
76 204 76
76 204 76
76 204 76
76 204 76
76 204 76
76 204 76
76 204 76
76 204 76
76 204 76
76 204 76
76 204 76
76 204 76
76 204 76
76 204 76
76 204 76
76 204 76
76 204 76
76 204 76
76 204 76
76 204 76
76 204 76
76 204 76
76 204 76
76 204 76
76 204 76
76 204 76
76 204 76
76 204 76
76 204 76
76 204 76
76 204 76
76 204 76
76 204 76
76 204 76
76 204 76
76 204 76
76 204 76
76 204 76
76 204 76
76 204 76
76 204 76
76 204 76
76 204 76
76 204 76
76 204 76
76 204 76
76 204 76
76 204 76
76 204 76
76 204 76
76 204 76
76 204 76
76 204 76
76 204 76
76 204 76
76 204 76
76 204 76
76 204 76
76 204 76
76 204 76
76 204 76
76 204 76
76 204 76
76 204 76
76 204 76
76 204 76
76 204 76
76 204 76
76 204 76
76 204 76
76 204 76
76 204 76
76 204 76
76 204 76
76 204 76
76 204 76
76 204 76
76 204 76
76 204 76
76 204 76
76 204 76
76 204 76
76 204 76
76 204 76
76 204 76
76 204 76
76 204 76
76 204 76
76 204 76
76 204 76
76 204 76
76 204 76
76 204 76
76 204 76
76 204 76
76 204 76
76 204 76
76 204 76
76 204 76
76 204 76
76 204 76
76 204 76
76 204 76
76 204 76
76 204 76
76 204 76
76 204 76
76 204 76
76 204 76
76 204 76
76 204 76
76 204 76
76 204 76
76 204 76
76 204 76
76 204 76
76 204 76
76 204 76
76 204 76
76 204 76
76 204 76
76 204 76
76 204 76
76 204 76
76 204 76
76 204 76
76 204 76
76 204 76
76 204 76
76 204 76
76 204 76
76 204 76
76 204 76
76 204 76
76 204 76
76 204 76
76 204 76
76 204 76
76 204 76
76 204 76
76 204 76
76 204 76
76 204 76
76 204 76
76 204 76
76 204 76
76 204 76
76 204 76
76 204 76
76 204 76
76 204 76
76 204 76
76 204 76
76 204 76
76 204 76
76 204 76
76 204 76
76 204 76
76 204 76
76 204 76
76 204 76
76 204 76
76 204 76
76 204 76
76 204 76
76 204 76
76 204 76
76 204 76
76 204 76
76 204 76
76 204 76
76 204 76
76 204 76
76 204 76
76 204 76
76 204 76
76 204 76
76 204 76
76 204 76
76 204 76
76 204 76
76 204 76
76 204 76
76 204 76
76 204 76
76 204 76
76 204 76
76 204 76
76 204 76
76 204 76
76 204 76
76 204 76
76 204 76
76 204 76
76 204 76
76 204 76
76 204 76
76 204 76
76 204 76
76 204 76
76 204 76
76 204 76
76 204 76
76 204 76
76 204 76
76 204 76
76 204 76
76 204 76
76 204 76
76 204 76
76 204 76
76 204 76
76 204 76
76 204 76
76 204 76
76 204 76
76 204 76
76 204 76
76 204 76
76 204 76
76 204 76
76 204 76
76 204 76
76 204 76
76 204 76
76 204 76
76 204 76
76 204 76
76 204 76
76 204 76
76 204 76
76 204 76
76 204 76
76 204 76
76 204 76
76 204 76
76 204 76
76 204 76
76 204 76
76 204 76
76 204 76
76 204 76
76 204 76
76 204 76
76 204 76
76 204 76
76 204 76
76 204 76
76 204 76
76 204 76
76 204 76
76 204 76
76 204 76
76 204 76
76 204 76
76 204 76
76 204 76
76 204 76
76 204 76
76 204 76
76 204 76
76 204 76
76 204 76
76 204 76
76 204 76
76 204 76
76 204 76
76 204 76
76 204 76
76 204 76
76 204 76
76 204 76
76 204 76
76 204 76
76 204 76
76 204 76
76 204 76
76 204 76
76 204 76
76 204 76
76 204 76
76 204 76
76 204 76
76 204 76
76 204 76
76 204 76
76 204 76
76 204 76
76 204 76
76 204 76
76 204 76
76 204 76
76 204 76
76 204 76
76 204 76
76 204 76
76 204 76
76 204 76
76 204 76
76 204 76
76 204 76
76 204 76
76 204 76
76 204 76
76 204 76
76 204 76
76 204 76
76 204 76
76 204 76
76 204 76
76 204 76
76 204 76
76 204 76
76 204 76
76 204 76
76 204 76
76 204 76
76 204 76
76 204 76
76 204 76
76 204 76
76 204 76
76 204 76
76 204 76
76 204 76
76 204 76
76 204 76
76 204 76
76 204 76
76 204 76
76 204 76
76 204 76
76 204 76
76 204 76
76 204 76
76 204 76
76 204 76
76 204 76
76 204 76
76 204 76
76 204 76
76 204 76
76 204 76
76 204 76
76 204 76
76 204 76
76 204 76
76 204 76
76 204 76
76 204 76
76 204 76
76 204 76
76 204 76
76 204 76
76 204 76
76 204 76
76 204 76
76 204 76
76 204 76
76 204 76
76 204 76
76 204 76
76 204 76
76 204 76
76 204 76
76 204 76
76 204 76
76 204 76
76 204 76
76 204 76
76 204 76
76 204 76
76 204 76
76 204 76
76 204 76
76 204 76
76 204 76
76 204 76
76 204 76
76 204 76
76 204 76
76 204 76
76 204 76
76 204 76
76 204 76
76 204 76
76 204 76
76 204 76
76 204 76
76 204 76
76 204 76
76 204 76
76 204 76
76 204 76
76 204 76
76 204 76
76 204 76
76 204 76
76 204 76
76 204 76
76 204 76
76 204 76
76 204 76
76 204 76
76 204 76
76 204 76
76 204 76
76 204 76
76 204 76
76 204 76
76 204 76
76 204 76
76 204 76
76 204 76
76 204 76
76 204 76
76 204 76
76 204 76
76 204 76
76 204 76
76 204 76
76 204 76
76 204 76
76 204 76
76 204 76
76 204 76
76 204 76
76 204 76
76 204 76
76 204 76
76 204 76
76 204 76
76 204 76
76 204 76
76 204 76
76 204 76
76 204 76
76 204 76
76 204 76
76 204 76
76 204 76
76 204 76
76 204 76
76 204 76
76 204 76
76 204 76
76 204 76
76 204 76
76 204 76
76 204 76
76 204 76
76 204 76
76 204 76
76 204 76
76 204 76
76 204 76
76 204 76
76 204 76
76 204 76
76 204 76
76 204 76
76 204 76
76 204 76
76 204 76
76 204 76
76 204 76
76 204 76
76 204 76
76 204 76
76 204 76
76 204 76
76 204 76
76 204 76
76 204 76
76 204 76
76 204 76
76 204 76
76 204 76
76 204 76
76 204 76
76 204 76
76 204 76
76 204 76
76 204 76
76 204 76
76 204 76
76 204 76
76 204 76
76 204 76
76 204 76
76 204 76
76 204 76
76 204 76
76 204 76
76 204 76
76 204 76
76 204 76
76 204 76
76 204 76
76 204 76
76 204 76
76 204 76
76 204 76
76 204 76
76 204 76
76 204 76
76 204 76
76 204 76
76 204 76
76 204 76
76 204 76
76 204 76
76 204 76
76 204 76
76 204 76
76 204 76
76 204 76
76 204 76
76 204 76
76 204 76
76 204 76
76 204 76
76 204 76
76 204 76
76 204 76
76 204 76
76 204 76
76 204 76
76 204 76
76 204 76
76 204 76
76 204 76
76 204 76
76 204 76
76 204 76
76 204 76
76 204 76
76 204 76
76 204 76
76 204 76
76 204 76
76 204 76
76 204 76
76 204 76
76 204 76
76 204 76
76 204 76
76 204 76
76 204 76
76 204 76
76 204 76
76 204 76
76 204 76
76 204 76
76 204 76
76 204 76
76 204 76
76 204 76
76 204 76
76 204 76
76 204 76
76 204 76
76 204 76
76 204 76
76 204 76
76 204 76
76 204 76
76 204 76
76 204 76
76 204 76
76 204 76
76 204 76
76 204 76
76 204 76
76 204 76
76 204 76
76 204 76
76 204 76
76 204 76
76 204 76
76 204 76
76 204 76
76 204 76
76 204 76
76 204 76
76 204 76
76 204 76
76 204 76
76 204 76
76 204 76
76 204 76
76 204 76
76 204 76
76 204 76
76 204 76
76 204 76
76 204 76
76 204 76
76 204 76
76 204 76
76 204 76
76 204 76
76 204 76
76 204 76
76 204 76
76 204 76
76 204 76
76 204 76
76 204 76
76 204 76
76 204 76
76 204 76
76 204 76
76 204 76
76 204 76
76 204 76
76 204 76
76 204 76
76 204 76
76 204 76
76 204 76
76 204 76
76 204 76
76 204 76
76 204 76
76 204 76
76 204 76
76 204 76
76 204 76
76 204 76
76 204 76
76 204 76
76 204 76
76 204 76
76 204 76
76 204 76
76 204 76
76 204 76
76 204 76
76 204 76
76 204 76
76 204 76
76 204 76
76 204 76
76 204 76
76 204 76
76 204 76
76 204 76
76 204 76
76 204 76
76 204 76
76 204 76
76 204 76
76 204 76
76 204 76
76 204 76
76 204 76
76 204 76
76 204 76
76 204 76
76 204 76
76 204 76
76 204 76
76 204 76
76 204 76
76 204 76
76 204 76
76 204 76
76 204 76
76 204 76
76 204 76
76 204 76
76 204 76
76 204 76
76 204 76
76 204 76
76 204 76
76 204 76
76 204 76
76 204 76
76 204 76
76 204 76
76 204 76
76 204 76
76 204 76
76 204 76
76 204 76
76 204 76
76 204 76
76 204 76
76 204 76
76 204 76
76 204 76
76 204 76
76 204 76
76 204 76
76 204 76
76 204 76
76 204 76
76 204 76
76 204 76
76 204 76
76 204 76
76 204 76
76 204 76
76 204 76
76 204 76
76 204 76
76 204 76
76 204 76
76 204 76
76 204 76
76 204 76
76 204 76
76 204 76
76 204 76
76 204 76
76 204 76
76 204 76
76 204 76
76 204 76
76 204 76
76 204 76
76 204 76
76 204 76
76 204 76
76 204 76
76 204 76
76 204 76
76 204 76
76 204 76
76 204 76
76 204 76
76 204 76
76 204 76
76 204 76
76 204 76
76 204 76
76 204 76
76 204 76
76 204 76
76 204 76
76 204 76
76 204 76
76 204 76
76 204 76
76 204 76
76 204 76
76 204 76
76 204 76
76 204 76
76 204 76
76 204 76
76 204 76
76 204 76
76 204 76
76 204 76
76 204 76
76 204 76
76 204 76
76 204 76
76 204 76
76 204 76
76 204 76
76 204 76
76 204 76
76 204 76
76 204 76
76 204 76
76 204 76
76 204 76
76 204 76
76 204 76
76 204 76
76 204 76
76 204 76
76 204 76
76 204 76
76 204 76
76 204 76
76 204 76
76 204 76
76 204 76
76 204 76
76 204 76
76 204 76
76 204 76
76 204 76
76 204 76
76 204 76
76 204 76
76 204 76
76 204 76
76 204 76
76 204 76
76 204 76
76 204 76
76 204 76
76 204 76
76 204 76
76 204 76
76 204 76
76 204 76
76 204 76
76 204 76
76 204 76
76 204 76
76 204 76
76 204 76
76 204 76
76 204 76
76 204 76
76 204 76
76 204 76
76 204 76
76 204 76
76 204 76
76 204 76
76 204 76
76 204 76
76 204 76
76 204 76
76 204 76
76 204 76
76 204 76
76 204 76
76 204 76
76 204 76
76 204 76
76 204 76
76 204 76
76 204 76
76 204 76
76 204 76
76 204 76
76 204 76
76 204 76
76 204 76
76 204 76
76 204 76
76 204 76
76 204 76
76 204 76
76 204 76
76 204 76
76 204 76
76 204 76
76 204 76
76 204 76
76 204 76
76 204 76
76 204 76
76 204 76
76 204 76
76 204 76
76 204 76
76 204 76
76 204 76
76 204 76
76 204 76
76 204 76
76 204 76
76 204 76
76 204 76
76 204 76
76 204 76
76 204 76
76 204 76
76 204 76
76 204 76
76 204 76
76 204 76
76 204 76
76 204 76
76 204 76
76 204 76
76 204 76
76 204 76
76 204 76
76 204 76
76 204 76
76 204 76
76 204 76
76 204 76
76 204 76
76 204 76
76 204 76
76 204 76
76 204 76
76 204 76
76 204 76
76 204 76
76 204 76
76 204 76
76 204 76
76 204 76
76 204 76
76 204 76
76 204 76
76 204 76
76 204 76
76 204 76
76 204 76
76 204 76
76 204 76
76 204 76
76 204 76
76 204 76
76 204 76
76 204 76
76 204 76
76 204 76
76 204 76
76 204 76
76 204 76
76 204 76
76 204 76
76 204 76
76 204 76
76 204 76
76 204 76
76 204 76
76 204 76
76 204 76
76 204 76
76 204 76
76 204 76
76 204 76
76 204 76
76 204 76
76 204 76
76 204 76
76 204 76
76 204 76
76 204 76
76 204 76
76 204 76
76 204 76
76 204 76
76 204 76
76 204 76
76 204 76
76 204 76
76 204 76
76 204 76
76 204 76
76 204 76
76 204 76
76 204 76
76 204 76
76 204 76
76 204 76
76 204 76
76 204 76
76 204 76
76 204 76
76 204 76
76 204 76
76 204 76
76 204 76
76 204 76
76 204 76
76 204 76
76 204 76
76 204 76
76 204 76
76 204 76
76 204 76
76 204 76
76 204 76
76 204 76
76 204 76
76 204 76
76 204 76
76 204 76
76 204 76
76 204 76
76 204 76
76 204 76
76 204 76
76 204 76
76 204 76
76 204 76
76 204 76
76 204 76
76 204 76
76 204 76
76 204 76
76 204 76
76 204 76
76 204 76
76 204 76
76 204 76
76 204 76
76 204 76
76 204 76
76 204 76
76 204 76
76 204 76
76 204 76
76 204 76
76 204 76
76 204 76
76 204 76
76 204 76
76 204 76
76 204 76
76 204 76
76 204 76
76 204 76
76 204 76
76 204 76
76 204 76
76 204 76
76 204 76
76 204 76
76 204 76
76 204 76
76 204 76
76 204 76
76 204 76
76 204 76
76 204 76
76 204 76
76 204 76
76 204 76
76 204 76
76 204 76
76 204 76
76 204 76
76 204 76
76 204 76
76 204 76
76 204 76
76 204 76
76 204 76
76 204 76
76 204 76
76 204 76
76 204 76
76 204 76
76 204 76
76 204 76
76 204 76
76 204 76
76 204 76
76 204 76
76 204 76
76 204 76
76 204 76
76 204 76
76 204 76
76 204 76
76 204 76
76 204 76
76 204 76
76 204 76
76 204 76
76 204 76
76 204 76
76 204 76
76 204 76
76 204 76
76 204 76
76 204 76
76 204 76
76 204 76
76 204 76
76 204 76
76 204 76
76 204 76
76 204 76
76 204 76
76 204 76
76 204 76
76 204 76
76 204 76
76 204 76
76 204 76
76 204 76
76 204 76
76 204 76
76 204 76
76 204 76
76 204 76
76 204 76
76 204 76
76 204 76
76 204 76
76 204 76
76 204 76
76 204 76
76 204 76
76 204 76
76 204 76
76 204 76
76 204 76
76 204 76
76 204 76
76 204 76
76 204 76
76 204 76
76 204 76
76 204 76
76 204 76
76 204 76
76 204 76
76 204 76
76 204 76
76 204 76
76 204 76
76 204 76
76 204 76
76 204 76
76 204 76
76 204 76
76 204 76
76 204 76
76 204 76
76 204 76
76 204 76
76 204 76
76 204 76
76 204 76
76 204 76
76 204 76
76 204 76
76 204 76
76 204 76
76 204 76
76 204 76
76 204 76
76 204 76
76 204 76
76 204 76
76 204 76
76 204 76
76 204 76
76 204 76
76 204 76
76 204 76
76 204 76
76 204 76
76 204 76
76 204 76
76 204 76
76 204 76
76 204 76
76 204 76
76 204 76
76 204 76
76 204 76
76 204 76
76 204 76
76 204 76
76 204 76
76 204 76
76 204 76
76 204 76
76 204 76
76 204 76
76 204 76
76 204 76
76 204 76
76 204 76
76 204 76
76 204 76
76 204 76
76 204 76
76 204 76
76 204 76
76 204 76
76 204 76
76 204 76
76 204 76
76 204 76
76 204 76
76 204 76
76 204 76
76 204 76
76 204 76
76 204 76
76 204 76
76 204 76
76 204 76
76 204 76
76 204 76
76 204 76
76 204 76
76 204 76
76 204 76
76 204 76
76 204 76
76 204 76
76 204 76
76 204 76
76 204 76
76 204 76
76 204 76
76 204 76
76 204 76
76 204 76
76 204 76
76 204 76
76 204 76
76 204 76
76 204 76
76 204 76
76 204 76
76 204 76
76 204 76
76 204 76
76 204 76
76 204 76
76 204 76
76 204 76
76 204 76
76 204 76
76 204 76
76 204 76
76 204 76
76 204 76
76 204 76
76 204 76
76 204 76
76 204 76
76 204 76
76 204 76
76 204 76
76 204 76
76 204 76
76 204 76
76 204 76
76 204 76
76 204 76
76 204 76
76 204 76
76 204 76
76 204 76
76 204 76
76 204 76
76 204 76
76 204 76
76 204 76
76 204 76
76 204 76
76 204 76
76 204 76
76 204 76
76 204 76
76 204 76
76 204 76
76 204 76
76 204 76
76 204 76
76 204 76
76 204 76
76 204 76
76 204 76
76 204 76
76 204 76
76 204 76
76 204 76
76 204 76
76 204 76
76 204 76
76 204 76
76 204 76
76 204 76
76 204 76
76 204 76
76 204 76
76 204 76
76 204 76
76 204 76
76 204 76
76 204 76
76 204 76
76 204 76
76 204 76
76 204 76
76 204 76
76 204 76
76 204 76
76 204 76
76 204 76
76 204 76
76 204 76
76 204 76
76 204 76
76 204 76
76 204 76
76 204 76
76 204 76
76 204 76
76 204 76
76 204 76
76 204 76
76 204 76
76 204 76
76 204 76
76 204 76
76 204 76
76 204 76
76 204 76
76 204 76
76 204 76
76 204 76
76 204 76
76 204 76
76 204 76
76 204 76
76 204 76
76 204 76
76 204 76
76 204 76
76 204 76
76 204 76
76 204 76
76 204 76
76 204 76
76 204 76
76 204 76
76 204 76
76 204 76
76 204 76
76 204 76
76 204 76
76 204 76
76 204 76
76 204 76
76 204 76
76 204 76
76 204 76
76 204 76
76 204 76
76 204 76
76 204 76
76 204 76
76 204 76
76 204 76
76 204 76
76 204 76
76 204 76
76 204 76
76 204 76
76 204 76
76 204 76
76 204 76
76 204 76
76 204 76
76 204 76
76 204 76
76 204 76
76 204 76
76 204 76
76 204 76
76 204 76
76 204 76
76 204 76
76 204 76
76 204 76
76 204 76
76 204 76
76 204 76
76 204 76
76 204 76
76 204 76
76 204 76
76 204 76
76 204 76
76 204 76
76 204 76
76 204 76
76 204 76
76 204 76
76 204 76
76 204 76
76 204 76
76 204 76
76 204 76
76 204 76
76 204 76
76 204 76
76 204 76
76 204 76
76 204 76
76 204 76
76 204 76
76 204 76
76 204 76
76 204 76
76 204 76
76 204 76
76 204 76
76 204 76
76 204 76
76 204 76
76 204 76
76 204 76
76 204 76
76 204 76
76 204 76
76 204 76
76 204 76
76 204 76
76 204 76
76 204 76
76 204 76
76 204 76
76 204 76
76 204 76
76 204 76
76 204 76
76 204 76
76 204 76
76 204 76
76 204 76
76 204 76
76 204 76
76 204 76
76 204 76
76 204 76
76 204 76
76 204 76
76 204 76
76 204 76
76 204 76
76 204 76
76 204 76
76 204 76
76 204 76
76 204 76
76 204 76
76 204 76
76 204 76
76 204 76
76 204 76
76 204 76
76 204 76
76 204 76
76 204 76
76 204 76
76 204 76
76 204 76
76 204 76
76 204 76
76 204 76
76 204 76
76 204 76
76 204 76
76 204 76
76 204 76
76 204 76
76 204 76
76 204 76
76 204 76
76 204 76
76 204 76
76 204 76
76 204 76
76 204 76
76 204 76
76 204 76
76 204 76
76 204 76
76 204 76
76 204 76
76 204 76
76 204 76
76 204 76
76 204 76
76 204 76
76 204 76
76 204 76
76 204 76
76 204 76
76 204 76
76 204 76
76 204 76
76 204 76
76 204 76
76 204 76
76 204 76
76 204 76
76 204 76
76 204 76
76 204 76
76 204 76
76 204 76
76 204 76
76 204 76
76 204 76
76 204 76
76 204 76
76 204 76
76 204 76
76 204 76
76 204 76
76 204 76
76 204 76
76 204 76
76 204 76
76 204 76
76 204 76
76 204 76
76 204 76
76 204 76
76 204 76
76 204 76
76 204 76
76 204 76
76 204 76
76 204 76
76 204 76
76 204 76
76 204 76
76 204 76
76 204 76
76 204 76
76 204 76
76 204 76
76 204 76
76 204 76
76 204 76
76 204 76
76 204 76
76 204 76
76 204 76
76 204 76
76 204 76
76 204 76
76 204 76
76 204 76
76 204 76
76 204 76
76 204 76
76 204 76
76 204 76
76 204 76
76 204 76
76 204 76
76 204 76
76 204 76
76 204 76
76 204 76
76 204 76
76 204 76
76 204 76
76 204 76
76 204 76
76 204 76
76 204 76
76 204 76
76 204 76
76 204 76
76 204 76
76 204 76
76 204 76
76 204 76
76 204 76
76 204 76
76 204 76
76 204 76
76 204 76
76 204 76
76 204 76
76 204 76
76 204 76
76 204 76
76 204 76
76 204 76
76 204 76
76 204 76
76 204 76
76 204 76
76 204 76
76 204 76
76 204 76
76 204 76
76 204 76
76 204 76
76 204 76
76 204 76
76 204 76
76 204 76
76 204 76
76 204 76
76 204 76
76 204 76
76 204 76
76 204 76
76 204 76
76 204 76
76 204 76
76 204 76
76 204 76
76 204 76
76 204 76
76 204 76
76 204 76
76 204 76
76 204 76
76 204 76
76 204 76
76 204 76
76 204 76
76 204 76
76 204 76
76 204 76
76 204 76
76 204 76
76 204 76
76 204 76
76 204 76
76 204 76
76 204 76
76 204 76
76 204 76
76 204 76
76 204 76
76 204 76
76 204 76
76 204 76
76 204 76
76 204 76
76 204 76
76 204 76
76 204 76
76 204 76
76 204 76
76 204 76
76 204 76
76 204 76
76 204 76
76 204 76
76 204 76
76 204 76
76 204 76
76 204 76
76 204 76
76 204 76
76 204 76
76 204 76
76 204 76
76 204 76
76 204 76
76 204 76
76 204 76
76 204 76
76 204 76
76 204 76
76 204 76
76 204 76
76 204 76
76 204 76
76 204 76
76 204 76
76 204 76
76 204 76
76 204 76
76 204 76
76 204 76
76 204 76
76 204 76
76 204 76
76 204 76
76 204 76
76 204 76
76 204 76
76 204 76
76 204 76
76 204 76
76 204 76
76 204 76
76 204 76
76 204 76
76 204 76
76 204 76
76 204 76
76 204 76
76 204 76
76 204 76
76 204 76
76 204 76
76 204 76
76 204 76
76 204 76
76 204 76
76 204 76
76 204 76
76 204 76
76 204 76
76 204 76
76 204 76
76 204 76
76 204 76
76 204 76
76 204 76
76 204 76
76 204 76
76 204 76
76 204 76
76 204 76
76 204 76
76 204 76
76 204 76
76 204 76
76 204 76
76 204 76
76 204 76
76 204 76
76 204 76
76 204 76
76 204 76
76 204 76
76 204 76
76 204 76
76 204 76
76 204 76
76 204 76
76 204 76
76 204 76
76 204 76
76 204 76
76 204 76
76 204 76
76 204 76
76 204 76
76 204 76
76 204 76
76 204 76
76 204 76
76 204 76
76 204 76
76 204 76
76 204 76
76 204 76
76 204 76
76 204 76
76 204 76
76 204 76
76 204 76
76 204 76
76 204 76
76 204 76
76 204 76
76 204 76
76 204 76
76 204 76
76 204 76
76 204 76
76 204 76
76 204 76
76 204 76
76 204 76
76 204 76
76 204 76
76 204 76
76 204 76
76 204 76
76 204 76
76 204 76
76 204 76
76 204 76
76 204 76
76 204 76
76 204 76
76 204 76
76 204 76
76 204 76
76 204 76
76 204 76
76 204 76
76 204 76
76 204 76
76 204 76
76 204 76
76 204 76
76 204 76
76 204 76
76 204 76
76 204 76
76 204 76
76 204 76
76 204 76
76 204 76
76 204 76
76 204 76
76 204 76
76 204 76
76 204 76
76 204 76
76 204 76
76 204 76
76 204 76
76 204 76
76 204 76
76 204 76
76 204 76
76 204 76
76 204 76
76 204 76
76 204 76
76 204 76
76 204 76
76 204 76
76 204 76
76 204 76
76 204 76
76 204 76
76 204 76
76 204 76
76 204 76
76 204 76
76 204 76
76 204 76
76 204 76
76 204 76
76 204 76
76 204 76
76 204 76
76 204 76
76 204 76
76 204 76
76 204 76
76 204 76
76 204 76
76 204 76
76 204 76
76 204 76
76 204 76
76 204 76
76 204 76
76 204 76
76 204 76
76 204 76
76 204 76
76 204 76
76 204 76
76 204 76
76 204 76
76 204 76
76 204 76
76 204 76
76 204 76
76 204 76
76 204 76
76 204 76
76 204 76
76 204 76
76 204 76
76 204 76
76 204 76
76 204 76
76 204 76
76 204 76
76 204 76
76 204 76
76 204 76
76 204 76
76 204 76
76 204 76
76 204 76
76 204 76
76 204 76
76 204 76
76 204 76
76 204 76
76 204 76
76 204 76
76 204 76
76 204 76
76 204 76
76 204 76
76 204 76
76 204 76
76 204 76
76 204 76
76 204 76
76 204 76
76 204 76
76 204 76
76 204 76
76 204 76
76 204 76
76 204 76
76 204 76
76 204 76
76 204 76
76 204 76
76 204 76
76 204 76
76 204 76
76 204 76
76 204 76
76 204 76
76 204 76
76 204 76
76 204 76
76 204 76
76 204 76
76 204 76
76 204 76
76 204 76
76 204 76
76 204 76
76 204 76
76 204 76
76 204 76
76 204 76
76 204 76
76 204 76
76 204 76
76 204 76
76 204 76
76 204 76
76 204 76
76 204 76
76 204 76
76 204 76
76 204 76
76 204 76
76 204 76
76 204 76
76 204 76
76 204 76
76 204 76
76 204 76
76 204 76
76 204 76
76 204 76
76 204 76
76 204 76
76 204 76
76 204 76
76 204 76
76 204 76
76 204 76
76 204 76
76 204 76
76 204 76
76 204 76
76 204 76
76 204 76
76 204 76
76 204 76
76 204 76
76 204 76
76 204 76
76 204 76
76 204 76
76 204 76
76 204 76
76 204 76
76 204 76
76 204 76
76 204 76
76 204 76
76 204 76
76 204 76
76 204 76
76 204 76
76 204 76
76 204 76
76 204 76
76 204 76
76 204 76
76 204 76
76 204 76
76 204 76
76 204 76
76 204 76
76 204 76
76 204 76
76 204 76
76 204 76
76 204 76
76 204 76
76 204 76
76 204 76
76 204 76
76 204 76
76 204 76
76 204 76
76 204 76
76 204 76
76 204 76
76 204 76
76 204 76
76 204 76
76 204 76
76 204 76
76 204 76
76 204 76
76 204 76
76 204 76
76 204 76
76 204 76
76 204 76
76 204 76
76 204 76
76 204 76
76 204 76
76 204 76
76 204 76
76 204 76
76 204 76
76 204 76
76 204 76
76 204 76
76 204 76
76 204 76
76 204 76
76 204 76
76 204 76
76 204 76
76 204 76
76 204 76
76 204 76
76 204 76
76 204 76
76 204 76
76 204 76
76 204 76
76 204 76
76 204 76
76 204 76
76 204 76
76 204 76
76 204 76
76 204 76
76 204 76
76 204 76
76 204 76
76 204 76
76 204 76
76 204 76
76 204 76
76 204 76
76 204 76
76 204 76
76 204 76
76 204 76
76 204 76
76 204 76
76 204 76
76 204 76
76 204 76
76 204 76
76 204 76
76 204 76
76 204 76
76 204 76
76 204 76
76 204 76
76 204 76
76 204 76
76 204 76
76 204 76
76 204 76
76 204 76
76 204 76
76 204 76
76 204 76
76 204 76
76 204 76
76 204 76
76 204 76
76 204 76
76 204 76
76 204 76
76 204 76
76 204 76
76 204 76
76 204 76
76 204 76
76 204 76
76 204 76
76 204 76
76 204 76
76 204 76
76 204 76
76 204 76
76 204 76
76 204 76
76 204 76
76 204 76
76 204 76
76 204 76
76 204 76
76 204 76
76 204 76
76 204 76
76 204 76
76 204 76
76 204 76
76 204 76
76 204 76
76 204 76
76 204 76
76 204 76
76 204 76
76 204 76
76 204 76
76 204 76
76 204 76
76 204 76
76 204 76
76 204 76
76 204 76
76 204 76
76 204 76
76 204 76
76 204 76
76 204 76
76 204 76
76 204 76
76 204 76
76 204 76
76 204 76
76 204 76
76 204 76
76 204 76
76 204 76
76 204 76
76 204 76
76 204 76
76 204 76
76 204 76
76 204 76
76 204 76
76 204 76
76 204 76
76 204 76
76 204 76
76 204 76
76 204 76
76 204 76
76 204 76
76 204 76
76 204 76
76 204 76
76 204 76
76 204 76
76 204 76
76 204 76
76 204 76
76 204 76
76 204 76
76 204 76
76 204 76
76 204 76
76 204 76
76 204 76
76 204 76
76 204 76
76 204 76
76 204 76
76 204 76
76 204 76
76 204 76
76 204 76
76 204 76
76 204 76
76 204 76
76 204 76
76 204 76
76 204 76
76 204 76
76 204 76
76 204 76
76 204 76
76 204 76
76 204 76
76 204 76
76 204 76
76 204 76
76 204 76
76 204 76
76 204 76
76 204 76
76 204 76
76 204 76
76 204 76
76 204 76
76 204 76
76 204 76
76 204 76
76 204 76
76 204 76
76 204 76
76 204 76
76 204 76
76 204 76
76 204 76
76 204 76
76 204 76
76 204 76
76 204 76
76 204 76
76 204 76
76 204 76
76 204 76
76 204 76
76 204 76
76 204 76
76 204 76
76 204 76
76 204 76
76 204 76
76 204 76
76 204 76
76 204 76
76 204 76
76 204 76
76 204 76
76 204 76
76 204 76
76 204 76
76 204 76
76 204 76
76 204 76
76 204 76
76 204 76
76 204 76
76 204 76
76 204 76
76 204 76
76 204 76
76 204 76
76 204 76
76 204 76
76 204 76
76 204 76
76 204 76
76 204 76
76 204 76
76 204 76
76 204 76
76 204 76
76 204 76
76 204 76
76 204 76
76 204 76
76 204 76
76 204 76
76 204 76
76 204 76
76 204 76
76 204 76
76 204 76
76 204 76
76 204 76
76 204 76
76 204 76
76 204 76
76 204 76
76 204 76
76 204 76
76 204 76
76 204 76
76 204 76
76 204 76
76 204 76
76 204 76
76 204 76
76 204 76
76 204 76
76 204 76
76 204 76
76 204 76
76 204 76
76 204 76
76 204 76
76 204 76
76 204 76
76 204 76
76 204 76
76 204 76
76 204 76
76 204 76
76 204 76
76 204 76
76 204 76
76 204 76
76 204 76
76 204 76
76 204 76
76 204 76
76 204 76
76 204 76
76 204 76
76 204 76
76 204 76
76 204 76
76 204 76
76 204 76
76 204 76
76 204 76
76 204 76
76 204 76
76 204 76
76 204 76
76 204 76
76 204 76
76 204 76
76 204 76
76 204 76
76 204 76
76 204 76
76 204 76
76 204 76
76 204 76
76 204 76
76 204 76
76 204 76
76 204 76
76 204 76
76 204 76
76 204 76
76 204 76
76 204 76
76 204 76
76 204 76
76 204 76
76 204 76
76 204 76
76 204 76
76 204 76
76 204 76
76 204 76
76 204 76
76 204 76
76 204 76
76 204 76
76 204 76
76 204 76
76 204 76
76 204 76
76 204 76
76 204 76
76 204 76
76 204 76
76 204 76
76 204 76
76 204 76
76 204 76
76 204 76
76 204 76
76 204 76
76 204 76
76 204 76
76 204 76
76 204 76
76 204 76
76 204 76
76 204 76
76 204 76
76 204 76
76 204 76
76 204 76
76 204 76
76 204 76
76 204 76
76 204 76
76 204 76
76 204 76
76 204 76
76 204 76
76 204 76
76 204 76
76 204 76
76 204 76
76 204 76
76 204 76
76 204 76
76 204 76
76 204 76
76 204 76
76 204 76
76 204 76
76 204 76
76 204 76
76 204 76
76 204 76
76 204 76
76 204 76
76 204 76
76 204 76
76 204 76
76 204 76
76 204 76
76 204 76
76 204 76
76 204 76
76 204 76
76 204 76
76 204 76
76 204 76
76 204 76
76 204 76
76 204 76
76 204 76
76 204 76
76 204 76
76 204 76
76 204 76
76 204 76
76 204 76
76 204 76
76 204 76
76 204 76
76 204 76
76 204 76
76 204 76
76 204 76
76 204 76
76 204 76
76 204 76
76 204 76
76 204 76
76 204 76
76 204 76
76 204 76
76 204 76
76 204 76
76 204 76
76 204 76
76 204 76
76 204 76
76 204 76
76 204 76
76 204 76
76 204 76
76 204 76
76 204 76
76 204 76
76 204 76
76 204 76
76 204 76
76 204 76
76 204 76
76 204 76
76 204 76
76 204 76
76 204 76
76 204 76
76 204 76
76 204 76
76 204 76
76 204 76
76 204 76
76 204 76
76 204 76
76 204 76
76 204 76
76 204 76
76 204 76
76 204 76
76 204 76
76 204 76
76 204 76
76 204 76
76 204 76
76 204 76
76 204 76
76 204 76
76 204 76
76 204 76
76 204 76
76 204 76
76 204 76
76 204 76
76 204 76
76 204 76
76 204 76
76 204 76
76 204 76
76 204 76
76 204 76
76 204 76
76 204 76
76 204 76
76 204 76
76 204 76
76 204 76
76 204 76
76 204 76
76 204 76
76 204 76
76 204 76
76 204 76
76 204 76
76 204 76
76 204 76
76 204 76
76 204 76
76 204 76
76 204 76
76 204 76
76 204 76
76 204 76
76 204 76
76 204 76
76 204 76
76 204 76
76 204 76
76 204 76
76 204 76
76 204 76
76 204 76
76 204 76
76 204 76
76 204 76
76 204 76
76 204 76
76 204 76
76 204 76
76 204 76
76 204 76
76 204 76
76 204 76
76 204 76
76 204 76
76 204 76
76 204 76
76 204 76
76 204 76
76 204 76
76 204 76
76 204 76
76 204 76
76 204 76
76 204 76
76 204 76
76 204 76
76 204 76
76 204 76
76 204 76
76 204 76
76 204 76
76 204 76
76 204 76
76 204 76
76 204 76
76 204 76
76 204 76
76 204 76
76 204 76
76 204 76
76 204 76
76 204 76
76 204 76
76 204 76
76 204 76
76 204 76
76 204 76
76 204 76
76 204 76
76 204 76
76 204 76
76 204 76
76 204 76
76 204 76
76 204 76
76 204 76
76 204 76
76 204 76
76 204 76
76 204 76
76 204 76
76 204 76
76 204 76
76 204 76
76 204 76
76 204 76
76 204 76
76 204 76
76 204 76
76 204 76
76 204 76
76 204 76
76 204 76
76 204 76
76 204 76
76 204 76
76 204 76
76 204 76
76 204 76
76 204 76
76 204 76
76 204 76
76 204 76
76 204 76
76 204 76
76 204 76
76 204 76
76 204 76
76 204 76
76 204 76
76 204 76
76 204 76
76 204 76
76 204 76
76 204 76
76 204 76
76 204 76
76 204 76
76 204 76
76 204 76
76 204 76
76 204 76
76 204 76
76 204 76
76 204 76
76 204 76
76 204 76
76 204 76
76 204 76
76 204 76
76 204 76
76 204 76
76 204 76
76 204 76
76 204 76
76 204 76
76 204 76
76 204 76
76 204 76
76 204 76
76 204 76
76 204 76
76 204 76
76 204 76
76 204 76
76 204 76
76 204 76
76 204 76
76 204 76
76 204 76
76 204 76
76 204 76
76 204 76
76 204 76
76 204 76
76 204 76
76 204 76
76 204 76
76 204 76
76 204 76
76 204 76
76 204 76
76 204 76
76 204 76
76 204 76
76 204 76
76 204 76
76 204 76
76 204 76
76 204 76
76 204 76
76 204 76
76 204 76
76 204 76
76 204 76
76 204 76
76 204 76
76 204 76
76 204 76
76 204 76
76 204 76
76 204 76
76 204 76
76 204 76
76 204 76
76 204 76
76 204 76
76 204 76
76 204 76
76 204 76
76 204 76
76 204 76
76 204 76
76 204 76
76 204 76
76 204 76
76 204 76
76 204 76
76 204 76
76 204 76
76 204 76
76 204 76
76 204 76
76 204 76
76 204 76
76 204 76
76 204 76
76 204 76
76 204 76
76 204 76
76 204 76
76 204 76
76 204 76
76 204 76
76 204 76
76 204 76
76 204 76
76 204 76
76 204 76
76 204 76
76 204 76
76 204 76
76 204 76
76 204 76
76 204 76
76 204 76
76 204 76
76 204 76
76 204 76
76 204 76
76 204 76
76 204 76
76 204 76
76 204 76
76 204 76
76 204 76
76 204 76
76 204 76
76 204 76
76 204 76
76 204 76
76 204 76
76 204 76
76 204 76
76 204 76
76 204 76
76 204 76
76 204 76
76 204 76
76 204 76
76 204 76
76 204 76
76 204 76
76 204 76
76 204 76
76 204 76
76 204 76
76 204 76
76 204 76
76 204 76
76 204 76
76 204 76
76 204 76
76 204 76
76 204 76
76 204 76
76 204 76
76 204 76
76 204 76
76 204 76
76 204 76
76 204 76
76 204 76
76 204 76
76 204 76
76 204 76
76 204 76
76 204 76
76 204 76
76 204 76
76 204 76
76 204 76
76 204 76
76 204 76
76 204 76
76 204 76
76 204 76
76 204 76
76 204 76
76 204 76
76 204 76
76 204 76
76 204 76
76 204 76
76 204 76
76 204 76
76 204 76
76 204 76
76 204 76
76 204 76
76 204 76
76 204 76
76 204 76
76 204 76
76 204 76
76 204 76
76 204 76
76 204 76
76 204 76
76 204 76
76 204 76
76 204 76
76 204 76
76 204 76
76 204 76
76 204 76
76 204 76
76 204 76
76 204 76
76 204 76
76 204 76
76 204 76
76 204 76
76 204 76
76 204 76
76 204 76
76 204 76
76 204 76
76 204 76
76 204 76
76 204 76
76 204 76
76 204 76
76 204 76
76 204 76
76 204 76
76 204 76
76 204 76
76 204 76
76 204 76
76 204 76
76 204 76
76 204 76
76 204 76
76 204 76
76 204 76
76 204 76
76 204 76
76 204 76
76 204 76
76 204 76
76 204 76
76 204 76
76 204 76
76 204 76
76 204 76
76 204 76
76 204 76
76 204 76
76 204 76
76 204 76
76 204 76
76 204 76
76 204 76
76 204 76
76 204 76
76 204 76
76 204 76
76 204 76
76 204 76
76 204 76
76 204 76
76 204 76
76 204 76
76 204 76
76 204 76
76 204 76
76 204 76
76 204 76
76 204 76
76 204 76
76 204 76
76 204 76
76 204 76
76 204 76
76 204 76
76 204 76
76 204 76
76 204 76
76 204 76
76 204 76
76 204 76
76 204 76
76 204 76
76 204 76
76 204 76
76 204 76
76 204 76
76 204 76
76 204 76
76 204 76
76 204 76
76 204 76
76 204 76
76 204 76
76 204 76
76 204 76
76 204 76
76 204 76
76 204 76
76 204 76
76 204 76
76 204 76
76 204 76
76 204 76
76 204 76
76 204 76
76 204 76
76 204 76
76 204 76
76 204 76
76 204 76
76 204 76
76 204 76
76 204 76
76 204 76
76 204 76
76 204 76
76 204 76
76 204 76
76 204 76
76 204 76
76 204 76
76 204 76
76 204 76
76 204 76
76 204 76
76 204 76
76 204 76
76 204 76
76 204 76
76 204 76
76 204 76
76 204 76
76 204 76
76 204 76
76 204 76
76 204 76
76 204 76
76 204 76
76 204 76
76 204 76
76 204 76
76 204 76
76 204 76
76 204 76
76 204 76
76 204 76
76 204 76
76 204 76
76 204 76
76 204 76
76 204 76
76 204 76
76 204 76
76 204 76
76 204 76
76 204 76
76 204 76
76 204 76
76 204 76
76 204 76
76 204 76
76 204 76
76 204 76
76 204 76
76 204 76
76 204 76
76 204 76
76 204 76
76 204 76
76 204 76
76 204 76
76 204 76
76 204 76
76 204 76
76 204 76
76 204 76
76 204 76
76 204 76
76 204 76
76 204 76
76 204 76
76 204 76
76 204 76
76 204 76
76 204 76
76 204 76
76 204 76
76 204 76
76 204 76
76 204 76
76 204 76
76 204 76
76 204 76
76 204 76
76 204 76
76 204 76
76 204 76
76 204 76
76 204 76
76 204 76
76 204 76
76 204 76
76 204 76
76 204 76
76 204 76
76 204 76
76 204 76
76 204 76
76 204 76
76 204 76
76 204 76
76 204 76
76 204 76
76 204 76
76 204 76
76 204 76
76 204 76
76 204 76
76 204 76
76 204 76
76 204 76
76 204 76
76 204 76
76 204 76
76 204 76
76 204 76
76 204 76
76 204 76
76 204 76
76 204 76
76 204 76
76 204 76
76 204 76
76 204 76
76 204 76
76 204 76
76 204 76
76 204 76
76 204 76
76 204 76
76 204 76
76 204 76
76 204 76
76 204 76
76 204 76
76 204 76
76 204 76
76 204 76
76 204 76
76 204 76
76 204 76
76 204 76
76 204 76
76 204 76
76 204 76
76 204 76
76 204 76
76 204 76
76 204 76
76 204 76
76 204 76
76 204 76
76 204 76
76 204 76
76 204 76
76 204 76
76 204 76
76 204 76
76 204 76
76 204 76
76 204 76
76 204 76
76 204 76
76 204 76
76 204 76
76 204 76
76 204 76
76 204 76
76 204 76
76 204 76
76 204 76
76 204 76
76 204 76
76 204 76
76 204 76
76 204 76
76 204 76
76 204 76
76 204 76
76 204 76
76 204 76
76 204 76
76 204 76
76 204 76
76 204 76
76 204 76
76 204 76
76 204 76
76 204 76
76 204 76
76 204 76
76 204 76
76 204 76
76 204 76
76 204 76
76 204 76
76 204 76
76 204 76
76 204 76
76 204 76
76 204 76
76 204 76
76 204 76
76 204 76
76 204 76
76 204 76
76 204 76
76 204 76
76 204 76
76 204 76
76 204 76
76 204 76
76 204 76
76 204 76
76 204 76
76 204 76
76 204 76
76 204 76
76 204 76
76 204 76
76 204 76
76 204 76
76 204 76
76 204 76
76 204 76
76 204 76
76 204 76
76 204 76
76 204 76
76 204 76
76 204 76
76 204 76
76 204 76
76 204 76
76 204 76
76 204 76
76 204 76
76 204 76
76 204 76
76 204 76
76 204 76
76 204 76
76 204 76
76 204 76
76 204 76
76 204 76
76 204 76
76 204 76
76 204 76
76 204 76
76 204 76
76 204 76
76 204 76
76 204 76
76 204 76
76 204 76
76 204 76
76 204 76
76 204 76
76 204 76
76 204 76
76 204 76
76 204 76
76 204 76
76 204 76
76 204 76
76 204 76
76 204 76
76 204 76
76 204 76
76 204 76
76 204 76
76 204 76
76 204 76
76 204 76
76 204 76
76 204 76
76 204 76
76 204 76
76 204 76
76 204 76
76 204 76
76 204 76
76 204 76
76 204 76
76 204 76
76 204 76
76 204 76
76 204 76
76 204 76
76 204 76
76 204 76
76 204 76
76 204 76
76 204 76
76 204 76
76 204 76
76 204 76
76 204 76
76 204 76
76 204 76
76 204 76
76 204 76
76 204 76
76 204 76
76 204 76
76 204 76
76 204 76
76 204 76
76 204 76
76 204 76
76 204 76
76 204 76
76 204 76
76 204 76
76 204 76
76 204 76
76 204 76
76 204 76
76 204 76
76 204 76
76 204 76
76 204 76
76 204 76
76 204 76
76 204 76
76 204 76
76 204 76
76 204 76
76 204 76
76 204 76
76 204 76
76 204 76
76 204 76
76 204 76
76 204 76
76 204 76
76 204 76
76 204 76
76 204 76
76 204 76
76 204 76
76 204 76
76 204 76
76 204 76
76 204 76
76 204 76
76 204 76
76 204 76
76 204 76
76 204 76
76 204 76
76 204 76
76 204 76
76 204 76
76 204 76
76 204 76
76 204 76
76 204 76
76 204 76
76 204 76
76 204 76
76 204 76
76 204 76
76 204 76
76 204 76
76 204 76
76 204 76
76 204 76
76 204 76
76 204 76
76 204 76
76 204 76
76 204 76
76 204 76
76 204 76
76 204 76
76 204 76
76 204 76
76 204 76
76 204 76
76 204 76
76 204 76
76 204 76
76 204 76
76 204 76
76 204 76
76 204 76
76 204 76
76 204 76
76 204 76
76 204 76
76 204 76
76 204 76
76 204 76
76 204 76
76 204 76
76 204 76
76 204 76
76 204 76
76 204 76
76 204 76
76 204 76
76 204 76
76 204 76
76 204 76
76 204 76
76 204 76
76 204 76
76 204 76
76 204 76
76 204 76
76 204 76
76 204 76
76 204 76
76 204 76
76 204 76
76 204 76
76 204 76
76 204 76
76 204 76
76 204 76
76 204 76
76 204 76
76 204 76
76 204 76
76 204 76
76 204 76
76 204 76
76 204 76
76 204 76
76 204 76
76 204 76
76 204 76
76 204 76
76 204 76
76 204 76
76 204 76
76 204 76
76 204 76
76 204 76
76 204 76
76 204 76
76 204 76
76 204 76
76 204 76
76 204 76
76 204 76
76 204 76
76 204 76
76 204 76
76 204 76
76 204 76
76 204 76
76 204 76
76 204 76
76 204 76
76 204 76
76 204 76
76 204 76
76 204 76
76 204 76
76 204 76
76 204 76
76 204 76
76 204 76
76 204 76
76 204 76
76 204 76
76 204 76
76 204 76
76 204 76
76 204 76
76 204 76
76 204 76
76 204 76
76 204 76
76 204 76
76 204 76
76 204 76
76 204 76
76 204 76
76 204 76
76 204 76
76 204 76
76 204 76
76 204 76
76 204 76
76 204 76
76 204 76
76 204 76
76 204 76
76 204 76
76 204 76
76 204 76
76 204 76
76 204 76
76 204 76
76 204 76
76 204 76
76 204 76
76 204 76
76 204 76
76 204 76
76 204 76
76 204 76
76 204 76
76 204 76
76 204 76
76 204 76
76 204 76
76 204 76
76 204 76
76 204 76
76 204 76
76 204 76
76 204 76
76 204 76
76 204 76
76 204 76
76 204 76
76 204 76
76 204 76
76 204 76
76 204 76
76 204 76
76 204 76
76 204 76
76 204 76
76 204 76
76 204 76
76 204 76
76 204 76
76 204 76
76 204 76
76 204 76
76 204 76
76 204 76
76 204 76
76 204 76
76 204 76
76 204 76
76 204 76
76 204 76
76 204 76
76 204 76
76 204 76
76 204 76
76 204 76
76 204 76
76 204 76
76 204 76
76 204 76
76 204 76
76 204 76
76 204 76
76 204 76
76 204 76
76 204 76
76 204 76
76 204 76
76 204 76
76 204 76
76 204 76
76 204 76
76 204 76
76 204 76
76 204 76
76 204 76
76 204 76
76 204 76
76 204 76
76 204 76
76 204 76
76 204 76
76 204 76
76 204 76
76 204 76
76 204 76
76 204 76
76 204 76
76 204 76
76 204 76
76 204 76
76 204 76
76 204 76
76 204 76
76 204 76
76 204 76
76 204 76
76 204 76
76 204 76
76 204 76
76 204 76
76 204 76
76 204 76
76 204 76
76 204 76
76 204 76
76 204 76
76 204 76
76 204 76
76 204 76
76 204 76
76 204 76
76 204 76
76 204 76
76 204 76
76 204 76
76 204 76
76 204 76
76 204 76
76 204 76
76 204 76
76 204 76
76 204 76
76 204 76
76 204 76
76 204 76
76 204 76
76 204 76
76 204 76
76 204 76
76 204 76
76 204 76
76 204 76
76 204 76
76 204 76
76 204 76
76 204 76
76 204 76
76 204 76
76 204 76
76 204 76
76 204 76
76 204 76
76 204 76
76 204 76
76 204 76
76 204 76
76 204 76
76 204 76
76 204 76
76 204 76
76 204 76
76 204 76
76 204 76
76 204 76
76 204 76
76 204 76
76 204 76
76 204 76
76 204 76
76 204 76
76 204 76
76 204 76
76 204 76
76 204 76
76 204 76
76 204 76
76 204 76
76 204 76
76 204 76
76 204 76
76 204 76
76 204 76
76 204 76
76 204 76
76 204 76
76 204 76
76 204 76
76 204 76
76 204 76
76 204 76
76 204 76
76 204 76
76 204 76
76 204 76
76 204 76
76 204 76
76 204 76
76 204 76
76 204 76
76 204 76
76 204 76
76 204 76
76 204 76
76 204 76
76 204 76
76 204 76
76 204 76
76 204 76
76 204 76
76 204 76
76 204 76
76 204 76
76 204 76
76 204 76
76 204 76
76 204 76
76 204 76
76 204 76
76 204 76
76 204 76
76 204 76
76 204 76
76 204 76
76 204 76
76 204 76
76 204 76
76 204 76
76 204 76
76 204 76
76 204 76
76 204 76
76 204 76
76 204 76
76 204 76
76 204 76
76 204 76
76 204 76
76 204 76
76 204 76
76 204 76
76 204 76
76 204 76
76 204 76
76 204 76
76 204 76
76 204 76
76 204 76
76 204 76
76 204 76
76 204 76
76 204 76
76 204 76
76 204 76
76 204 76
76 204 76
76 204 76
76 204 76
76 204 76
76 204 76
76 204 76
76 204 76
76 204 76
76 204 76
76 204 76
76 204 76
76 204 76
76 204 76
76 204 76
76 204 76
76 204 76
76 204 76
76 204 76
76 204 76
76 204 76
76 204 76
76 204 76
76 204 76
76 204 76
76 204 76
76 204 76
76 204 76
76 204 76
76 204 76
76 204 76
76 204 76
76 204 76
76 204 76
76 204 76
76 204 76
76 204 76
76 204 76
76 204 76
76 204 76
76 204 76
76 204 76
76 204 76
76 204 76
76 204 76
76 204 76
76 204 76
76 204 76
76 204 76
76 204 76
76 204 76
76 204 76
76 204 76
76 204 76
76 204 76
76 204 76
76 204 76
76 204 76
76 204 76
76 204 76
76 204 76
76 204 76
76 204 76
76 204 76
76 204 76
76 204 76
76 204 76
76 204 76
76 204 76
76 204 76
76 204 76
76 204 76
76 204 76
76 204 76
76 204 76
76 204 76
76 204 76
76 204 76
76 204 76
76 204 76
76 204 76
76 204 76
76 204 76
76 204 76
76 204 76
76 204 76
76 204 76
76 204 76
76 204 76
76 204 76
76 204 76
76 204 76
76 204 76
76 204 76
76 204 76
76 204 76
76 204 76
76 204 76
76 204 76
76 204 76
76 204 76
76 204 76
76 204 76
76 204 76
76 204 76
76 204 76
76 204 76
76 204 76
76 204 76
76 204 76
76 204 76
76 204 76
76 204 76
76 204 76
76 204 76
76 204 76
76 204 76
76 204 76
76 204 76
76 204 76
76 204 76
76 204 76
76 204 76
76 204 76
76 204 76
76 204 76
76 204 76
76 204 76
76 204 76
76 204 76
76 204 76
76 204 76
76 204 76
76 204 76
76 204 76
76 204 76
76 204 76
76 204 76
76 204 76
76 204 76
76 204 76
76 204 76
76 204 76
76 204 76
76 204 76
76 204 76
76 204 76
76 204 76
76 204 76
76 204 76
76 204 76
76 204 76
76 204 76
76 204 76
76 204 76
76 204 76
76 204 76
76 204 76
76 204 76
76 204 76
76 204 76
76 204 76
76 204 76
76 204 76
76 204 76
76 204 76
76 204 76
76 204 76
76 204 76
76 204 76
76 204 76
76 204 76
76 204 76
76 204 76
76 204 76
76 204 76
76 204 76
76 204 76
76 204 76
76 204 76
76 204 76
76 204 76
76 204 76
76 204 76
76 204 76
76 204 76
76 204 76
76 204 76
76 204 76
76 204 76
76 204 76
76 204 76
76 204 76
76 204 76
76 204 76
76 204 76
76 204 76
76 204 76
76 204 76
76 204 76
76 204 76
76 204 76
76 204 76
76 204 76
76 204 76
76 204 76
76 204 76
76 204 76
76 204 76
76 204 76
76 204 76
76 204 76
76 204 76
76 204 76
76 204 76
76 204 76
76 204 76
76 204 76
76 204 76
76 204 76
76 204 76
76 204 76
76 204 76
76 204 76
76 204 76
76 204 76
76 204 76
76 204 76
76 204 76
76 204 76
76 204 76
76 204 76
76 204 76
76 204 76
76 204 76
76 204 76
76 204 76
76 204 76
76 204 76
76 204 76
76 204 76
76 204 76
76 204 76
76 204 76
76 204 76
76 204 76
76 204 76
76 204 76
76 204 76
76 204 76
76 204 76
76 204 76
76 204 76
76 204 76
76 204 76
76 204 76
76 204 76
76 204 76
76 204 76
76 204 76
76 204 76
76 204 76
76 204 76
76 204 76
76 204 76
76 204 76
76 204 76
76 204 76
76 204 76
76 204 76
76 204 76
76 204 76
76 204 76
76 204 76
76 204 76
76 204 76
76 204 76
76 204 76
76 204 76
76 204 76
76 204 76
76 204 76
76 204 76
76 204 76
76 204 76
76 204 76
76 204 76
76 204 76
76 204 76
76 204 76
76 204 76
76 204 76
76 204 76
76 204 76
76 204 76
76 204 76
76 204 76
76 204 76
76 204 76
76 204 76
76 204 76
76 204 76
76 204 76
76 204 76
76 204 76
76 204 76
76 204 76
76 204 76
76 204 76
76 204 76
76 204 76
76 204 76
76 204 76
76 204 76
76 204 76
76 204 76
76 204 76
76 204 76
76 204 76
76 204 76
76 204 76
76 204 76
76 204 76
76 204 76
76 204 76
76 204 76
76 204 76
76 204 76
76 204 76
76 204 76
76 204 76
76 204 76
76 204 76
76 204 76
76 204 76
76 204 76
76 204 76
76 204 76
76 204 76
76 204 76
76 204 76
76 204 76
76 204 76
76 204 76
76 204 76
76 204 76
76 204 76
76 204 76
76 204 76
76 204 76
76 204 76
76 204 76
76 204 76
76 204 76
76 204 76
76 204 76
76 204 76
76 204 76
76 204 76
76 204 76
76 204 76
76 204 76
76 204 76
76 204 76
76 204 76
76 204 76
76 204 76
76 204 76
76 204 76
76 204 76
76 204 76
76 204 76
76 204 76
76 204 76
76 204 76
76 204 76
76 204 76
76 204 76
76 204 76
76 204 76
76 204 76
76 204 76
76 204 76
76 204 76
76 204 76
76 204 76
76 204 76
76 204 76
76 204 76
76 204 76
76 204 76
76 204 76
76 204 76
76 204 76
76 204 76
76 204 76
76 204 76
76 204 76
76 204 76
76 204 76
76 204 76
76 204 76
76 204 76
76 204 76
76 204 76
76 204 76
76 204 76
76 204 76
76 204 76
76 204 76
76 204 76
76 204 76
76 204 76
76 204 76
76 204 76
76 204 76
76 204 76
76 204 76
76 204 76
76 204 76
76 204 76
76 204 76
76 204 76
76 204 76
76 204 76
76 204 76
76 204 76
76 204 76
76 204 76
76 204 76
76 204 76
76 204 76
76 204 76
76 204 76
76 204 76
76 204 76
76 204 76
76 204 76
76 204 76
76 204 76
76 204 76
76 204 76
76 204 76
76 204 76
76 204 76
76 204 76
76 204 76
76 204 76
76 204 76
76 204 76
76 204 76
76 204 76
76 204 76
76 204 76
76 204 76
76 204 76
76 204 76
76 204 76
76 204 76
76 204 76
76 204 76
76 204 76
76 204 76
76 204 76
76 204 76
76 204 76
76 204 76
76 204 76
76 204 76
76 204 76
76 204 76
76 204 76
76 204 76
76 204 76
76 204 76
76 204 76
76 204 76
76 204 76
76 204 76
76 204 76
76 204 76
76 204 76
76 204 76
76 204 76
76 204 76
76 204 76
76 204 76
76 204 76
76 204 76
76 204 76
76 204 76
76 204 76
76 204 76
76 204 76
76 204 76
76 204 76
76 204 76
76 204 76
76 204 76
76 204 76
76 204 76
76 204 76
76 204 76
76 204 76
76 204 76
76 204 76
76 204 76
76 204 76
76 204 76
76 204 76
76 204 76
76 204 76
76 204 76
76 204 76
76 204 76
76 204 76
76 204 76
76 204 76
76 204 76
76 204 76
76 204 76
76 204 76
76 204 76
76 204 76
76 204 76
76 204 76
76 204 76
76 204 76
76 204 76
76 204 76
76 204 76
76 204 76
76 204 76
76 204 76
76 204 76
76 204 76
76 204 76
76 204 76
76 204 76
76 204 76
76 204 76
76 204 76
76 204 76
76 204 76
76 204 76
76 204 76
76 204 76
76 204 76
76 204 76
76 204 76
76 204 76
76 204 76
76 204 76
76 204 76
76 204 76
76 204 76
76 204 76
76 204 76
76 204 76
76 204 76
76 204 76
76 204 76
76 204 76
76 204 76
76 204 76
76 204 76
76 204 76
76 204 76
76 204 76
76 204 76
76 204 76
76 204 76
76 204 76
76 204 76
76 204 76
76 204 76
76 204 76
76 204 76
76 204 76
76 204 76
76 204 76
76 204 76
76 204 76
76 204 76
76 204 76
76 204 76
76 204 76
76 204 76
76 204 76
76 204 76
76 204 76
76 204 76
76 204 76
76 204 76
76 204 76
76 204 76
76 204 76
76 204 76
76 204 76
76 204 76
76 204 76
76 204 76
76 204 76
76 204 76
76 204 76
76 204 76
76 204 76
76 204 76
76 204 76
76 204 76
76 204 76
76 204 76
76 204 76
76 204 76
76 204 76
76 204 76
76 204 76
76 204 76
76 204 76
76 204 76
76 204 76
76 204 76
76 204 76
76 204 76
76 204 76
76 204 76
76 204 76
76 204 76
76 204 76
76 204 76
76 204 76
76 204 76
76 204 76
76 204 76
76 204 76
76 204 76
76 204 76
76 204 76
76 204 76
76 204 76
76 204 76
76 204 76
76 204 76
76 204 76
76 204 76
76 204 76
76 204 76
76 204 76
76 204 76
76 204 76
76 204 76
76 204 76
76 204 76
76 204 76
76 204 76
76 204 76
76 204 76
76 204 76
76 204 76
76 204 76
76 204 76
76 204 76
76 204 76
76 204 76
76 204 76
76 204 76
76 204 76
76 204 76
76 204 76
76 204 76
76 204 76
76 204 76
76 204 76
76 204 76
76 204 76
76 204 76
76 204 76
76 204 76
76 204 76
76 204 76
76 204 76
76 204 76
76 204 76
76 204 76
76 204 76
76 204 76
76 204 76
76 204 76
76 204 76
76 204 76
76 204 76
76 204 76
76 204 76
76 204 76
76 204 76
76 204 76
76 204 76
76 204 76
76 204 76
76 204 76
76 204 76
76 204 76
76 204 76
76 204 76
76 204 76
76 204 76
76 204 76
76 204 76
76 204 76
76 204 76
76 204 76
76 204 76
76 204 76
76 204 76
76 204 76
76 204 76
76 204 76
76 204 76
76 204 76
76 204 76
76 204 76
76 204 76
76 204 76
76 204 76
76 204 76
76 204 76
76 204 76
76 204 76
76 204 76
76 204 76
76 204 76
76 204 76
76 204 76
76 204 76
76 204 76
76 204 76
76 204 76
76 204 76
76 204 76
76 204 76
76 204 76
76 204 76
76 204 76
76 204 76
76 204 76
76 204 76
76 204 76
76 204 76
76 204 76
76 204 76
76 204 76
76 204 76
76 204 76
76 204 76
76 204 76
76 204 76
76 204 76
76 204 76
76 204 76
76 204 76
76 204 76
76 204 76
76 204 76
76 204 76
76 204 76
76 204 76
76 204 76
76 204 76
76 204 76
76 204 76
76 204 76
76 204 76
76 204 76
76 204 76
76 204 76
76 204 76
76 204 76
76 204 76
76 204 76
76 204 76
76 204 76
76 204 76
76 204 76
76 204 76
76 204 76
76 204 76
76 204 76
76 204 76
76 204 76
76 204 76
76 204 76
76 204 76
76 204 76
76 204 76
76 204 76
76 204 76
76 204 76
76 204 76
76 204 76
76 204 76
76 204 76
76 204 76
76 204 76
76 204 76
76 204 76
76 204 76
76 204 76
76 204 76
76 204 76
76 204 76
76 204 76
76 204 76
76 204 76
76 204 76
76 204 76
76 204 76
76 204 76
76 204 76
76 204 76
76 204 76
76 204 76
76 204 76
76 204 76
76 204 76
76 204 76
76 204 76
76 204 76
76 204 76
76 204 76
76 204 76
76 204 76
76 204 76
76 204 76
76 204 76
76 204 76
76 204 76
76 204 76
76 204 76
76 204 76
76 204 76
76 204 76
76 204 76
76 204 76
76 204 76
76 204 76
76 204 76
76 204 76
76 204 76
76 204 76
76 204 76
76 204 76
76 204 76
76 204 76
76 204 76
76 204 76
76 204 76
76 204 76
76 204 76
76 204 76
76 204 76
76 204 76
76 204 76
76 204 76
76 204 76
76 204 76
76 204 76
76 204 76
76 204 76
76 204 76
76 204 76
76 204 76
76 204 76
76 204 76
76 204 76
76 204 76
76 204 76
76 204 76
76 204 76
76 204 76
76 204 76
76 204 76
76 204 76
76 204 76
76 204 76
76 204 76
76 204 76
76 204 76
76 204 76
76 204 76
76 204 76
76 204 76
76 204 76
76 204 76
76 204 76
76 204 76
76 204 76
76 204 76
76 204 76
76 204 76
76 204 76
76 204 76
76 204 76
76 204 76
76 204 76
76 204 76
76 204 76
76 204 76
76 204 76
76 204 76
76 204 76
76 204 76
76 204 76
76 204 76
76 204 76
76 204 76
76 204 76
76 204 76
76 204 76
76 204 76
76 204 76
76 204 76
76 204 76
76 204 76
76 204 76
76 204 76
76 204 76
76 204 76
76 204 76
76 204 76
76 204 76
76 204 76
76 204 76
76 204 76
76 204 76
76 204 76
76 204 76
76 204 76
76 204 76
76 204 76
76 204 76
76 204 76
76 204 76
76 204 76
76 204 76
76 204 76
76 204 76
76 204 76
76 204 76
76 204 76
76 204 76
76 204 76
76 204 76
76 204 76
76 204 76
76 204 76
76 204 76
76 204 76
76 204 76
76 204 76
76 204 76
76 204 76
76 204 76
76 204 76
76 204 76
76 204 76
76 204 76
76 204 76
76 204 76
76 204 76
76 204 76
76 204 76
76 204 76
76 204 76
76 204 76
76 204 76
76 204 76
76 204 76
76 204 76
76 204 76
76 204 76
76 204 76
76 204 76
76 204 76
76 204 76
76 204 76
76 204 76
76 204 76
76 204 76
76 204 76
76 204 76
76 204 76
76 204 76
76 204 76
76 204 76
76 204 76
76 204 76
76 204 76
76 204 76
76 204 76
76 204 76
76 204 76
76 204 76
76 204 76
76 204 76
76 204 76
76 204 76
76 204 76
76 204 76
76 204 76
76 204 76
76 204 76
76 204 76
76 204 76
76 204 76
76 204 76
76 204 76
76 204 76
76 204 76
76 204 76
76 204 76
76 204 76
76 204 76
76 204 76
76 204 76
76 204 76
76 204 76
76 204 76
76 204 76
76 204 76
76 204 76
76 204 76
76 204 76
76 204 76
76 204 76
76 204 76
76 204 76
76 204 76
76 204 76
76 204 76
76 204 76
76 204 76
76 204 76
76 204 76
76 204 76
76 204 76
76 204 76
76 204 76
76 204 76
76 204 76
76 204 76
76 204 76
76 204 76
76 204 76
76 204 76
76 204 76
76 204 76
76 204 76
76 204 76
76 204 76
76 204 76
76 204 76
76 204 76
76 204 76
76 204 76
76 204 76
76 204 76
76 204 76
76 204 76
76 204 76
76 204 76
76 204 76
76 204 76
76 204 76
76 204 76
76 204 76
76 204 76
76 204 76
76 204 76
76 204 76
76 204 76
76 204 76
76 204 76
76 204 76
76 204 76
76 204 76
76 204 76
76 204 76
76 204 76
76 204 76
76 204 76
76 204 76
76 204 76
76 204 76
76 204 76
76 204 76
76 204 76
76 204 76
76 204 76
76 204 76
76 204 76
76 204 76
76 204 76
76 204 76
76 204 76
76 204 76
76 204 76
76 204 76
76 204 76
76 204 76
76 204 76
76 204 76
76 204 76
76 204 76
76 204 76
76 204 76
76 204 76
76 204 76
76 204 76
76 204 76
76 204 76
76 204 76
76 204 76
76 204 76
76 204 76
76 204 76
76 204 76
76 204 76
76 204 76
76 204 76
76 204 76
76 204 76
76 204 76
76 204 76
76 204 76
76 204 76
76 204 76
76 204 76
76 204 76
76 204 76
76 204 76
76 204 76
76 204 76
76 204 76
76 204 76
76 204 76
76 204 76
76 204 76
76 204 76
76 204 76
76 204 76
76 204 76
76 204 76
76 204 76
76 204 76
76 204 76
76 204 76
76 204 76
76 204 76
76 204 76
76 204 76
76 204 76
76 204 76
76 204 76
76 204 76
76 204 76
76 204 76
76 204 76
76 204 76
76 204 76
76 204 76
76 204 76
76 204 76
76 204 76
76 204 76
76 204 76
76 204 76
76 204 76
76 204 76
76 204 76
76 204 76
76 204 76
76 204 76
76 204 76
76 204 76
76 204 76
76 204 76
76 204 76
76 204 76
76 204 76
76 204 76
76 204 76
76 204 76
76 204 76
76 204 76
76 204 76
76 204 76
76 204 76
76 204 76
76 204 76
76 204 76
76 204 76
76 204 76
76 204 76
76 204 76
76 204 76
76 204 76
76 204 76
76 204 76
76 204 76
76 204 76
76 204 76
76 204 76
76 204 76
76 204 76
76 204 76
76 204 76
76 204 76
76 204 76
76 204 76
76 204 76
76 204 76
76 204 76
76 204 76
76 204 76
76 204 76
76 204 76
76 204 76
76 204 76
76 204 76
76 204 76
76 204 76
76 204 76
76 204 76
76 204 76
76 204 76
76 204 76
76 204 76
76 204 76
76 204 76
76 204 76
76 204 76
76 204 76
76 204 76
76 204 76
76 204 76
76 204 76
76 204 76
76 204 76
76 204 76
76 204 76
76 204 76
76 204 76
76 204 76
76 204 76
76 204 76
76 204 76
76 204 76
76 204 76
76 204 76
76 204 76
76 204 76
76 204 76
76 204 76
76 204 76
76 204 76
76 204 76
76 204 76
76 204 76
76 204 76
76 204 76
76 204 76
76 204 76
76 204 76
76 204 76
76 204 76
76 204 76
76 204 76
76 204 76
76 204 76
76 204 76
76 204 76
76 204 76
76 204 76
76 204 76
76 204 76
76 204 76
76 204 76
76 204 76
76 204 76
76 204 76
76 204 76
76 204 76
76 204 76
76 204 76
76 204 76
76 204 76
76 204 76
76 204 76
76 204 76
76 204 76
76 204 76
76 204 76
76 204 76
76 204 76
76 204 76
76 204 76
76 204 76
76 204 76
76 204 76
76 204 76
76 204 76
76 204 76
76 204 76
76 204 76
76 204 76
76 204 76
76 204 76
76 204 76
76 204 76
76 204 76
76 204 76
76 204 76
76 204 76
76 204 76
76 204 76
76 204 76
76 204 76
76 204 76
76 204 76
76 204 76
76 204 76
76 204 76
76 204 76
76 204 76
76 204 76
76 204 76
76 204 76
76 204 76
76 204 76
76 204 76
76 204 76
76 204 76
76 204 76
76 204 76
76 204 76
76 204 76
76 204 76
76 204 76
76 204 76
76 204 76
76 204 76
76 204 76
76 204 76
76 204 76
76 204 76
76 204 76
76 204 76
76 204 76
76 204 76
76 204 76
76 204 76
76 204 76
76 204 76
76 204 76
76 204 76
76 204 76
76 204 76
76 204 76
76 204 76
76 204 76
76 204 76
76 204 76
76 204 76
76 204 76
76 204 76
76 204 76
76 204 76
76 204 76
76 204 76
76 204 76
76 204 76
76 204 76
76 204 76
76 204 76
76 204 76
76 204 76
76 204 76
76 204 76
76 204 76
76 204 76
76 204 76
76 204 76
76 204 76
76 204 76
76 204 76
76 204 76
76 204 76
76 204 76
76 204 76
76 204 76
76 204 76
76 204 76
76 204 76
76 204 76
76 204 76
76 204 76
76 204 76
76 204 76
76 204 76
76 204 76
76 204 76
76 204 76
76 204 76
76 204 76
76 204 76
76 204 76
76 204 76
76 204 76
76 204 76
76 204 76
76 204 76
76 204 76
76 204 76
76 204 76
76 204 76
76 204 76
76 204 76
76 204 76
76 204 76
76 204 76
76 204 76
76 204 76
76 204 76
76 204 76
76 204 76
76 204 76
76 204 76
76 204 76
76 204 76
76 204 76
76 204 76
76 204 76
76 204 76
76 204 76
76 204 76
76 204 76
76 204 76
76 204 76
76 204 76
76 204 76
76 204 76
76 204 76
76 204 76
76 204 76
76 204 76
76 204 76
76 204 76
76 204 76
76 204 76
76 204 76
76 204 76
76 204 76
76 204 76
76 204 76
76 204 76
76 204 76
76 204 76
76 204 76
76 204 76
76 204 76
76 204 76
76 204 76
76 204 76
76 204 76
76 204 76
76 204 76
76 204 76
76 204 76
76 204 76
76 204 76
76 204 76
76 204 76
76 204 76
76 204 76
76 204 76
76 204 76
76 204 76
76 204 76
76 204 76
76 204 76
76 204 76
76 204 76
76 204 76
76 204 76
76 204 76
76 204 76
76 204 76
76 204 76
76 204 76
76 204 76
76 204 76
76 204 76
76 204 76
76 204 76
76 204 76
76 204 76
76 204 76
76 204 76
76 204 76
76 204 76
76 204 76
76 204 76
76 204 76
76 204 76
76 204 76
76 204 76
76 204 76
76 204 76
76 204 76
76 204 76
76 204 76
76 204 76
76 204 76
76 204 76
76 204 76
76 204 76
76 204 76
76 204 76
76 204 76
76 204 76
76 204 76
76 204 76
76 204 76
76 204 76
76 204 76
76 204 76
76 204 76
76 204 76
76 204 76
76 204 76
76 204 76
76 204 76
76 204 76
76 204 76
76 204 76
76 204 76
76 204 76
76 204 76
76 204 76
76 204 76
76 204 76
76 204 76
76 204 76
76 204 76
76 204 76
76 204 76
76 204 76
76 204 76
76 204 76
76 204 76
76 204 76
76 204 76
76 204 76
76 204 76
76 204 76
76 204 76
76 204 76
76 204 76
76 204 76
76 204 76
76 204 76
76 204 76
76 204 76
76 204 76
76 204 76
76 204 76
76 204 76
76 204 76
76 204 76
76 204 76
76 204 76
76 204 76
76 204 76
76 204 76
76 204 76
76 204 76
76 204 76
76 204 76
76 204 76
76 204 76
76 204 76
76 204 76
76 204 76
76 204 76
76 204 76
76 204 76
76 204 76
76 204 76
76 204 76
76 204 76
76 204 76
76 204 76
76 204 76
76 204 76
76 204 76
76 204 76
76 204 76
76 204 76
76 204 76
76 204 76
76 204 76
76 204 76
76 204 76
76 204 76
76 204 76
76 204 76
76 204 76
76 204 76
76 204 76
76 204 76
76 204 76
76 204 76
76 204 76
76 204 76
76 204 76
76 204 76
76 204 76
76 204 76
76 204 76
76 204 76
76 204 76
76 204 76
76 204 76
76 204 76
76 204 76
76 204 76
76 204 76
76 204 76
76 204 76
76 204 76
76 204 76
76 204 76
76 204 76
76 204 76
76 204 76
76 204 76
76 204 76
76 204 76
76 204 76
76 204 76
76 204 76
76 204 76
76 204 76
76 204 76
76 204 76
76 204 76
76 204 76
76 204 76
76 204 76
76 204 76
76 204 76
76 204 76
76 204 76
76 204 76
76 204 76
76 204 76
76 204 76
76 204 76
76 204 76
76 204 76
76 204 76
76 204 76
76 204 76
76 204 76
76 204 76
76 204 76
76 204 76
76 204 76
76 204 76
76 204 76
76 204 76
76 204 76
76 204 76
76 204 76
76 204 76
76 204 76
76 204 76
76 204 76
76 204 76
76 204 76
76 204 76
76 204 76
76 204 76
76 204 76
76 204 76
76 204 76
76 204 76
76 204 76
76 204 76
76 204 76
76 204 76
76 204 76
76 204 76
76 204 76
76 204 76
76 204 76
76 204 76
76 204 76
76 204 76
76 204 76
76 204 76
76 204 76
76 204 76
76 204 76
76 204 76
76 204 76
76 204 76
76 204 76
76 204 76
76 204 76
76 204 76
76 204 76
76 204 76
76 204 76
76 204 76
76 204 76
76 204 76
76 204 76
76 204 76
76 204 76
76 204 76
76 204 76
76 204 76
76 204 76
76 204 76
76 204 76
76 204 76
76 204 76
76 204 76
76 204 76
76 204 76
76 204 76
76 204 76
76 204 76
76 204 76
76 204 76
76 204 76
76 204 76
76 204 76
76 204 76
76 204 76
76 204 76
76 204 76
76 204 76
76 204 76
76 204 76
76 204 76
76 204 76
76 204 76
76 204 76
76 204 76
76 204 76
76 204 76
76 204 76
76 204 76
76 204 76
76 204 76
76 204 76
76 204 76
76 204 76
76 204 76
76 204 76
76 204 76
76 204 76
76 204 76
76 204 76
76 204 76
76 204 76
76 204 76
76 204 76
76 204 76
76 204 76
76 204 76
76 204 76
76 204 76
76 204 76
76 204 76
76 204 76
76 204 76
76 204 76
76 204 76
76 204 76
76 204 76
76 204 76
76 204 76
76 204 76
76 204 76
76 204 76
76 204 76
76 204 76
76 204 76
76 204 76
76 204 76
76 204 76
76 204 76
76 204 76
76 204 76
76 204 76
76 204 76
76 204 76
76 204 76
76 204 76
76 204 76
76 204 76
76 204 76
76 204 76
76 204 76
76 204 76
76 204 76
76 204 76
76 204 76
76 204 76
76 204 76
76 204 76
76 204 76
76 204 76
76 204 76
76 204 76
76 204 76
76 204 76
76 204 76
76 204 76
76 204 76
76 204 76
76 204 76
76 204 76
76 204 76
76 204 76
76 204 76
76 204 76
76 204 76
76 204 76
76 204 76
76 204 76
76 204 76
76 204 76
76 204 76
76 204 76
76 204 76
76 204 76
76 204 76
76 204 76
76 204 76
76 204 76
76 204 76
76 204 76
76 204 76
76 204 76
76 204 76
76 204 76
76 204 76
76 204 76
76 204 76
76 204 76
76 204 76
76 204 76
76 204 76
76 204 76
76 204 76
76 204 76
76 204 76
76 204 76
76 204 76
76 204 76
76 204 76
76 204 76
76 204 76
76 204 76
76 204 76
76 204 76
76 204 76
76 204 76
76 204 76
76 204 76
76 204 76
76 204 76
76 204 76
76 204 76
76 204 76
76 204 76
76 204 76
76 204 76
76 204 76
76 204 76
76 204 76
76 204 76
76 204 76
76 204 76
76 204 76
76 204 76
76 204 76
76 204 76
76 204 76
76 204 76
76 204 76
76 204 76
76 204 76
76 204 76
76 204 76
76 204 76
76 204 76
76 204 76
76 204 76
76 204 76
76 204 76
76 204 76
76 204 76
76 204 76
76 204 76
76 204 76
76 204 76
76 204 76
76 204 76
76 204 76
76 204 76
76 204 76
76 204 76
76 204 76
76 204 76
76 204 76
76 204 76
76 204 76
76 204 76
76 204 76
76 204 76
76 204 76
76 204 76
76 204 76
76 204 76
76 204 76
76 204 76
76 204 76
76 204 76
76 204 76
76 204 76
76 204 76
76 204 76
76 204 76
76 204 76
76 204 76
76 204 76
76 204 76
76 204 76
76 204 76
76 204 76
76 204 76
76 204 76
76 204 76
76 204 76
76 204 76
76 204 76
76 204 76
76 204 76
76 204 76
76 204 76
76 204 76
76 204 76
76 204 76
76 204 76
76 204 76
76 204 76
76 204 76
76 204 76
76 204 76
76 204 76
76 204 76
76 204 76
76 204 76
76 204 76
76 204 76
76 204 76
76 204 76
76 204 76
76 204 76
76 204 76
76 204 76
76 204 76
76 204 76
76 204 76
76 204 76
76 204 76
76 204 76
76 204 76
76 204 76
76 204 76
76 204 76
76 204 76
76 204 76
76 204 76
76 204 76
76 204 76
76 204 76
76 204 76
76 204 76
76 204 76
76 204 76
76 204 76
76 204 76
76 204 76
76 204 76
76 204 76
76 204 76
76 204 76
76 204 76
76 204 76
76 204 76
76 204 76
76 204 76
76 204 76
76 204 76
76 204 76
76 204 76
76 204 76
76 204 76
76 204 76
76 204 76
76 204 76
76 204 76
76 204 76
76 204 76
76 204 76
76 204 76
76 204 76
76 204 76
76 204 76
76 204 76
76 204 76
76 204 76
76 204 76
76 204 76
76 204 76
76 204 76
76 204 76
76 204 76
76 204 76
76 204 76
76 204 76
76 204 76
76 204 76
76 204 76
76 204 76
76 204 76
76 204 76
76 204 76
76 204 76
76 204 76
76 204 76
76 204 76
76 204 76
76 204 76
76 204 76
76 204 76
76 204 76
76 204 76
76 204 76
76 204 76
76 204 76
76 204 76
76 204 76
76 204 76
76 204 76
76 204 76
76 204 76
76 204 76
76 204 76
76 204 76
76 204 76
76 204 76
76 204 76
76 204 76
76 204 76
76 204 76
76 204 76
76 204 76
76 204 76
76 204 76
76 204 76
76 204 76
76 204 76
76 204 76
76 204 76
76 204 76
76 204 76
76 204 76
76 204 76
76 204 76
76 204 76
76 204 76
76 204 76
76 204 76
76 204 76
76 204 76
76 204 76
76 204 76
76 204 76
76 204 76
76 204 76
76 204 76
76 204 76
76 204 76
76 204 76
76 204 76
76 204 76
76 204 76
76 204 76
76 204 76
76 204 76
76 204 76
76 204 76
76 204 76
76 204 76
76 204 76
76 204 76
76 204 76
76 204 76
76 204 76
76 204 76
76 204 76
76 204 76
76 204 76
76 204 76
76 204 76
76 204 76
76 204 76
76 204 76
76 204 76
76 204 76
76 204 76
76 204 76
76 204 76
76 204 76
76 204 76
76 204 76
76 204 76
76 204 76
76 204 76
76 204 76
76 204 76
76 204 76
76 204 76
76 204 76
76 204 76
76 204 76
76 204 76
76 204 76
76 204 76
76 204 76
76 204 76
76 204 76
76 204 76
76 204 76
76 204 76
76 204 76
76 204 76
76 204 76
76 204 76
76 204 76
76 204 76
76 204 76
76 204 76
76 204 76
76 204 76
76 204 76
76 204 76
76 204 76
76 204 76
76 204 76
76 204 76
76 204 76
76 204 76
76 204 76
76 204 76
76 204 76
76 204 76
76 204 76
76 204 76
76 204 76
76 204 76
76 204 76
76 204 76
76 204 76
76 204 76
76 204 76
76 204 76
76 204 76
76 204 76
76 204 76
76 204 76
76 204 76
76 204 76
76 204 76
76 204 76
76 204 76
76 204 76
76 204 76
76 204 76
76 204 76
76 204 76
76 204 76
76 204 76
76 204 76
76 204 76
76 204 76
76 204 76
76 204 76
76 204 76
76 204 76
76 204 76
76 204 76
76 204 76
76 204 76
76 204 76
76 204 76
76 204 76
76 204 76
76 204 76
76 204 76
76 204 76
76 204 76
76 204 76
76 204 76
76 204 76
76 204 76
76 204 76
76 204 76
76 204 76
76 204 76
76 204 76
76 204 76
76 204 76
76 204 76
76 204 76
76 204 76
76 204 76
76 204 76
76 204 76
76 204 76
76 204 76
76 204 76
76 204 76
76 204 76
76 204 76
76 204 76
76 204 76
76 204 76
76 204 76
76 204 76
76 204 76
76 204 76
76 204 76
76 204 76
76 204 76
76 204 76
76 204 76
76 204 76
76 204 76
76 204 76
76 204 76
76 204 76
76 204 76
76 204 76
76 204 76
76 204 76
76 204 76
76 204 76
76 204 76
76 204 76
76 204 76
76 204 76
76 204 76
76 204 76
76 204 76
76 204 76
76 204 76
76 204 76
76 204 76
76 204 76
76 204 76
76 204 76
76 204 76
76 204 76
76 204 76
76 204 76
76 204 76
76 204 76
76 204 76
76 204 76
76 204 76
76 204 76
76 204 76
76 204 76
76 204 76
76 204 76
76 204 76
76 204 76
76 204 76
76 204 76
76 204 76
76 204 76
76 204 76
76 204 76
76 204 76
76 204 76
76 204 76
76 204 76
76 204 76
76 204 76
76 204 76
76 204 76
76 204 76
76 204 76
76 204 76
76 204 76
76 204 76
76 204 76
76 204 76
76 204 76
76 204 76
76 204 76
76 204 76
76 204 76
76 204 76
76 204 76
76 204 76
76 204 76
76 204 76
76 204 76
76 204 76
76 204 76
76 204 76
76 204 76
76 204 76
76 204 76
76 204 76
76 204 76
76 204 76
76 204 76
76 204 76
76 204 76
76 204 76
76 204 76
76 204 76
76 204 76
76 204 76
76 204 76
76 204 76
76 204 76
76 204 76
76 204 76
76 204 76
76 204 76
76 204 76
76 204 76
76 204 76
76 204 76
76 204 76
76 204 76
76 204 76
76 204 76
76 204 76
76 204 76
76 204 76
76 204 76
76 204 76
76 204 76
76 204 76
76 204 76
76 204 76
76 204 76
76 204 76
76 204 76
76 204 76
76 204 76
76 204 76
76 204 76
76 204 76
76 204 76
76 204 76
76 204 76
76 204 76
76 204 76
76 204 76
76 204 76
76 204 76
76 204 76
76 204 76
76 204 76
76 204 76
76 204 76
76 204 76
76 204 76
76 204 76
76 204 76
76 204 76
76 204 76
76 204 76
76 204 76
76 204 76
76 204 76
76 204 76
76 204 76
76 204 76
76 204 76
76 204 76
76 204 76
76 204 76
76 204 76
76 204 76
76 204 76
76 204 76
76 204 76
76 204 76
76 204 76
76 204 76
76 204 76
76 204 76
76 204 76
76 204 76
76 204 76
76 204 76
76 204 76
76 204 76
76 204 76
76 204 76
76 204 76
76 204 76
76 204 76
76 204 76
76 204 76
76 204 76
76 204 76
76 204 76
76 204 76
76 204 76
76 204 76
76 204 76
76 204 76
76 204 76
76 204 76
76 204 76
76 204 76
76 204 76
76 204 76
76 204 76
76 204 76
76 204 76
76 204 76
76 204 76
76 204 76
76 204 76
76 204 76
76 204 76
76 204 76
76 204 76
76 204 76
76 204 76
76 204 76
76 204 76
76 204 76
76 204 76
76 204 76
76 204 76
76 204 76
76 204 76
76 204 76
76 204 76
76 204 76
76 204 76
76 204 76
76 204 76
76 204 76
76 204 76
76 204 76
76 204 76
76 204 76
76 204 76
76 204 76
76 204 76
76 204 76
76 204 76
76 204 76
76 204 76
76 204 76
76 204 76
76 204 76
76 204 76
76 204 76
76 204 76
76 204 76
76 204 76
76 204 76
76 204 76
76 204 76
76 204 76
76 204 76
76 204 76
76 204 76
76 204 76
76 204 76
76 204 76
76 204 76
76 204 76
76 204 76
76 204 76
76 204 76
76 204 76
76 204 76
76 204 76
76 204 76
76 204 76
76 204 76
76 204 76
76 204 76
76 204 76
76 204 76
76 204 76
76 204 76
76 204 76
76 204 76
76 204 76
76 204 76
76 204 76
76 204 76
76 204 76
76 204 76
76 204 76
76 204 76
76 204 76
76 204 76
76 204 76
76 204 76
76 204 76
76 204 76
76 204 76
76 204 76
76 204 76
76 204 76
76 204 76
76 204 76
76 204 76
76 204 76
76 204 76
76 204 76
76 204 76
76 204 76
76 204 76
76 204 76
76 204 76
76 204 76
76 204 76
76 204 76
76 204 76
76 204 76
76 204 76
76 204 76
76 204 76
76 204 76
76 204 76
76 204 76
76 204 76
76 204 76
76 204 76
76 204 76
76 204 76
76 204 76
76 204 76
76 204 76
76 204 76
76 204 76
76 204 76
76 204 76
76 204 76
76 204 76
76 204 76
76 204 76
76 204 76
76 204 76
76 204 76
76 204 76
76 204 76
76 204 76
76 204 76
76 204 76
76 204 76
76 204 76
76 204 76
76 204 76
76 204 76
76 204 76
76 204 76
76 204 76
76 204 76
76 204 76
76 204 76
76 204 76
76 204 76
76 204 76
76 204 76
76 204 76
76 204 76
76 204 76
76 204 76
76 204 76
76 204 76
76 204 76
76 204 76
76 204 76
76 204 76
76 204 76
76 204 76
76 204 76
76 204 76
76 204 76
76 204 76
76 204 76
76 204 76
76 204 76
76 204 76
76 204 76
76 204 76
76 204 76
76 204 76
76 204 76
76 204 76
76 204 76
76 204 76
76 204 76
76 204 76
76 204 76
76 204 76
76 204 76
76 204 76
76 204 76
76 204 76
76 204 76
76 204 76
76 204 76
76 204 76
76 204 76
76 204 76
76 204 76
76 204 76
76 204 76
76 204 76
76 204 76
76 204 76
76 204 76
76 204 76
76 204 76
76 204 76
76 204 76
76 204 76
76 204 76
76 204 76
76 204 76
76 204 76
76 204 76
76 204 76
76 204 76
76 204 76
76 204 76
76 204 76
76 204 76
76 204 76
76 204 76
76 204 76
76 204 76
76 204 76
76 204 76
76 204 76
76 204 76
76 204 76
76 204 76
76 204 76
76 204 76
76 204 76
76 204 76
76 204 76
76 204 76
76 204 76
76 204 76
76 204 76
76 204 76
76 204 76
76 204 76
76 204 76
76 204 76
76 204 76
76 204 76
76 204 76
76 204 76
76 204 76
76 204 76
76 204 76
76 204 76
76 204 76
76 204 76
76 204 76
76 204 76
76 204 76
76 204 76
76 204 76
76 204 76
76 204 76
76 204 76
76 204 76
76 204 76
76 204 76
76 204 76
76 204 76
76 204 76
76 204 76
76 204 76
76 204 76
76 204 76
76 204 76
76 204 76
76 204 76
76 204 76
76 204 76
76 204 76
76 204 76
76 204 76
76 204 76
76 204 76
76 204 76
76 204 76
76 204 76
76 204 76
76 204 76
76 204 76
76 204 76
76 204 76
76 204 76
76 204 76
76 204 76
76 204 76
76 204 76
76 204 76
76 204 76
76 204 76
76 204 76
76 204 76
76 204 76
76 204 76
76 204 76
76 204 76
76 204 76
76 204 76
76 204 76
76 204 76
76 204 76
76 204 76
76 204 76
76 204 76
76 204 76
76 204 76
76 204 76
76 204 76
76 204 76
76 204 76
76 204 76
76 204 76
76 204 76
76 204 76
76 204 76
76 204 76
76 204 76
76 204 76
76 204 76
76 204 76
76 204 76
76 204 76
76 204 76
76 204 76
76 204 76
76 204 76
76 204 76
76 204 76
76 204 76
76 204 76
76 204 76
76 204 76
76 204 76
76 204 76
76 204 76
76 204 76
76 204 76
76 204 76
76 204 76
76 204 76
76 204 76
76 204 76
76 204 76
76 204 76
76 204 76
76 204 76
76 204 76
76 204 76
76 204 76
76 204 76
76 204 76
76 204 76
76 204 76
76 204 76
76 204 76
76 204 76
76 204 76
76 204 76
76 204 76
76 204 76
76 204 76
76 204 76
76 204 76
76 204 76
76 204 76
76 204 76
76 204 76
76 204 76
76 204 76
76 204 76
76 204 76
76 204 76
76 204 76
76 204 76
76 204 76
76 204 76
76 204 76
76 204 76
76 204 76
76 204 76
76 204 76
76 204 76
76 204 76
76 204 76
76 204 76
76 204 76
76 204 76
76 204 76
76 204 76
76 204 76
76 204 76
76 204 76
76 204 76
76 204 76
76 204 76
76 204 76
76 204 76
76 204 76
76 204 76
76 204 76
76 204 76
76 204 76
76 204 76
76 204 76
76 204 76
76 204 76
76 204 76
76 204 76
76 204 76
76 204 76
76 204 76
76 204 76
76 204 76
76 204 76
76 204 76
76 204 76
76 204 76
76 204 76
76 204 76
76 204 76
76 204 76
76 204 76
76 204 76
76 204 76
76 204 76
76 204 76
76 204 76
76 204 76
76 204 76
76 204 76
76 204 76
76 204 76
76 204 76
76 204 76
76 204 76
76 204 76
76 204 76
76 204 76
76 204 76
76 204 76
76 204 76
76 204 76
76 204 76
76 204 76
76 204 76
76 204 76
76 204 76
76 204 76
76 204 76
76 204 76
76 204 76
76 204 76
76 204 76
76 204 76
76 204 76
76 204 76
76 204 76
76 204 76
76 204 76
76 204 76
76 204 76
76 204 76
76 204 76
76 204 76
76 204 76
76 204 76
76 204 76
76 204 76
76 204 76
76 204 76
76 204 76
76 204 76
76 204 76
76 204 76
76 204 76
76 204 76
76 204 76
76 204 76
76 204 76
76 204 76
76 204 76
76 204 76
76 204 76
76 204 76
76 204 76
76 204 76
76 204 76
76 204 76
76 204 76
76 204 76
76 204 76
76 204 76
76 204 76
76 204 76
76 204 76
76 204 76
76 204 76
76 204 76
76 204 76
76 204 76
76 204 76
76 204 76
76 204 76
76 204 76
76 204 76
76 204 76
76 204 76
76 204 76
76 204 76
76 204 76
76 204 76
76 204 76
76 204 76
76 204 76
76 204 76
76 204 76
76 204 76
76 204 76
76 204 76
76 204 76
76 204 76
76 204 76
76 204 76
76 204 76
76 204 76
76 204 76
76 204 76
76 204 76
76 204 76
76 204 76
76 204 76
76 204 76
76 204 76
76 204 76
76 204 76
76 204 76
76 204 76
76 204 76
76 204 76
76 204 76
76 204 76
76 204 76
76 204 76
76 204 76
76 204 76
76 204 76
76 204 76
76 204 76
76 204 76
76 204 76
76 204 76
76 204 76
76 204 76
76 204 76
76 204 76
76 204 76
76 204 76
76 204 76
76 204 76
76 204 76
76 204 76
76 204 76
76 204 76
76 204 76
76 204 76
76 204 76
76 204 76
76 204 76
76 204 76
76 204 76
76 204 76
76 204 76
76 204 76
76 204 76
76 204 76
76 204 76
76 204 76
76 204 76
76 204 76
76 204 76
76 204 76
76 204 76
76 204 76
76 204 76
76 204 76
76 204 76
76 204 76
76 204 76
76 204 76
76 204 76
76 204 76
76 204 76
76 204 76
76 204 76
76 204 76
76 204 76
76 204 76
76 204 76
76 204 76
76 204 76
76 204 76
76 204 76
76 204 76
76 204 76
76 204 76
76 204 76
76 204 76
76 204 76
76 204 76
76 204 76
76 204 76
76 204 76
76 204 76
76 204 76
76 204 76
76 204 76
76 204 76
76 204 76
76 204 76
76 204 76
76 204 76
76 204 76
76 204 76
76 204 76
76 204 76
76 204 76
76 204 76
76 204 76
76 204 76
76 204 76
76 204 76
76 204 76
76 204 76
76 204 76
76 204 76
76 204 76
76 204 76
76 204 76
76 204 76
76 204 76
76 204 76
76 204 76
76 204 76
76 204 76
76 204 76
76 204 76
76 204 76
76 204 76
76 204 76
76 204 76
76 204 76
76 204 76
76 204 76
76 204 76
76 204 76
76 204 76
76 204 76
76 204 76
76 204 76
76 204 76
76 204 76
76 204 76
76 204 76
76 204 76
76 204 76
76 204 76
76 204 76
76 204 76
76 204 76
76 204 76
76 204 76
76 204 76
76 204 76
76 204 76
76 204 76
76 204 76
76 204 76
76 204 76
76 204 76
76 204 76
76 204 76
76 204 76
76 204 76
76 204 76
76 204 76
76 204 76
76 204 76
76 204 76
76 204 76
76 204 76
76 204 76
76 204 76
76 204 76
76 204 76
76 204 76
76 204 76
76 204 76
76 204 76
76 204 76
76 204 76
76 204 76
76 204 76
76 204 76
76 204 76
76 204 76
76 204 76
76 204 76
76 204 76
76 204 76
76 204 76
76 204 76
76 204 76
76 204 76
76 204 76
76 204 76
76 204 76
76 204 76
76 204 76
76 204 76
76 204 76
76 204 76
76 204 76
76 204 76
76 204 76
76 204 76
76 204 76
76 204 76
76 204 76
76 204 76
76 204 76
76 204 76
76 204 76
76 204 76
76 204 76
76 204 76
76 204 76
76 204 76
76 204 76
76 204 76
76 204 76
76 204 76
76 204 76
76 204 76
76 204 76
76 204 76
76 204 76
76 204 76
76 204 76
76 204 76
76 204 76
76 204 76
76 204 76
76 204 76
76 204 76
76 204 76
76 204 76
76 204 76
76 204 76
76 204 76
76 204 76
76 204 76
76 204 76
76 204 76
76 204 76
76 204 76
76 204 76
76 204 76
76 204 76
76 204 76
76 204 76
76 204 76
76 204 76
76 204 76
76 204 76
76 204 76
76 204 76
76 204 76
76 204 76
76 204 76
76 204 76
76 204 76
76 204 76
76 204 76
76 204 76
76 204 76
76 204 76
76 204 76
76 204 76
76 204 76
76 204 76
76 204 76
76 204 76
76 204 76
76 204 76
76 204 76
76 204 76
76 204 76
76 204 76
76 204 76
76 204 76
76 204 76
76 204 76
76 204 76
76 204 76
76 204 76
76 204 76
76 204 76
76 204 76
76 204 76
76 204 76
76 204 76
76 204 76
76 204 76
76 204 76
76 204 76
76 204 76
76 204 76
76 204 76
76 204 76
76 204 76
76 204 76
76 204 76
76 204 76
76 204 76
76 204 76
76 204 76
76 204 76
76 204 76
76 204 76
76 204 76
76 204 76
76 204 76
76 204 76
76 204 76
76 204 76
76 204 76
76 204 76
76 204 76
76 204 76
76 204 76
76 204 76
76 204 76
76 204 76
76 204 76
76 204 76
76 204 76
76 204 76
76 204 76
76 204 76
76 204 76
76 204 76
76 204 76
76 204 76
76 204 76
76 204 76
76 204 76
76 204 76
76 204 76
76 204 76
76 204 76
76 204 76
76 204 76
76 204 76
76 204 76
76 204 76
76 204 76
76 204 76
76 204 76
76 204 76
76 204 76
76 204 76
76 204 76
76 204 76
76 204 76
76 204 76
76 204 76
76 204 76
76 204 76
76 204 76
76 204 76
76 204 76
76 204 76
76 204 76
76 204 76
76 204 76
76 204 76
76 204 76
76 204 76
76 204 76
76 204 76
76 204 76
76 204 76
76 204 76
76 204 76
76 204 76
76 204 76
76 204 76
76 204 76
76 204 76
76 204 76
76 204 76
76 204 76
76 204 76
76 204 76
76 204 76
76 204 76
76 204 76
76 204 76
76 204 76
76 204 76
76 204 76
76 204 76
76 204 76
76 204 76
76 204 76
76 204 76
76 204 76
76 204 76
76 204 76
76 204 76
76 204 76
76 204 76
76 204 76
76 204 76
76 204 76
76 204 76
76 204 76
76 204 76
76 204 76
76 204 76
76 204 76
76 204 76
76 204 76
76 204 76
76 204 76
76 204 76
76 204 76
76 204 76
76 204 76
76 204 76
76 204 76
76 204 76
76 204 76
76 204 76
76 204 76
76 204 76
76 204 76
76 204 76
76 204 76
76 204 76
76 204 76
76 204 76
76 204 76
76 204 76
76 204 76
76 204 76
76 204 76
76 204 76
76 204 76
76 204 76
76 204 76
76 204 76
76 204 76
76 204 76
76 204 76
76 204 76
76 204 76
76 204 76
76 204 76
76 204 76
76 204 76
76 204 76
76 204 76
76 204 76
76 204 76
76 204 76
76 204 76
76 204 76
76 204 76
76 204 76
76 204 76
76 204 76
76 204 76
76 204 76
76 204 76
76 204 76
76 204 76
76 204 76
76 204 76
76 204 76
76 204 76
76 204 76
76 204 76
76 204 76
76 204 76
76 204 76
76 204 76
76 204 76
76 204 76
76 204 76
76 204 76
76 204 76
76 204 76
76 204 76
76 204 76
76 204 76
76 204 76
76 204 76
76 204 76
76 204 76
76 204 76
76 204 76
76 204 76
76 204 76
76 204 76
76 204 76
76 204 76
76 204 76
76 204 76
76 204 76
76 204 76
76 204 76
76 204 76
76 204 76
76 204 76
76 204 76
76 204 76
76 204 76
76 204 76
76 204 76
76 204 76
76 204 76
76 204 76
76 204 76
76 204 76
76 204 76
76 204 76
76 204 76
76 204 76
76 204 76
76 204 76
76 204 76
76 204 76
76 204 76
76 204 76
76 204 76
76 204 76
76 204 76
76 204 76
76 204 76
76 204 76
76 204 76
76 204 76
76 204 76
76 204 76
76 204 76
76 204 76
76 204 76
76 204 76
76 204 76
76 204 76
76 204 76
76 204 76
76 204 76
76 204 76
76 204 76
76 204 76
76 204 76
76 204 76
76 204 76
76 204 76
76 204 76
76 204 76
76 204 76
76 204 76
76 204 76
76 204 76
76 204 76
76 204 76
76 204 76
76 204 76
76 204 76
76 204 76
76 204 76
76 204 76
76 204 76
76 204 76
76 204 76
76 204 76
76 204 76
76 204 76
76 204 76
76 204 76
76 204 76
76 204 76
76 204 76
76 204 76
76 204 76
76 204 76
76 204 76
76 204 76
76 204 76
76 204 76
76 204 76
76 204 76
76 204 76
76 204 76
76 204 76
76 204 76
76 204 76
76 204 76
76 204 76
76 204 76
76 204 76
76 204 76
76 204 76
76 204 76
76 204 76
76 204 76
76 204 76
76 204 76
76 204 76
76 204 76
76 204 76
76 204 76
76 204 76
76 204 76
76 204 76
76 204 76
76 204 76
76 204 76
76 204 76
76 204 76
76 204 76
76 204 76
76 204 76
76 204 76
76 204 76
76 204 76
76 204 76
76 204 76
76 204 76
76 204 76
76 204 76
76 204 76
76 204 76
76 204 76
76 204 76
76 204 76
76 204 76
76 204 76
76 204 76
76 204 76
76 204 76
76 204 76
76 204 76
76 204 76
76 204 76
76 204 76
76 204 76
76 204 76
76 204 76
76 204 76
76 204 76
76 204 76
76 204 76
76 204 76
76 204 76
76 204 76
76 204 76
76 204 76
76 204 76
76 204 76
76 204 76
76 204 76
76 204 76
76 204 76
76 204 76
76 204 76
76 204 76
76 204 76
76 204 76
76 204 76
76 204 76
76 204 76
76 204 76
76 204 76
76 204 76
76 204 76
76 204 76
76 204 76
76 204 76
76 204 76
76 204 76
76 204 76
76 204 76
76 204 76
76 204 76
76 204 76
76 204 76
76 204 76
76 204 76
76 204 76
76 204 76
76 204 76
76 204 76
76 204 76
76 204 76
76 204 76
76 204 76
76 204 76
76 204 76
76 204 76
76 204 76
76 204 76
76 204 76
76 204 76
76 204 76
76 204 76
76 204 76
76 204 76
76 204 76
76 204 76
76 204 76
76 204 76
76 204 76
76 204 76
76 204 76
76 204 76
76 204 76
76 204 76
76 204 76
76 204 76
76 204 76
76 204 76
76 204 76
76 204 76
76 204 76
76 204 76
76 204 76
76 204 76
76 204 76
76 204 76
76 204 76
76 204 76
76 204 76
76 204 76
76 204 76
76 204 76
76 204 76
76 204 76
76 204 76
76 204 76
76 204 76
76 204 76
76 204 76
76 204 76
76 204 76
76 204 76
76 204 76
76 204 76
76 204 76
76 204 76
76 204 76
76 204 76
76 204 76
76 204 76
76 204 76
76 204 76
76 204 76
76 204 76
76 204 76
76 204 76
76 204 76
76 204 76
76 204 76
76 204 76
76 204 76
76 204 76
76 204 76
76 204 76
76 204 76
76 204 76
76 204 76
76 204 76
76 204 76
76 204 76
76 204 76
76 204 76
76 204 76
76 204 76
76 204 76
76 204 76
76 204 76
76 204 76
76 204 76
76 204 76
76 204 76
76 204 76
76 204 76
76 204 76
76 204 76
76 204 76
76 204 76
76 204 76
76 204 76
76 204 76
76 204 76
76 204 76
76 204 76
76 204 76
76 204 76
76 204 76
76 204 76
76 204 76
76 204 76
76 204 76
76 204 76
76 204 76
76 204 76
76 204 76
76 204 76
76 204 76
76 204 76
76 204 76
76 204 76
76 204 76
76 204 76
76 204 76
76 204 76
76 204 76
76 204 76
76 204 76
76 204 76
76 204 76
76 204 76
76 204 76
76 204 76
76 204 76
76 204 76
76 204 76
76 204 76
76 204 76
76 204 76
76 204 76
76 204 76
76 204 76
76 204 76
76 204 76
76 204 76
76 204 76
76 204 76
76 204 76
76 204 76
76 204 76
76 204 76
76 204 76
76 204 76
76 204 76
76 204 76
76 204 76
76 204 76
76 204 76
76 204 76
76 204 76
76 204 76
76 204 76
76 204 76
76 204 76
76 204 76
76 204 76
76 204 76
76 204 76
76 204 76
76 204 76
76 204 76
76 204 76
76 204 76
76 204 76
76 204 76
76 204 76
76 204 76
76 204 76
76 204 76
76 204 76
76 204 76
76 204 76
76 204 76
76 204 76
76 204 76
76 204 76
76 204 76
76 204 76
76 204 76
76 204 76
76 204 76
76 204 76
76 204 76
76 204 76
76 204 76
76 204 76
76 204 76
76 204 76
76 204 76
76 204 76
76 204 76
76 204 76
76 204 76
76 204 76
76 204 76
76 204 76
76 204 76
76 204 76
76 204 76
76 204 76
76 204 76
76 204 76
76 204 76
76 204 76
76 204 76
76 204 76
76 204 76
76 204 76
76 204 76
76 204 76
76 204 76
76 204 76
76 204 76
76 204 76
76 204 76
76 204 76
76 204 76
76 204 76
76 204 76
76 204 76
76 204 76
76 204 76
76 204 76
76 204 76
76 204 76
76 204 76
76 204 76
76 204 76
76 204 76
76 204 76
76 204 76
76 204 76
76 204 76
76 204 76
76 204 76
76 204 76
76 204 76
76 204 76
76 204 76
76 204 76
76 204 76
76 204 76
76 204 76
76 204 76
76 204 76
76 204 76
76 204 76
76 204 76
76 204 76
76 204 76
76 204 76
76 204 76
76 204 76
76 204 76
76 204 76
76 204 76
76 204 76
76 204 76
76 204 76
76 204 76
76 204 76
76 204 76
76 204 76
76 204 76
76 204 76
76 204 76
76 204 76
76 204 76
76 204 76
76 204 76
76 204 76
76 204 76
76 204 76
76 204 76
76 204 76
76 204 76
76 204 76
76 204 76
76 204 76
76 204 76
76 204 76
76 204 76
76 204 76
76 204 76
76 204 76
76 204 76
76 204 76
76 204 76
76 204 76
76 204 76
76 204 76
76 204 76
76 204 76
76 204 76
76 204 76
76 204 76
76 204 76
76 204 76
76 204 76
76 204 76
76 204 76
76 204 76
76 204 76
76 204 76
76 204 76
76 204 76
76 204 76
76 204 76
76 204 76
76 204 76
76 204 76
76 204 76
76 204 76
76 204 76
76 204 76
76 204 76
76 204 76
76 204 76
76 204 76
76 204 76
76 204 76
76 204 76
76 204 76
76 204 76
76 204 76
76 204 76
76 204 76
76 204 76
76 204 76
76 204 76
76 204 76
76 204 76
76 204 76
76 204 76
76 204 76
76 204 76
76 204 76
76 204 76
76 204 76
76 204 76
76 204 76
76 204 76
76 204 76
76 204 76
76 204 76
76 204 76
76 204 76
76 204 76
76 204 76
76 204 76
76 204 76
76 204 76
76 204 76
76 204 76
76 204 76
76 204 76
76 204 76
76 204 76
76 204 76
76 204 76
76 204 76
76 204 76
76 204 76
76 204 76
76 204 76
76 204 76
76 204 76
76 204 76
76 204 76
76 204 76
76 204 76
76 204 76
76 204 76
76 204 76
76 204 76
76 204 76
76 204 76
76 204 76
76 204 76
76 204 76
76 204 76
76 204 76
76 204 76
76 204 76
76 204 76
76 204 76
76 204 76
76 204 76
76 204 76
76 204 76
76 204 76
76 204 76
76 204 76
76 204 76
76 204 76
76 204 76
76 204 76
76 204 76
76 204 76
76 204 76
76 204 76
76 204 76
76 204 76
76 204 76
76 204 76
76 204 76
76 204 76
76 204 76
76 204 76
76 204 76
76 204 76
76 204 76
76 204 76
76 204 76
76 204 76
76 204 76
76 204 76
76 204 76
76 204 76
76 204 76
76 204 76
76 204 76
76 204 76
76 204 76
76 204 76
76 204 76
76 204 76
76 204 76
76 204 76
76 204 76
76 204 76
76 204 76
76 204 76
76 204 76
76 204 76
76 204 76
76 204 76
76 204 76
76 204 76
76 204 76
76 204 76
76 204 76
76 204 76
76 204 76
76 204 76
76 204 76
76 204 76
76 204 76
76 204 76
76 204 76
76 204 76
76 204 76
76 204 76
76 204 76
76 204 76
76 204 76
76 204 76
76 204 76
76 204 76
76 204 76
76 204 76
76 204 76
76 204 76
76 204 76
76 204 76
76 204 76
76 204 76
76 204 76
76 204 76
76 204 76
76 204 76
76 204 76
76 204 76
76 204 76
76 204 76
76 204 76
76 204 76
76 204 76
76 204 76
76 204 76
76 204 76
76 204 76
76 204 76
76 204 76
76 204 76
76 204 76
76 204 76
76 204 76
76 204 76
76 204 76
76 204 76
76 204 76
76 204 76
76 204 76
76 204 76
76 204 76
76 204 76
76 204 76
76 204 76
76 204 76
76 204 76
76 204 76
76 204 76
76 204 76
76 204 76
76 204 76
76 204 76
76 204 76
76 204 76
76 204 76
76 204 76
76 204 76
76 204 76
76 204 76
76 204 76
76 204 76
76 204 76
76 204 76
76 204 76
76 204 76
76 204 76
76 204 76
76 204 76
76 204 76
76 204 76
76 204 76
76 204 76
76 204 76
76 204 76
76 204 76
76 204 76
76 204 76
76 204 76
76 204 76
76 204 76
76 204 76
76 204 76
76 204 76
76 204 76
76 204 76
76 204 76
76 204 76
76 204 76
76 204 76
76 204 76
76 204 76
76 204 76
76 204 76
76 204 76
76 204 76
76 204 76
76 204 76
76 204 76
76 204 76
76 204 76
76 204 76
76 204 76
76 204 76
76 204 76
76 204 76
76 204 76
76 204 76
76 204 76
76 204 76
76 204 76
76 204 76
76 204 76
76 204 76
76 204 76
76 204 76
76 204 76
76 204 76
76 204 76
76 204 76
76 204 76
76 204 76
76 204 76
76 204 76
76 204 76
76 204 76
76 204 76
76 204 76
76 204 76
76 204 76
76 204 76
76 204 76
76 204 76
76 204 76
76 204 76
76 204 76
76 204 76
76 204 76
76 204 76
76 204 76
76 204 76
76 204 76
76 204 76
76 204 76
76 204 76
76 204 76
76 204 76
76 204 76
76 204 76
76 204 76
76 204 76
76 204 76
76 204 76
76 204 76
76 204 76
76 204 76
76 204 76
76 204 76
76 204 76
76 204 76
76 204 76
76 204 76
76 204 76
76 204 76
76 204 76
76 204 76
76 204 76
76 204 76
76 204 76
76 204 76
76 204 76
76 204 76
76 204 76
76 204 76
76 204 76
76 204 76
76 204 76
76 204 76
76 204 76
76 204 76
76 204 76
76 204 76
76 204 76
76 204 76
76 204 76
76 204 76
76 204 76
76 204 76
76 204 76
76 204 76
76 204 76
76 204 76
76 204 76
76 204 76
76 204 76
76 204 76
76 204 76
76 204 76
76 204 76
76 204 76
76 204 76
76 204 76
76 204 76
76 204 76
76 204 76
76 204 76
76 204 76
76 204 76
76 204 76
76 204 76
76 204 76
76 204 76
76 204 76
76 204 76
76 204 76
76 204 76
76 204 76
76 204 76
76 204 76
76 204 76
76 204 76
76 204 76
76 204 76
76 204 76
76 204 76
76 204 76
76 204 76
76 204 76
76 204 76
76 204 76
76 204 76
76 204 76
76 204 76
76 204 76
76 204 76
76 204 76
76 204 76
76 204 76
76 204 76
76 204 76
76 204 76
76 204 76
76 204 76
76 204 76
76 204 76
76 204 76
76 204 76
76 204 76
76 204 76
76 204 76
76 204 76
76 204 76
76 204 76
76 204 76
76 204 76
76 204 76
76 204 76
76 204 76
76 204 76
76 204 76
76 204 76
76 204 76
76 204 76
76 204 76
76 204 76
76 204 76
76 204 76
76 204 76
76 204 76
76 204 76
76 204 76
76 204 76
76 204 76
76 204 76
76 204 76
76 204 76
76 204 76
76 204 76
76 204 76
76 204 76
76 204 76
76 204 76
76 204 76
76 204 76
76 204 76
76 204 76
76 204 76
76 204 76
76 204 76
76 204 76
76 204 76
76 204 76
76 204 76
76 204 76
76 204 76
76 204 76
76 204 76
76 204 76
76 204 76
76 204 76
76 204 76
76 204 76
76 204 76
76 204 76
76 204 76
76 204 76
76 204 76
76 204 76
76 204 76
76 204 76
76 204 76
76 204 76
76 204 76
76 204 76
76 204 76
76 204 76
76 204 76
76 204 76
76 204 76
76 204 76
76 204 76
76 204 76
76 204 76
76 204 76
76 204 76
76 204 76
76 204 76
76 204 76
76 204 76
76 204 76
76 204 76
76 204 76
76 204 76
76 204 76
76 204 76
76 204 76
76 204 76
76 204 76
76 204 76
76 204 76
76 204 76
76 204 76
76 204 76
76 204 76
76 204 76
76 204 76
76 204 76
76 204 76
76 204 76
76 204 76
76 204 76
76 204 76
76 204 76
76 204 76
76 204 76
76 204 76
76 204 76
76 204 76
76 204 76
76 204 76
76 204 76
76 204 76
76 204 76
76 204 76
76 204 76
76 204 76
76 204 76
76 204 76
76 204 76
76 204 76
76 204 76
76 204 76
76 204 76
76 204 76
76 204 76
76 204 76
76 204 76
76 204 76
76 204 76
76 204 76
76 204 76
76 204 76
76 204 76
76 204 76
76 204 76
76 204 76
76 204 76
76 204 76
76 204 76
76 204 76
76 204 76
76 204 76
76 204 76
76 204 76
76 204 76
76 204 76
76 204 76
76 204 76
76 204 76
76 204 76
76 204 76
76 204 76
76 204 76
76 204 76
76 204 76
76 204 76
76 204 76
76 204 76
76 204 76
76 204 76
76 204 76
76 204 76
76 204 76
76 204 76
76 204 76
76 204 76
76 204 76
76 204 76
76 204 76
76 204 76
76 204 76
76 204 76
76 204 76
76 204 76
76 204 76
76 204 76
76 204 76
76 204 76
76 204 76
76 204 76
76 204 76
76 204 76
76 204 76
76 204 76
76 204 76
76 204 76
76 204 76
76 204 76
76 204 76
76 204 76
76 204 76
76 204 76
76 204 76
76 204 76
76 204 76
76 204 76
76 204 76
76 204 76
76 204 76
76 204 76
76 204 76
76 204 76
76 204 76
76 204 76
76 204 76
76 204 76
76 204 76
76 204 76
76 204 76
76 204 76
76 204 76
76 204 76
76 204 76
76 204 76
76 204 76
76 204 76
76 204 76
76 204 76
76 204 76
76 204 76
76 204 76
76 204 76
76 204 76
76 204 76
76 204 76
76 204 76
76 204 76
76 204 76
76 204 76
76 204 76
76 204 76
76 204 76
76 204 76
76 204 76
76 204 76
76 204 76
76 204 76
76 204 76
76 204 76
76 204 76
76 204 76
76 204 76
76 204 76
76 204 76
76 204 76
76 204 76
76 204 76
76 204 76
76 204 76
76 204 76
76 204 76
76 204 76
76 204 76
76 204 76
76 204 76
76 204 76
76 204 76
76 204 76
76 204 76
76 204 76
76 204 76
76 204 76
76 204 76
76 204 76
76 204 76
76 204 76
76 204 76
76 204 76
76 204 76
76 204 76
76 204 76
76 204 76
76 204 76
76 204 76
76 204 76
76 204 76
76 204 76
76 204 76
76 204 76
76 204 76
76 204 76
76 204 76
76 204 76
76 204 76
76 204 76
76 204 76
76 204 76
76 204 76
76 204 76
76 204 76
76 204 76
76 204 76
76 204 76
76 204 76
76 204 76
76 204 76
76 204 76
76 204 76
76 204 76
76 204 76
76 204 76
76 204 76
76 204 76
76 204 76
76 204 76
76 204 76
76 204 76
76 204 76
76 204 76
76 204 76
76 204 76
76 204 76
76 204 76
76 204 76
76 204 76
76 204 76
76 204 76
76 204 76
76 204 76
76 204 76
76 204 76
76 204 76
76 204 76
76 204 76
76 204 76
76 204 76
76 204 76
76 204 76
76 204 76
76 204 76
76 204 76
76 204 76
76 204 76
76 204 76
76 204 76
76 204 76
76 204 76
76 204 76
76 204 76
76 204 76
76 204 76
76 204 76
76 204 76
76 204 76
76 204 76
76 204 76
76 204 76
76 204 76
76 204 76
76 204 76
76 204 76
76 204 76
76 204 76
76 204 76
76 204 76
76 204 76
76 204 76
76 204 76
76 204 76
76 204 76
76 204 76
76 204 76
76 204 76
76 204 76
76 204 76
76 204 76
76 204 76
76 204 76
76 204 76
76 204 76
76 204 76
76 204 76
76 204 76
76 204 76
76 204 76
76 204 76
76 204 76
76 204 76
76 204 76
76 204 76
76 204 76
76 204 76
76 204 76
76 204 76
76 204 76
76 204 76
76 204 76
76 204 76
76 204 76
76 204 76
76 204 76
76 204 76
76 204 76
76 204 76
76 204 76
76 204 76
76 204 76
76 204 76
76 204 76
76 204 76
76 204 76
76 204 76
76 204 76
76 204 76
76 204 76
76 204 76
76 204 76
76 204 76
76 204 76
76 204 76
76 204 76
76 204 76
76 204 76
76 204 76
76 204 76
76 204 76
76 204 76
76 204 76
76 204 76
76 204 76
76 204 76
76 204 76
76 204 76
76 204 76
76 204 76
76 204 76
76 204 76
76 204 76
76 204 76
76 204 76
76 204 76
76 204 76
76 204 76
76 204 76
76 204 76
76 204 76
76 204 76
76 204 76
76 204 76
76 204 76
76 204 76
76 204 76
76 204 76
76 204 76
76 204 76
76 204 76
76 204 76
76 204 76
76 204 76
76 204 76
76 204 76
76 204 76
76 204 76
76 204 76
76 204 76
76 204 76
76 204 76
76 204 76
76 204 76
76 204 76
76 204 76
76 204 76
76 204 76
76 204 76
76 204 76
76 204 76
76 204 76
76 204 76
76 204 76
76 204 76
76 204 76
76 204 76
76 204 76
76 204 76
76 204 76
76 204 76
76 204 76
76 204 76
76 204 76
76 204 76
76 204 76
76 204 76
76 204 76
76 204 76
76 204 76
76 204 76
76 204 76
76 204 76
76 204 76
76 204 76
76 204 76
76 204 76
76 204 76
76 204 76
76 204 76
76 204 76
76 204 76
76 204 76
76 204 76
76 204 76
76 204 76
76 204 76
76 204 76
76 204 76
76 204 76
76 204 76
76 204 76
76 204 76
76 204 76
76 204 76
76 204 76
76 204 76
76 204 76
76 204 76
76 204 76
76 204 76
76 204 76
76 204 76
76 204 76
76 204 76
76 204 76
76 204 76
76 204 76
76 204 76
76 204 76
76 204 76
76 204 76
76 204 76
76 204 76
76 204 76
76 204 76
76 204 76
76 204 76
76 204 76
76 204 76
76 204 76
76 204 76
76 204 76
76 204 76
76 204 76
76 204 76
76 204 76
76 204 76
76 204 76
76 204 76
76 204 76
76 204 76
76 204 76
76 204 76
76 204 76
76 204 76
76 204 76
76 204 76
76 204 76
76 204 76
76 204 76
76 204 76
76 204 76
76 204 76
76 204 76
76 204 76
76 204 76
76 204 76
76 204 76
76 204 76
76 204 76
76 204 76
76 204 76
76 204 76
76 204 76
76 204 76
76 204 76
76 204 76
76 204 76
76 204 76
76 204 76
76 204 76
76 204 76
76 204 76
76 204 76
76 204 76
76 204 76
76 204 76
76 204 76
76 204 76
76 204 76
76 204 76
76 204 76
76 204 76
76 204 76
76 204 76
76 204 76
76 204 76
76 204 76
76 204 76
76 204 76
76 204 76
76 204 76
76 204 76
76 204 76
76 204 76
76 204 76
76 204 76
76 204 76
76 204 76
76 204 76
76 204 76
76 204 76
76 204 76
76 204 76
76 204 76
76 204 76
76 204 76
76 204 76
76 204 76
76 204 76
76 204 76
76 204 76
76 204 76
76 204 76
76 204 76
76 204 76
76 204 76
76 204 76
76 204 76
76 204 76
76 204 76
76 204 76
76 204 76
76 204 76
76 204 76
76 204 76
76 204 76
76 204 76
76 204 76
76 204 76
76 204 76
76 204 76
76 204 76
76 204 76
76 204 76
76 204 76
76 204 76
76 204 76
76 204 76
76 204 76
76 204 76
76 204 76
76 204 76
76 204 76
76 204 76
76 204 76
76 204 76
76 204 76
76 204 76
76 204 76
76 204 76
76 204 76
76 204 76
76 204 76
76 204 76
76 204 76
76 204 76
76 204 76
76 204 76
76 204 76
76 204 76
76 204 76
76 204 76
76 204 76
76 204 76
76 204 76
76 204 76
76 204 76
76 204 76
76 204 76
76 204 76
76 204 76
76 204 76
76 204 76
76 204 76
76 204 76
76 204 76
76 204 76
76 204 76
76 204 76
76 204 76
76 204 76
76 204 76
76 204 76
76 204 76
76 204 76
76 204 76
76 204 76
76 204 76
76 204 76
76 204 76
76 204 76
76 204 76
76 204 76
76 204 76
76 204 76
76 204 76
76 204 76
76 204 76
76 204 76
76 204 76
76 204 76
76 204 76
76 204 76
76 204 76
76 204 76
76 204 76
76 204 76
76 204 76
76 204 76
76 204 76
76 204 76
76 204 76
76 204 76
76 204 76
76 204 76
76 204 76
76 204 76
76 204 76
76 204 76
76 204 76
76 204 76
76 204 76
76 204 76
76 204 76
76 204 76
76 204 76
76 204 76
76 204 76
76 204 76
76 204 76
76 204 76
76 204 76
76 204 76
76 204 76
76 204 76
76 204 76
76 204 76
76 204 76
76 204 76
76 204 76
76 204 76
76 204 76
76 204 76
76 204 76
76 204 76
76 204 76
76 204 76
76 204 76
76 204 76
76 204 76
76 204 76
76 204 76
76 204 76
76 204 76
76 204 76
76 204 76
76 204 76
76 204 76
76 204 76
76 204 76
76 204 76
76 204 76
76 204 76
76 204 76
76 204 76
76 204 76
76 204 76
76 204 76
76 204 76
76 204 76
76 204 76
76 204 76
76 204 76
76 204 76
76 204 76
76 204 76
76 204 76
76 204 76
76 204 76
76 204 76
76 204 76
76 204 76
76 204 76
76 204 76
76 204 76
76 204 76
76 204 76
76 204 76
76 204 76
76 204 76
76 204 76
76 204 76
76 204 76
76 204 76
76 204 76
76 204 76
76 204 76
76 204 76
76 204 76
76 204 76
76 204 76
76 204 76
76 204 76
76 204 76
76 204 76
76 204 76
76 204 76
76 204 76
76 204 76
76 204 76
76 204 76
76 204 76
76 204 76
76 204 76
76 204 76
76 204 76
76 204 76
76 204 76
76 204 76
76 204 76
76 204 76
76 204 76
76 204 76
76 204 76
76 204 76
76 204 76
76 204 76
76 204 76
76 204 76
76 204 76
76 204 76
76 204 76
76 204 76
76 204 76
76 204 76
76 204 76
76 204 76
76 204 76
76 204 76
76 204 76
76 204 76
76 204 76
76 204 76
76 204 76
76 204 76
76 204 76
76 204 76
76 204 76
76 204 76
76 204 76
76 204 76
76 204 76
76 204 76
76 204 76
76 204 76
76 204 76
76 204 76
76 204 76
76 204 76
76 204 76
76 204 76
76 204 76
76 204 76
76 204 76
76 204 76
76 204 76
76 204 76
76 204 76
76 204 76
76 204 76
76 204 76
76 204 76
76 204 76
76 204 76
76 204 76
76 204 76
76 204 76
76 204 76
76 204 76
76 204 76
76 204 76
76 204 76
76 204 76
76 204 76
76 204 76
76 204 76
76 204 76
76 204 76
76 204 76
76 204 76
76 204 76
76 204 76
76 204 76
76 204 76
76 204 76
76 204 76
76 204 76
76 204 76
76 204 76
76 204 76
76 204 76
76 204 76
76 204 76
76 204 76
76 204 76
76 204 76
76 204 76
76 204 76
76 204 76
76 204 76
76 204 76
76 204 76
76 204 76
76 204 76
76 204 76
76 204 76
76 204 76
76 204 76
76 204 76
76 204 76
76 204 76
76 204 76
76 204 76
76 204 76
76 204 76
76 204 76
76 204 76
76 204 76
76 204 76
76 204 76
76 204 76
76 204 76
76 204 76
76 204 76
76 204 76
76 204 76
76 204 76
76 204 76
76 204 76
76 204 76
76 204 76
76 204 76
76 204 76
76 204 76
76 204 76
76 204 76
76 204 76
76 204 76
76 204 76
76 204 76
76 204 76
76 204 76
76 204 76
76 204 76
76 204 76
76 204 76
76 204 76
76 204 76
76 204 76
76 204 76
76 204 76
76 204 76
76 204 76
76 204 76
76 204 76
76 204 76
76 204 76
76 204 76
76 204 76
76 204 76
76 204 76
76 204 76
76 204 76
76 204 76
76 204 76
76 204 76
76 204 76
76 204 76
76 204 76
76 204 76
76 204 76
76 204 76
76 204 76
76 204 76
76 204 76
76 204 76
76 204 76
76 204 76
76 204 76
76 204 76
76 204 76
76 204 76
76 204 76
76 204 76
76 204 76
76 204 76
76 204 76
76 204 76
76 204 76
76 204 76
76 204 76
76 204 76
76 204 76
76 204 76
76 204 76
76 204 76
76 204 76
76 204 76
76 204 76
76 204 76
76 204 76
76 204 76
76 204 76
76 204 76
76 204 76
76 204 76
76 204 76
76 204 76
76 204 76
76 204 76
76 204 76
76 204 76
76 204 76
76 204 76
76 204 76
76 204 76
76 204 76
76 204 76
76 204 76
76 204 76
76 204 76
76 204 76
76 204 76
76 204 76
76 204 76
76 204 76
76 204 76
76 204 76
76 204 76
76 204 76
76 204 76
76 204 76
76 204 76
76 204 76
76 204 76
76 204 76
76 204 76
76 204 76
76 204 76
76 204 76
76 204 76
76 204 76
76 204 76
76 204 76
76 204 76
76 204 76
76 204 76
76 204 76
76 204 76
76 204 76
76 204 76
76 204 76
76 204 76
76 204 76
76 204 76
76 204 76
76 204 76
76 204 76
76 204 76
76 204 76
76 204 76
76 204 76
76 204 76
76 204 76
76 204 76
76 204 76
76 204 76
76 204 76
76 204 76
76 204 76
76 204 76
76 204 76
76 204 76
76 204 76
76 204 76
76 204 76
76 204 76
76 204 76
76 204 76
76 204 76
76 204 76
76 204 76
76 204 76
76 204 76
76 204 76
76 204 76
76 204 76
76 204 76
76 204 76
76 204 76
76 204 76
76 204 76
76 204 76
76 204 76
76 204 76
76 204 76
76 204 76
76 204 76
76 204 76
76 204 76
76 204 76
76 204 76
76 204 76
76 204 76
76 204 76
76 204 76
76 204 76
76 204 76
76 204 76
76 204 76
76 204 76
76 204 76
76 204 76
76 204 76
76 204 76
76 204 76
76 204 76
76 204 76
76 204 76
76 204 76
76 204 76
76 204 76
76 204 76
76 204 76
76 204 76
76 204 76
76 204 76
76 204 76
76 204 76
76 204 76
76 204 76
76 204 76
76 204 76
76 204 76
76 204 76
76 204 76
76 204 76
76 204 76
76 204 76
76 204 76
76 204 76
76 204 76
76 204 76
76 204 76
76 204 76
76 204 76
76 204 76
76 204 76
76 204 76
76 204 76
76 204 76
76 204 76
76 204 76
76 204 76
76 204 76
76 204 76
76 204 76
76 204 76
76 204 76
76 204 76
76 204 76
76 204 76
76 204 76
76 204 76
76 204 76
76 204 76
76 204 76
76 204 76
76 204 76
76 204 76
76 204 76
76 204 76
76 204 76
76 204 76
76 204 76
76 204 76
76 204 76
76 204 76
76 204 76
76 204 76
76 204 76
76 204 76
76 204 76
76 204 76
76 204 76
76 204 76
76 204 76
76 204 76
76 204 76
76 204 76
76 204 76
76 204 76
76 204 76
76 204 76
76 204 76
76 204 76
76 204 76
76 204 76
76 204 76
76 204 76
76 204 76
76 204 76
76 204 76
76 204 76
76 204 76
76 204 76
76 204 76
76 204 76
76 204 76
76 204 76
76 204 76
76 204 76
76 204 76
76 204 76
76 204 76
76 204 76
76 204 76
76 204 76
76 204 76
76 204 76
76 204 76
76 204 76
76 204 76
76 204 76
76 204 76
76 204 76
76 204 76
76 204 76
76 204 76
76 204 76
76 204 76
76 204 76
76 204 76
76 204 76
76 204 76
76 204 76
76 204 76
76 204 76
76 204 76
76 204 76
76 204 76
76 204 76
76 204 76
76 204 76
76 204 76
76 204 76
76 204 76
76 204 76
76 204 76
76 204 76
76 204 76
76 204 76
76 204 76
76 204 76
76 204 76
76 204 76
76 204 76
76 204 76
76 204 76
76 204 76
76 204 76
76 204 76
76 204 76
76 204 76
76 204 76
76 204 76
76 204 76
76 204 76
76 204 76
76 204 76
76 204 76
76 204 76
76 204 76
76 204 76
76 204 76
76 204 76
76 204 76
76 204 76
76 204 76
76 204 76
76 204 76
76 204 76
76 204 76
76 204 76
76 204 76
76 204 76
76 204 76
76 204 76
76 204 76
76 204 76
76 204 76
76 204 76
76 204 76
76 204 76
76 204 76
76 204 76
76 204 76
76 204 76
76 204 76
76 204 76
76 204 76
76 204 76
76 204 76
76 204 76
76 204 76
76 204 76
76 204 76
76 204 76
76 204 76
76 204 76
76 204 76
76 204 76
76 204 76
76 204 76
76 204 76
76 204 76
76 204 76
76 204 76
76 204 76
76 204 76
76 204 76
76 204 76
76 204 76
76 204 76
76 204 76
76 204 76
76 204 76
76 204 76
76 204 76
76 204 76
76 204 76
76 204 76
76 204 76
76 204 76
76 204 76
76 204 76
76 204 76
76 204 76
76 204 76
76 204 76
76 204 76
76 204 76
76 204 76
76 204 76
76 204 76
76 204 76
76 204 76
76 204 76
76 204 76
76 204 76
76 204 76
76 204 76
76 204 76
76 204 76
76 204 76
76 204 76
76 204 76
76 204 76
76 204 76
76 204 76
76 204 76
76 204 76
76 204 76
76 204 76
76 204 76
76 204 76
76 204 76
76 204 76
76 204 76
76 204 76
76 204 76
76 204 76
76 204 76
76 204 76
76 204 76
76 204 76
76 204 76
76 204 76
76 204 76
76 204 76
76 204 76
76 204 76
76 204 76
76 204 76
76 204 76
76 204 76
76 204 76
76 204 76
76 204 76
76 204 76
76 204 76
76 204 76
76 204 76
76 204 76
76 204 76
76 204 76
76 204 76
76 204 76
76 204 76
76 204 76
76 204 76
76 204 76
76 204 76
76 204 76
76 204 76
76 204 76
76 204 76
76 204 76
76 204 76
76 204 76
76 204 76
76 204 76
76 204 76
76 204 76
76 204 76
76 204 76
76 204 76
76 204 76
76 204 76
76 204 76
76 204 76
76 204 76
76 204 76
76 204 76
76 204 76
76 204 76
76 204 76
76 204 76
76 204 76
76 204 76
76 204 76
76 204 76
76 204 76
76 204 76
76 204 76
76 204 76
76 204 76
76 204 76
76 204 76
76 204 76
76 204 76
76 204 76
76 204 76
76 204 76
76 204 76
76 204 76
76 204 76
76 204 76
76 204 76
76 204 76
76 204 76
76 204 76
76 204 76
76 204 76
76 204 76
76 204 76
76 204 76
76 204 76
76 204 76
76 204 76
76 204 76
76 204 76
76 204 76
76 204 76
76 204 76
76 204 76
76 204 76
76 204 76
76 204 76
76 204 76
76 204 76
76 204 76
76 204 76
76 204 76
76 204 76
76 204 76
76 204 76
76 204 76
76 204 76
76 204 76
76 204 76
76 204 76
76 204 76
76 204 76
76 204 76
76 204 76
76 204 76
76 204 76
76 204 76
76 204 76
76 204 76
76 204 76
76 204 76
76 204 76
76 204 76
76 204 76
76 204 76
76 204 76
76 204 76
76 204 76
76 204 76
76 204 76
76 204 76
76 204 76
76 204 76
76 204 76
76 204 76
76 204 76
76 204 76
76 204 76
76 204 76
76 204 76
76 204 76
76 204 76
76 204 76
76 204 76
76 204 76
76 204 76
76 204 76
76 204 76
76 204 76
76 204 76
76 204 76
76 204 76
76 204 76
76 204 76
76 204 76
76 204 76
76 204 76
76 204 76
76 204 76
76 204 76
76 204 76
76 204 76
76 204 76
76 204 76
76 204 76
76 204 76
76 204 76
76 204 76
76 204 76
76 204 76
76 204 76
76 204 76
76 204 76
76 204 76
76 204 76
76 204 76
76 204 76
76 204 76
76 204 76
76 204 76
76 204 76
76 204 76
76 204 76
76 204 76
76 204 76
76 204 76
76 204 76
76 204 76
76 204 76
76 204 76
76 204 76
76 204 76
76 204 76
76 204 76
76 204 76
76 204 76
76 204 76
76 204 76
76 204 76
76 204 76
76 204 76
76 204 76
76 204 76
76 204 76
76 204 76
76 204 76
76 204 76
76 204 76
76 204 76
76 204 76
76 204 76
76 204 76
76 204 76
76 204 76
76 204 76
76 204 76
76 204 76
76 204 76
76 204 76
76 204 76
76 204 76
76 204 76
76 204 76
76 204 76
76 204 76
76 204 76
76 204 76
76 204 76
76 204 76
76 204 76
76 204 76
76 204 76
76 204 76
76 204 76
76 204 76
76 204 76
76 204 76
76 204 76
76 204 76
76 204 76
76 204 76
76 204 76
76 204 76
76 204 76
76 204 76
76 204 76
76 204 76
76 204 76
76 204 76
76 204 76
76 204 76
76 204 76
76 204 76
76 204 76
76 204 76
76 204 76
76 204 76
76 204 76
76 204 76
76 204 76
76 204 76
76 204 76
76 204 76
76 204 76
76 204 76
76 204 76
76 204 76
76 204 76
76 204 76
76 204 76
76 204 76
76 204 76
76 204 76
76 204 76
76 204 76
76 204 76
76 204 76
76 204 76
76 204 76
76 204 76
76 204 76
76 204 76
76 204 76
76 204 76
76 204 76
76 204 76
76 204 76
76 204 76
76 204 76
76 204 76
76 204 76
76 204 76
76 204 76
76 204 76
76 204 76
76 204 76
76 204 76
76 204 76
76 204 76
76 204 76
76 204 76
76 204 76
76 204 76
76 204 76
76 204 76
76 204 76
76 204 76
76 204 76
76 204 76
76 204 76
76 204 76
76 204 76
76 204 76
76 204 76
76 204 76
76 204 76
76 204 76
76 204 76
76 204 76
76 204 76
76 204 76
76 204 76
76 204 76
76 204 76
76 204 76
76 204 76
76 204 76
76 204 76
76 204 76
76 204 76
76 204 76
76 204 76
76 204 76
76 204 76
76 204 76
76 204 76
76 204 76
76 204 76
76 204 76
76 204 76
76 204 76
76 204 76
76 204 76
76 204 76
76 204 76
76 204 76
76 204 76
76 204 76
76 204 76
76 204 76
76 204 76
76 204 76
76 204 76
76 204 76
76 204 76
76 204 76
76 204 76
76 204 76
76 204 76
76 204 76
76 204 76
76 204 76
76 204 76
76 204 76
76 204 76
76 204 76
76 204 76
76 204 76
76 204 76
76 204 76
76 204 76
76 204 76
76 204 76
76 204 76
76 204 76
76 204 76
76 204 76
76 204 76
76 204 76
76 204 76
76 204 76
76 204 76
76 204 76
76 204 76
76 204 76
76 204 76
76 204 76
76 204 76
76 204 76
76 204 76
76 204 76
76 204 76
76 204 76
76 204 76
76 204 76
76 204 76
76 204 76
76 204 76
76 204 76
76 204 76
76 204 76
76 204 76
76 204 76
76 204 76
76 204 76
76 204 76
76 204 76
76 204 76
76 204 76
76 204 76
76 204 76
76 204 76
76 204 76
76 204 76
76 204 76
76 204 76
76 204 76
76 204 76
76 204 76
76 204 76
76 204 76
76 204 76
76 204 76
76 204 76
76 204 76
76 204 76
76 204 76
76 204 76
76 204 76
76 204 76
76 204 76
76 204 76
76 204 76
76 204 76
76 204 76
76 204 76
76 204 76
76 204 76
76 204 76
76 204 76
76 204 76
76 204 76
76 204 76
76 204 76
76 204 76
76 204 76
76 204 76
76 204 76
76 204 76
76 204 76
76 204 76
76 204 76
76 204 76
76 204 76
76 204 76
76 204 76
76 204 76
76 204 76
76 204 76
76 204 76
76 204 76
76 204 76
76 204 76
76 204 76
76 204 76
76 204 76
76 204 76
76 204 76
76 204 76
76 204 76
76 204 76
76 204 76
76 204 76
76 204 76
76 204 76
76 204 76
76 204 76
76 204 76
76 204 76
76 204 76
76 204 76
76 204 76
76 204 76
76 204 76
76 204 76
76 204 76
76 204 76
76 204 76
76 204 76
76 204 76
76 204 76
76 204 76
76 204 76
76 204 76
76 204 76
76 204 76
76 204 76
76 204 76
76 204 76
76 204 76
76 204 76
76 204 76
76 204 76
76 204 76
76 204 76
76 204 76
76 204 76
76 204 76
76 204 76
76 204 76
76 204 76
76 204 76
76 204 76
76 204 76
76 204 76
76 204 76
76 204 76
76 204 76
76 204 76
76 204 76
76 204 76
76 204 76
76 204 76
76 204 76
76 204 76
76 204 76
76 204 76
76 204 76
76 204 76
76 204 76
76 204 76
76 204 76
76 204 76
76 204 76
76 204 76
76 204 76
76 204 76
76 204 76
76 204 76
76 204 76
76 204 76
76 204 76
76 204 76
76 204 76
76 204 76
76 204 76
76 204 76
76 204 76
76 204 76
76 204 76
76 204 76
76 204 76
76 204 76
76 204 76
76 204 76
76 204 76
76 204 76
76 204 76
76 204 76
76 204 76
76 204 76
76 204 76
76 204 76
76 204 76
76 204 76
76 204 76
76 204 76
76 204 76
76 204 76
76 204 76
76 204 76
76 204 76
76 204 76
76 204 76
76 204 76
76 204 76
76 204 76
76 204 76
76 204 76
76 204 76
76 204 76
76 204 76
76 204 76
76 204 76
76 204 76
76 204 76
76 204 76
76 204 76
76 204 76
76 204 76
76 204 76
76 204 76
76 204 76
76 204 76
76 204 76
76 204 76
76 204 76
76 204 76
76 204 76
76 204 76
76 204 76
76 204 76
76 204 76
76 204 76
76 204 76
76 204 76
76 204 76
76 204 76
76 204 76
76 204 76
76 204 76
76 204 76
76 204 76
76 204 76
76 204 76
76 204 76
76 204 76
76 204 76
76 204 76
76 204 76
76 204 76
76 204 76
76 204 76
76 204 76
76 204 76
76 204 76
76 204 76
76 204 76
76 204 76
76 204 76
76 204 76
76 204 76
76 204 76
76 204 76
76 204 76
76 204 76
76 204 76
76 204 76
76 204 76
76 204 76
76 204 76
76 204 76
76 204 76
76 204 76
76 204 76
76 204 76
76 204 76
76 204 76
76 204 76
76 204 76
76 204 76
76 204 76
76 204 76
76 204 76
76 204 76
76 204 76
76 204 76
76 204 76
76 204 76
76 204 76
76 204 76
76 204 76
76 204 76
76 204 76
76 204 76
76 204 76
76 204 76
76 204 76
76 204 76
76 204 76
76 204 76
76 204 76
76 204 76
76 204 76
76 204 76
76 204 76
76 204 76
76 204 76
76 204 76
76 204 76
76 204 76
76 204 76
76 204 76
76 204 76
76 204 76
76 204 76
76 204 76
76 204 76
76 204 76
76 204 76
76 204 76
76 204 76
76 204 76
76 204 76
76 204 76
76 204 76
76 204 76
76 204 76
76 204 76
76 204 76
76 204 76
76 204 76
76 204 76
76 204 76
76 204 76
76 204 76
76 204 76
76 204 76
76 204 76
76 204 76
76 204 76
76 204 76
76 204 76
76 204 76
76 204 76
76 204 76
76 204 76
76 204 76
76 204 76
76 204 76
76 204 76
76 204 76
76 204 76
76 204 76
76 204 76
76 204 76
76 204 76
76 204 76
76 204 76
76 204 76
76 204 76
76 204 76
76 204 76
76 204 76
76 204 76
76 204 76
76 204 76
76 204 76
76 204 76
76 204 76
76 204 76
76 204 76
76 204 76
76 204 76
76 204 76
76 204 76
76 204 76
76 204 76
76 204 76
76 204 76
76 204 76
76 204 76
76 204 76
76 204 76
76 204 76
76 204 76
76 204 76
76 204 76
76 204 76
76 204 76
76 204 76
76 204 76
76 204 76
76 204 76
76 204 76
76 204 76
76 204 76
76 204 76
76 204 76
76 204 76
76 204 76
76 204 76
76 204 76
76 204 76
76 204 76
76 204 76
76 204 76
76 204 76
76 204 76
76 204 76
76 204 76
76 204 76
76 204 76
76 204 76
76 204 76
76 204 76
76 204 76
76 204 76
76 204 76
76 204 76
76 204 76
76 204 76
76 204 76
76 204 76
76 204 76
76 204 76
76 204 76
76 204 76
76 204 76
76 204 76
76 204 76
76 204 76
76 204 76
76 204 76
76 204 76
76 204 76
76 204 76
76 204 76
76 204 76
76 204 76
76 204 76
76 204 76
76 204 76
76 204 76
76 204 76
76 204 76
76 204 76
76 204 76
76 204 76
76 204 76
76 204 76
76 204 76
76 204 76
76 204 76
76 204 76
76 204 76
76 204 76
76 204 76
76 204 76
76 204 76
76 204 76
76 204 76
76 204 76
76 204 76
76 204 76
76 204 76
76 204 76
76 204 76
76 204 76
76 204 76
76 204 76
76 204 76
76 204 76
76 204 76
76 204 76
76 204 76
76 204 76
76 204 76
76 204 76
76 204 76
76 204 76
76 204 76
76 204 76
76 204 76
76 204 76
76 204 76
76 204 76
76 204 76
76 204 76
76 204 76
76 204 76
76 204 76
76 204 76
76 204 76
76 204 76
76 204 76
76 204 76
76 204 76
76 204 76
76 204 76
76 204 76
76 204 76
76 204 76
76 204 76
76 204 76
76 204 76
76 204 76
76 204 76
76 204 76
76 204 76
76 204 76
76 204 76
76 204 76
76 204 76
76 204 76
76 204 76
76 204 76
76 204 76
76 204 76
76 204 76
76 204 76
76 204 76
76 204 76
76 204 76
76 204 76
76 204 76
76 204 76
76 204 76
76 204 76
76 204 76
76 204 76
76 204 76
76 204 76
76 204 76
76 204 76
76 204 76
76 204 76
76 204 76
76 204 76
76 204 76
76 204 76
76 204 76
76 204 76
76 204 76
76 204 76
76 204 76
76 204 76
76 204 76
76 204 76
76 204 76
76 204 76
76 204 76
76 204 76
76 204 76
76 204 76
76 204 76
76 204 76
76 204 76
76 204 76
76 204 76
76 204 76
76 204 76
76 204 76
76 204 76
76 204 76
76 204 76
76 204 76
76 204 76
76 204 76
76 204 76
76 204 76
76 204 76
76 204 76
76 204 76
76 204 76
76 204 76
76 204 76
76 204 76
76 204 76
76 204 76
76 204 76
76 204 76
76 204 76
76 204 76
76 204 76
76 204 76
76 204 76
76 204 76
76 204 76
76 204 76
76 204 76
76 204 76
76 204 76
76 204 76
76 204 76
76 204 76
76 204 76
76 204 76
76 204 76
76 204 76
76 204 76
76 204 76
76 204 76
76 204 76
76 204 76
76 204 76
76 204 76
76 204 76
76 204 76
76 204 76
76 204 76
76 204 76
76 204 76
76 204 76
76 204 76
76 204 76
76 204 76
76 204 76
76 204 76
76 204 76
76 204 76
76 204 76
76 204 76
76 204 76
76 204 76
76 204 76
76 204 76
76 204 76
76 204 76
76 204 76
76 204 76
76 204 76
76 204 76
76 204 76
76 204 76
76 204 76
76 204 76
76 204 76
76 204 76
76 204 76
76 204 76
76 204 76
76 204 76
76 204 76
76 204 76
76 204 76
76 204 76
76 204 76
76 204 76
76 204 76
76 204 76
76 204 76
76 204 76
76 204 76
76 204 76
76 204 76
76 204 76
76 204 76
76 204 76
76 204 76
76 204 76
76 204 76
76 204 76
76 204 76
76 204 76
76 204 76
76 204 76
76 204 76
76 204 76
76 204 76
76 204 76
76 204 76
76 204 76
76 204 76
76 204 76
76 204 76
76 204 76
76 204 76
76 204 76
76 204 76
76 204 76
76 204 76
76 204 76
76 204 76
76 204 76
76 204 76
76 204 76
76 204 76
76 204 76
76 204 76
76 204 76
76 204 76
76 204 76
76 204 76
76 204 76
76 204 76
76 204 76
76 204 76
76 204 76
76 204 76
76 204 76
76 204 76
76 204 76
76 204 76
76 204 76
76 204 76
76 204 76
76 204 76
76 204 76
76 204 76
76 204 76
76 204 76
76 204 76
76 204 76
76 204 76
76 204 76
76 204 76
76 204 76
76 204 76
76 204 76
76 204 76
76 204 76
76 204 76
76 204 76
76 204 76
76 204 76
76 204 76
76 204 76
76 204 76
76 204 76
76 204 76
76 204 76
76 204 76
76 204 76
76 204 76
76 204 76
76 204 76
76 204 76
76 204 76
76 204 76
76 204 76
76 204 76
76 204 76
76 204 76
76 204 76
76 204 76
76 204 76
76 204 76
76 204 76
76 204 76
76 204 76
76 204 76
76 204 76
76 204 76
76 204 76
76 204 76
76 204 76
76 204 76
76 204 76
76 204 76
76 204 76
76 204 76
76 204 76
76 204 76
76 204 76
76 204 76
76 204 76
76 204 76
76 204 76
76 204 76
76 204 76
76 204 76
76 204 76
76 204 76
76 204 76
76 204 76
76 204 76
76 204 76
76 204 76
76 204 76
76 204 76
76 204 76
76 204 76
76 204 76
76 204 76
76 204 76
76 204 76
76 204 76
76 204 76
76 204 76
76 204 76
76 204 76
76 204 76
76 204 76
76 204 76
76 204 76
76 204 76
76 204 76
76 204 76
76 204 76
76 204 76
76 204 76
76 204 76
76 204 76
76 204 76
76 204 76
76 204 76
76 204 76
76 204 76
76 204 76
76 204 76
76 204 76
76 204 76
76 204 76
76 204 76
76 204 76
76 204 76
76 204 76
76 204 76
76 204 76
76 204 76
76 204 76
76 204 76
76 204 76
76 204 76
76 204 76
76 204 76
76 204 76
76 204 76
76 204 76
76 204 76
76 204 76
76 204 76
76 204 76
76 204 76
76 204 76
76 204 76
76 204 76
76 204 76
76 204 76
76 204 76
76 204 76
76 204 76
76 204 76
76 204 76
76 204 76
76 204 76
76 204 76
76 204 76
76 204 76
76 204 76
76 204 76
76 204 76
76 204 76
76 204 76
76 204 76
76 204 76
76 204 76
76 204 76
76 204 76
76 204 76
76 204 76
76 204 76
76 204 76
76 204 76
76 204 76
76 204 76
76 204 76
76 204 76
76 204 76
76 204 76
76 204 76
76 204 76
76 204 76
76 204 76
76 204 76
76 204 76
76 204 76
76 204 76
76 204 76
76 204 76
76 204 76
76 204 76
76 204 76
76 204 76
76 204 76
76 204 76
76 204 76
76 204 76
76 204 76
76 204 76
76 204 76
76 204 76
76 204 76
76 204 76
76 204 76
76 204 76
76 204 76
76 204 76
76 204 76
76 204 76
76 204 76
76 204 76
76 204 76
76 204 76
76 204 76
76 204 76
76 204 76
76 204 76
76 204 76
76 204 76
76 204 76
76 204 76
76 204 76
76 204 76
76 204 76
76 204 76
76 204 76
76 204 76
76 204 76
76 204 76
76 204 76
76 204 76
76 204 76
76 204 76
76 204 76
76 204 76
76 204 76
76 204 76
76 204 76
76 204 76
76 204 76
76 204 76
76 204 76
76 204 76
76 204 76
76 204 76
76 204 76
76 204 76
76 204 76
76 204 76
76 204 76
76 204 76
76 204 76
76 204 76
76 204 76
76 204 76
76 204 76
76 204 76
76 204 76
76 204 76
76 204 76
76 204 76
76 204 76
76 204 76
76 204 76
76 204 76
76 204 76
76 204 76
76 204 76
76 204 76
76 204 76
76 204 76
76 204 76
76 204 76
76 204 76
76 204 76
76 204 76
76 204 76
76 204 76
76 204 76
76 204 76
76 204 76
76 204 76
76 204 76
76 204 76
76 204 76
76 204 76
76 204 76
76 204 76
76 204 76
76 204 76
76 204 76
76 204 76
76 204 76
76 204 76
76 204 76
76 204 76
76 204 76
76 204 76
76 204 76
76 204 76
76 204 76
76 204 76
76 204 76
76 204 76
76 204 76
76 204 76
76 204 76
76 204 76
76 204 76
76 204 76
76 204 76
76 204 76
76 204 76
76 204 76
76 204 76
76 204 76
76 204 76
76 204 76
76 204 76
76 204 76
76 204 76
76 204 76
76 204 76
76 204 76
76 204 76
76 204 76
76 204 76
76 204 76
76 204 76
76 204 76
76 204 76
76 204 76
76 204 76
76 204 76
76 204 76
76 204 76
76 204 76
76 204 76
76 204 76
76 204 76
76 204 76
76 204 76
76 204 76
76 204 76
76 204 76
76 204 76
76 204 76
76 204 76
76 204 76
76 204 76
76 204 76
76 204 76
76 204 76
76 204 76
76 204 76
76 204 76
76 204 76
76 204 76
76 204 76
76 204 76
76 204 76
76 204 76
76 204 76
76 204 76
76 204 76
76 204 76
76 204 76
76 204 76
76 204 76
76 204 76
76 204 76
76 204 76
76 204 76
76 204 76
76 204 76
76 204 76
76 204 76
76 204 76
76 204 76
76 204 76
76 204 76
76 204 76
76 204 76
76 204 76
76 204 76
76 204 76
76 204 76
76 204 76
76 204 76
76 204 76
76 204 76
76 204 76
76 204 76
76 204 76
76 204 76
76 204 76
76 204 76
76 204 76
76 204 76
76 204 76
76 204 76
76 204 76
76 204 76
76 204 76
76 204 76
76 204 76
76 204 76
76 204 76
76 204 76
76 204 76
76 204 76
76 204 76
76 204 76
76 204 76
76 204 76
76 204 76
76 204 76
76 204 76
76 204 76
76 204 76
76 204 76
76 204 76
76 204 76
76 204 76
76 204 76
76 204 76
76 204 76
76 204 76
76 204 76
76 204 76
76 204 76
76 204 76
76 204 76
76 204 76
76 204 76
76 204 76
76 204 76
76 204 76
76 204 76
76 204 76
76 204 76
76 204 76
76 204 76
76 204 76
76 204 76
76 204 76
76 204 76
76 204 76
76 204 76
76 204 76
76 204 76
76 204 76
76 204 76
76 204 76
76 204 76
76 204 76
76 204 76
76 204 76
76 204 76
76 204 76
76 204 76
76 204 76
76 204 76
76 204 76
76 204 76
76 204 76
76 204 76
76 204 76
76 204 76
76 204 76
76 204 76
76 204 76
76 204 76
76 204 76
76 204 76
76 204 76
76 204 76
76 204 76
76 204 76
76 204 76
76 204 76
76 204 76
76 204 76
76 204 76
76 204 76
76 204 76
76 204 76
76 204 76
76 204 76
76 204 76
76 204 76
76 204 76
76 204 76
76 204 76
76 204 76
76 204 76
76 204 76
76 204 76
76 204 76
76 204 76
76 204 76
76 204 76
76 204 76
76 204 76
76 204 76
76 204 76
76 204 76
76 204 76
76 204 76
76 204 76
76 204 76
76 204 76
76 204 76
76 204 76
76 204 76
76 204 76
76 204 76
76 204 76
76 204 76
76 204 76
76 204 76
76 204 76
76 204 76
76 204 76
76 204 76
76 204 76
76 204 76
76 204 76
76 204 76
76 204 76
76 204 76
76 204 76
76 204 76
76 204 76
76 204 76
76 204 76
76 204 76
76 204 76
76 204 76
76 204 76
76 204 76
76 204 76
76 204 76
76 204 76
76 204 76
76 204 76
76 204 76
76 204 76
76 204 76
76 204 76
76 204 76
76 204 76
76 204 76
76 204 76
76 204 76
76 204 76
76 204 76
76 204 76
76 204 76
76 204 76
76 204 76
76 204 76
76 204 76
76 204 76
76 204 76
76 204 76
76 204 76
76 204 76
76 204 76
76 204 76
76 204 76
76 204 76
76 204 76
76 204 76
76 204 76
76 204 76
76 204 76
76 204 76
76 204 76
76 204 76
76 204 76
76 204 76
76 204 76
76 204 76
76 204 76
76 204 76
76 204 76
76 204 76
76 204 76
76 204 76
76 204 76
76 204 76
76 204 76
76 204 76
76 204 76
76 204 76
76 204 76
76 204 76
76 204 76
76 204 76
76 204 76
76 204 76
76 204 76
76 204 76
76 204 76
76 204 76
76 204 76
76 204 76
76 204 76
76 204 76
76 204 76
76 204 76
76 204 76
76 204 76
76 204 76
76 204 76
76 204 76
76 204 76
76 204 76
76 204 76
76 204 76
76 204 76
76 204 76
76 204 76
76 204 76
76 204 76
76 204 76
76 204 76
76 204 76
76 204 76
76 204 76
76 204 76
76 204 76
76 204 76
76 204 76
76 204 76
76 204 76
76 204 76
76 204 76
76 204 76
76 204 76
76 204 76
76 204 76
76 204 76
76 204 76
76 204 76
76 204 76
76 204 76
76 204 76
76 204 76
76 204 76
76 204 76
76 204 76
76 204 76
76 204 76
76 204 76
76 204 76
76 204 76
76 204 76
76 204 76
76 204 76
76 204 76
76 204 76
76 204 76
76 204 76
76 204 76
76 204 76
76 204 76
76 204 76
76 204 76
76 204 76
76 204 76
76 204 76
76 204 76
76 204 76
76 204 76
76 204 76
76 204 76
76 204 76
76 204 76
76 204 76
76 204 76
76 204 76
76 204 76
76 204 76
76 204 76
76 204 76
76 204 76
76 204 76
76 204 76
76 204 76
76 204 76
76 204 76
76 204 76
76 204 76
76 204 76
76 204 76
76 204 76
76 204 76
76 204 76
76 204 76
76 204 76
76 204 76
76 204 76
76 204 76
76 204 76
76 204 76
76 204 76
76 204 76
76 204 76
76 204 76
76 204 76
76 204 76
76 204 76
76 204 76
76 204 76
76 204 76
76 204 76
76 204 76
76 204 76
76 204 76
76 204 76
76 204 76
76 204 76
76 204 76
76 204 76
76 204 76
76 204 76
76 204 76
76 204 76
76 204 76
76 204 76
76 204 76
76 204 76
76 204 76
76 204 76
76 204 76
76 204 76
76 204 76
76 204 76
76 204 76
76 204 76
76 204 76
76 204 76
76 204 76
76 204 76
76 204 76
76 204 76
76 204 76
76 204 76
76 204 76
76 204 76
76 204 76
76 204 76
76 204 76
76 204 76
76 204 76
76 204 76
76 204 76
76 204 76
76 204 76
76 204 76
76 204 76
76 204 76
76 204 76
76 204 76
76 204 76
76 204 76
76 204 76
76 204 76
76 204 76
76 204 76
76 204 76
76 204 76
76 204 76
76 204 76
76 204 76
76 204 76
76 204 76
76 204 76
76 204 76
76 204 76
76 204 76
76 204 76
76 204 76
76 204 76
76 204 76
76 204 76
76 204 76
76 204 76
76 204 76
76 204 76
76 204 76
76 204 76
76 204 76
76 204 76
76 204 76
76 204 76
76 204 76
76 204 76
76 204 76
76 204 76
76 204 76
76 204 76
76 204 76
76 204 76
76 204 76
76 204 76
76 204 76
76 204 76
76 204 76
76 204 76
76 204 76
76 204 76
76 204 76
76 204 76
76 204 76
76 204 76
76 204 76
76 204 76
76 204 76
76 204 76
76 204 76
76 204 76
76 204 76
76 204 76
76 204 76
76 204 76
76 204 76
76 204 76
76 204 76
76 204 76
76 204 76
76 204 76
76 204 76
76 204 76
76 204 76
76 204 76
76 204 76
76 204 76
76 204 76
76 204 76
76 204 76
76 204 76
76 204 76
76 204 76
76 204 76
76 204 76
76 204 76
76 204 76
76 204 76
76 204 76
76 204 76
76 204 76
76 204 76
76 204 76
76 204 76
76 204 76
76 204 76
76 204 76
76 204 76
76 204 76
76 204 76
76 204 76
76 204 76
76 204 76
76 204 76
76 204 76
76 204 76
76 204 76
76 204 76
76 204 76
76 204 76
76 204 76
76 204 76
76 204 76
76 204 76
76 204 76
76 204 76
76 204 76
76 204 76
76 204 76
76 204 76
76 204 76
76 204 76
76 204 76
76 204 76
76 204 76
76 204 76
76 204 76
76 204 76
76 204 76
76 204 76
76 204 76
76 204 76
76 204 76
76 204 76
76 204 76
76 204 76
76 204 76
76 204 76
76 204 76
76 204 76
76 204 76
76 204 76
76 204 76
76 204 76
76 204 76
76 204 76
76 204 76
76 204 76
76 204 76
76 204 76
76 204 76
76 204 76
76 204 76
76 204 76
76 204 76
76 204 76
76 204 76
76 204 76
76 204 76
76 204 76
76 204 76
76 204 76
76 204 76
76 204 76
76 204 76
76 204 76
76 204 76
76 204 76
76 204 76
76 204 76
76 204 76
76 204 76
76 204 76
76 204 76
76 204 76
76 204 76
76 204 76
76 204 76
76 204 76
76 204 76
76 204 76
76 204 76
76 204 76
76 204 76
76 204 76
76 204 76
76 204 76
76 204 76
76 204 76
76 204 76
76 204 76
76 204 76
76 204 76
76 204 76
76 204 76
76 204 76
76 204 76
76 204 76
76 204 76
76 204 76
76 204 76
76 204 76
76 204 76
76 204 76
76 204 76
76 204 76
76 204 76
76 204 76
76 204 76
76 204 76
76 204 76
76 204 76
76 204 76
76 204 76
76 204 76
76 204 76
76 204 76
76 204 76
76 204 76
76 204 76
76 204 76
76 204 76
76 204 76
76 204 76
76 204 76
76 204 76
76 204 76
76 204 76
76 204 76
76 204 76
76 204 76
76 204 76
76 204 76
76 204 76
76 204 76
76 204 76
76 204 76
76 204 76
76 204 76
76 204 76
76 204 76
76 204 76
76 204 76
76 204 76
76 204 76
76 204 76
76 204 76
76 204 76
76 204 76
76 204 76
76 204 76
76 204 76
76 204 76
76 204 76
76 204 76
76 204 76
76 204 76
76 204 76
76 204 76
76 204 76
76 204 76
76 204 76
76 204 76
76 204 76
76 204 76
76 204 76
76 204 76
76 204 76
76 204 76
76 204 76
76 204 76
76 204 76
76 204 76
76 204 76
76 204 76
76 204 76
76 204 76
76 204 76
76 204 76
76 204 76
76 204 76
76 204 76
76 204 76
76 204 76
76 204 76
76 204 76
76 204 76
76 204 76
76 204 76
76 204 76
76 204 76
76 204 76
76 204 76
76 204 76
76 204 76
76 204 76
76 204 76
76 204 76
76 204 76
76 204 76
76 204 76
76 204 76
76 204 76
76 204 76
76 204 76
76 204 76
76 204 76
76 204 76
76 204 76
76 204 76
76 204 76
76 204 76
76 204 76
76 204 76
76 204 76
76 204 76
76 204 76
76 204 76
76 204 76
76 204 76
76 204 76
76 204 76
76 204 76
76 204 76
76 204 76
76 204 76
76 204 76
76 204 76
76 204 76
76 204 76
76 204 76
76 204 76
76 204 76
76 204 76
76 204 76
76 204 76
76 204 76
76 204 76
76 204 76
76 204 76
76 204 76
76 204 76
76 204 76
76 204 76
76 204 76
76 204 76
76 204 76
76 204 76
76 204 76
76 204 76
76 204 76
76 204 76
76 204 76
76 204 76
76 204 76
76 204 76
76 204 76
76 204 76
76 204 76
76 204 76
76 204 76
76 204 76
76 204 76
76 204 76
76 204 76
76 204 76
76 204 76
76 204 76
76 204 76
76 204 76
76 204 76
76 204 76
76 204 76
76 204 76
76 204 76
76 204 76
76 204 76
76 204 76
76 204 76
76 204 76
76 204 76
76 204 76
76 204 76
76 204 76
76 204 76
76 204 76
76 204 76
76 204 76
76 204 76
76 204 76
76 204 76
76 204 76
76 204 76
76 204 76
76 204 76
76 204 76
76 204 76
76 204 76
76 204 76
76 204 76
76 204 76
76 204 76
76 204 76
76 204 76
76 204 76
76 204 76
76 204 76
76 204 76
76 204 76
76 204 76
76 204 76
76 204 76
76 204 76
76 204 76
76 204 76
76 204 76
76 204 76
76 204 76
76 204 76
76 204 76
76 204 76
76 204 76
76 204 76
76 204 76
76 204 76
76 204 76
76 204 76
76 204 76
76 204 76
76 204 76
76 204 76
76 204 76
76 204 76
76 204 76
76 204 76
76 204 76
76 204 76
76 204 76
76 204 76
76 204 76
76 204 76
76 204 76
76 204 76
76 204 76
76 204 76
76 204 76
76 204 76
76 204 76
76 204 76
76 204 76
76 204 76
76 204 76
76 204 76
76 204 76
76 204 76
76 204 76
76 204 76
76 204 76
76 204 76
76 204 76
76 204 76
76 204 76
76 204 76
76 204 76
76 204 76
76 204 76
76 204 76
76 204 76
76 204 76
76 204 76
76 204 76
76 204 76
76 204 76
76 204 76
76 204 76
76 204 76
76 204 76
76 204 76
76 204 76
76 204 76
76 204 76
76 204 76
76 204 76
76 204 76
76 204 76
76 204 76
76 204 76
76 204 76
76 204 76
76 204 76
76 204 76
76 204 76
76 204 76
76 204 76
76 204 76
76 204 76
76 204 76
76 204 76
76 204 76
76 204 76
76 204 76
76 204 76
76 204 76
76 204 76
76 204 76
76 204 76
76 204 76
76 204 76
76 204 76
76 204 76
76 204 76
76 204 76
76 204 76
76 204 76
76 204 76
76 204 76
76 204 76
76 204 76
76 204 76
76 204 76
76 204 76
76 204 76
76 204 76
76 204 76
76 204 76
76 204 76
76 204 76
76 204 76
76 204 76
76 204 76
76 204 76
76 204 76
76 204 76
76 204 76
76 204 76
76 204 76
76 204 76
76 204 76
76 204 76
76 204 76
76 204 76
76 204 76
76 204 76
76 204 76
76 204 76
76 204 76
76 204 76
76 204 76
76 204 76
76 204 76
76 204 76
76 204 76
76 204 76
76 204 76
76 204 76
76 204 76
76 204 76
76 204 76
76 204 76
76 204 76
76 204 76
76 204 76
76 204 76
76 204 76
76 204 76
76 204 76
76 204 76
76 204 76
76 204 76
76 204 76
76 204 76
76 204 76
76 204 76
76 204 76
76 204 76
76 204 76
76 204 76
76 204 76
76 204 76
76 204 76
76 204 76
76 204 76
76 204 76
76 204 76
76 204 76
76 204 76
76 204 76
76 204 76
76 204 76
76 204 76
76 204 76
76 204 76
76 204 76
76 204 76
76 204 76
76 204 76
76 204 76
76 204 76
76 204 76
76 204 76
76 204 76
76 204 76
76 204 76
76 204 76
76 204 76
76 204 76
76 204 76
76 204 76
76 204 76
76 204 76
76 204 76
76 204 76
76 204 76
76 204 76
76 204 76
76 204 76
76 204 76
76 204 76
76 204 76
76 204 76
76 204 76
76 204 76
76 204 76
76 204 76
76 204 76
76 204 76
76 204 76
76 204 76
76 204 76
76 204 76
76 204 76
76 204 76
76 204 76
76 204 76
76 204 76
76 204 76
76 204 76
76 204 76
76 204 76
76 204 76
76 204 76
76 204 76
76 204 76
76 204 76
76 204 76
76 204 76
76 204 76
76 204 76
76 204 76
76 204 76
76 204 76
76 204 76
76 204 76
76 204 76
76 204 76
76 204 76
76 204 76
76 204 76
76 204 76
76 204 76
76 204 76
76 204 76
76 204 76
76 204 76
76 204 76
76 204 76
76 204 76
76 204 76
76 204 76
76 204 76
76 204 76
76 204 76
76 204 76
76 204 76
76 204 76
76 204 76
76 204 76
76 204 76
76 204 76
76 204 76
76 204 76
76 204 76
76 204 76
76 204 76
76 204 76
76 204 76
76 204 76
76 204 76
76 204 76
76 204 76
76 204 76
76 204 76
76 204 76
76 204 76
76 204 76
76 204 76
76 204 76
76 204 76
76 204 76
76 204 76
76 204 76
76 204 76
76 204 76
76 204 76
76 204 76
76 204 76
76 204 76
76 204 76
76 204 76
76 204 76
76 204 76
76 204 76
76 204 76
76 204 76
76 204 76
76 204 76
76 204 76
76 204 76
76 204 76
76 204 76
76 204 76
76 204 76
76 204 76
76 204 76
76 204 76
76 204 76
76 204 76
76 204 76
76 204 76
76 204 76
76 204 76
76 204 76
76 204 76
76 204 76
76 204 76
76 204 76
76 204 76
76 204 76
76 204 76
76 204 76
76 204 76
76 204 76
76 204 76
76 204 76
76 204 76
76 204 76
76 204 76
76 204 76
76 204 76
76 204 76
76 204 76
76 204 76
76 204 76
76 204 76
76 204 76
76 204 76
76 204 76
76 204 76
76 204 76
76 204 76
76 204 76
76 204 76
76 204 76
76 204 76
76 204 76
76 204 76
76 204 76
76 204 76
76 204 76
76 204 76
76 204 76
76 204 76
76 204 76
76 204 76
76 204 76
76 204 76
76 204 76
76 204 76
76 204 76
76 204 76
76 204 76
76 204 76
76 204 76
76 204 76
76 204 76
76 204 76
76 204 76
76 204 76
76 204 76
76 204 76
76 204 76
76 204 76
76 204 76
76 204 76
76 204 76
76 204 76
76 204 76
76 204 76
76 204 76
76 204 76
76 204 76
76 204 76
76 204 76
76 204 76
76 204 76
76 204 76
76 204 76
76 204 76
76 204 76
76 204 76
76 204 76
76 204 76
76 204 76
76 204 76
76 204 76
76 204 76
76 204 76
76 204 76
76 204 76
76 204 76
76 204 76
76 204 76
76 204 76
76 204 76
76 204 76
76 204 76
76 204 76
76 204 76
76 204 76
76 204 76
76 204 76
76 204 76
76 204 76
76 204 76
76 204 76
76 204 76
76 204 76
76 204 76
76 204 76
76 204 76
76 204 76
76 204 76
76 204 76
76 204 76
76 204 76
76 204 76
76 204 76
76 204 76
76 204 76
76 204 76
76 204 76
76 204 76
76 204 76
76 204 76
76 204 76
76 204 76
76 204 76
76 204 76
76 204 76
76 204 76
76 204 76
76 204 76
76 204 76
76 204 76
76 204 76
76 204 76
76 204 76
76 204 76
76 204 76
76 204 76
76 204 76
76 204 76
76 204 76
76 204 76
76 204 76
76 204 76
76 204 76
76 204 76
76 204 76
76 204 76
76 204 76
76 204 76
76 204 76
76 204 76
76 204 76
76 204 76
76 204 76
76 204 76
76 204 76
76 204 76
76 204 76
76 204 76
76 204 76
76 204 76
76 204 76
76 204 76
76 204 76
76 204 76
76 204 76
76 204 76
76 204 76
76 204 76
76 204 76
76 204 76
76 204 76
76 204 76
76 204 76
76 204 76
76 204 76
76 204 76
76 204 76
76 204 76
76 204 76
76 204 76
76 204 76
76 204 76
76 204 76
76 204 76
76 204 76
76 204 76
76 204 76
76 204 76
76 204 76
76 204 76
76 204 76
76 204 76
76 204 76
76 204 76
76 204 76
76 204 76
76 204 76
76 204 76
76 204 76
76 204 76
76 204 76
76 204 76
76 204 76
76 204 76
76 204 76
76 204 76
76 204 76
76 204 76
76 204 76
76 204 76
76 204 76
76 204 76
76 204 76
76 204 76
76 204 76
76 204 76
76 204 76
76 204 76
76 204 76
76 204 76
76 204 76
76 204 76
76 204 76
76 204 76
76 204 76
76 204 76
76 204 76
76 204 76
76 204 76
76 204 76
76 204 76
76 204 76
76 204 76
76 204 76
76 204 76
76 204 76
76 204 76
76 204 76
76 204 76
76 204 76
76 204 76
76 204 76
76 204 76
76 204 76
76 204 76
76 204 76
76 204 76
76 204 76
76 204 76
76 204 76
76 204 76
76 204 76
76 204 76
76 204 76
76 204 76
76 204 76
76 204 76
76 204 76
76 204 76
76 204 76
76 204 76
76 204 76
76 204 76
76 204 76
76 204 76
76 204 76
76 204 76
76 204 76
76 204 76
76 204 76
76 204 76
76 204 76
76 204 76
76 204 76
76 204 76
76 204 76
76 204 76
76 204 76
76 204 76
76 204 76
76 204 76
76 204 76
76 204 76
76 204 76
76 204 76
76 204 76
76 204 76
76 204 76
76 204 76
76 204 76
76 204 76
76 204 76
76 204 76
76 204 76
76 204 76
76 204 76
76 204 76
76 204 76
76 204 76
76 204 76
76 204 76
76 204 76
76 204 76
76 204 76
76 204 76
76 204 76
76 204 76
76 204 76
76 204 76
76 204 76
76 204 76
76 204 76
76 204 76
76 204 76
76 204 76
76 204 76
76 204 76
76 204 76
76 204 76
76 204 76
76 204 76
76 204 76
76 204 76
76 204 76
76 204 76
76 204 76
76 204 76
76 204 76
76 204 76
76 204 76
76 204 76
76 204 76
76 204 76
76 204 76
76 204 76
76 204 76
76 204 76
76 204 76
76 204 76
76 204 76
76 204 76
76 204 76
76 204 76
76 204 76
76 204 76
76 204 76
76 204 76
76 204 76
76 204 76
76 204 76
76 204 76
76 204 76
76 204 76
76 204 76
76 204 76
76 204 76
76 204 76
76 204 76
76 204 76
76 204 76
76 204 76
76 204 76
76 204 76
76 204 76
76 204 76
76 204 76
76 204 76
76 204 76
76 204 76
76 204 76
76 204 76
76 204 76
76 204 76
76 204 76
76 204 76
76 204 76
76 204 76
76 204 76
76 204 76
76 204 76
76 204 76
76 204 76
76 204 76
76 204 76
76 204 76
76 204 76
76 204 76
76 204 76
76 204 76
76 204 76
76 204 76
76 204 76
76 204 76
76 204 76
76 204 76
76 204 76
76 204 76
76 204 76
76 204 76
76 204 76
76 204 76
76 204 76
76 204 76
76 204 76
76 204 76
76 204 76
76 204 76
76 204 76
76 204 76
76 204 76
76 204 76
76 204 76
76 204 76
76 204 76
76 204 76
76 204 76
76 204 76
76 204 76
76 204 76
76 204 76
76 204 76
76 204 76
76 204 76
76 204 76
76 204 76
76 204 76
76 204 76
76 204 76
76 204 76
76 204 76
76 204 76
76 204 76
76 204 76
76 204 76
76 204 76
76 204 76
76 204 76
76 204 76
76 204 76
76 204 76
76 204 76
76 204 76
76 204 76
76 204 76
76 204 76
76 204 76
76 204 76
76 204 76
76 204 76
76 204 76
76 204 76
76 204 76
76 204 76
76 204 76
76 204 76
76 204 76
76 204 76
76 204 76
76 204 76
76 204 76
76 204 76
76 204 76
76 204 76
76 204 76
76 204 76
76 204 76
76 204 76
76 204 76
76 204 76
76 204 76
76 204 76
76 204 76
76 204 76
76 204 76
76 204 76
76 204 76
76 204 76
76 204 76
76 204 76
76 204 76
76 204 76
76 204 76
76 204 76
76 204 76
76 204 76
76 204 76
76 204 76
76 204 76
76 204 76
76 204 76
76 204 76
76 204 76
76 204 76
76 204 76
76 204 76
76 204 76
76 204 76
76 204 76
76 204 76
76 204 76
76 204 76
76 204 76
76 204 76
76 204 76
76 204 76
76 204 76
76 204 76
76 204 76
76 204 76
76 204 76
76 204 76
76 204 76
76 204 76
76 204 76
76 204 76
76 204 76
76 204 76
76 204 76
76 204 76
76 204 76
76 204 76
76 204 76
76 204 76
76 204 76
76 204 76
76 204 76
76 204 76
76 204 76
76 204 76
76 204 76
76 204 76
76 204 76
76 204 76
76 204 76
76 204 76
76 204 76
76 204 76
76 204 76
76 204 76
76 204 76
76 204 76
76 204 76
76 204 76
76 204 76
76 204 76
76 204 76
76 204 76
76 204 76
76 204 76
76 204 76
76 204 76
76 204 76
76 204 76
76 204 76
76 204 76
76 204 76
76 204 76
76 204 76
76 204 76
76 204 76
76 204 76
76 204 76
76 204 76
76 204 76
76 204 76
76 204 76
76 204 76
76 204 76
76 204 76
76 204 76
76 204 76
76 204 76
76 204 76
76 204 76
76 204 76
76 204 76
76 204 76
76 204 76
76 204 76
76 204 76
76 204 76
76 204 76
76 204 76
76 204 76
76 204 76
76 204 76
76 204 76
76 204 76
76 204 76
76 204 76
76 204 76
76 204 76
76 204 76
76 204 76
76 204 76
76 204 76
76 204 76
76 204 76
76 204 76
76 204 76
76 204 76
76 204 76
76 204 76
76 204 76
76 204 76
76 204 76
76 204 76
76 204 76
76 204 76
76 204 76
76 204 76
76 204 76
76 204 76
76 204 76
76 204 76
76 204 76
76 204 76
76 204 76
76 204 76
76 204 76
76 204 76
76 204 76
76 204 76
76 204 76
76 204 76
76 204 76
76 204 76
76 204 76
76 204 76
76 204 76
76 204 76
76 204 76
76 204 76
76 204 76
76 204 76
76 204 76
76 204 76
76 204 76
76 204 76
76 204 76
76 204 76
76 204 76
76 204 76
76 204 76
76 204 76
76 204 76
76 204 76
76 204 76
76 204 76
76 204 76
76 204 76
76 204 76
76 204 76
76 204 76
76 204 76
76 204 76
76 204 76
76 204 76
76 204 76
76 204 76
76 204 76
76 204 76
76 204 76
76 204 76
76 204 76
76 204 76
76 204 76
76 204 76
76 204 76
76 204 76
76 204 76
76 204 76
76 204 76
76 204 76
76 204 76
76 204 76
76 204 76
76 204 76
76 204 76
76 204 76
76 204 76
76 204 76
76 204 76
76 204 76
76 204 76
76 204 76
76 204 76
76 204 76
76 204 76
76 204 76
76 204 76
76 204 76
76 204 76
76 204 76
76 204 76
76 204 76
76 204 76
76 204 76
76 204 76
76 204 76
76 204 76
76 204 76
76 204 76
76 204 76
76 204 76
76 204 76
76 204 76
76 204 76
76 204 76
76 204 76
76 204 76
76 204 76
76 204 76
76 204 76
76 204 76
76 204 76
76 204 76
76 204 76
76 204 76
76 204 76
76 204 76
76 204 76
76 204 76
76 204 76
76 204 76
76 204 76
76 204 76
76 204 76
76 204 76
76 204 76
76 204 76
76 204 76
76 204 76
76 204 76
76 204 76
76 204 76
76 204 76
76 204 76
76 204 76
76 204 76
76 204 76
76 204 76
76 204 76
76 204 76
76 204 76
76 204 76
76 204 76
76 204 76
76 204 76
76 204 76
76 204 76
76 204 76
76 204 76
76 204 76
76 204 76
76 204 76
76 204 76
76 204 76
76 204 76
76 204 76
76 204 76
76 204 76
76 204 76
76 204 76
76 204 76
76 204 76
76 204 76
76 204 76
76 204 76
76 204 76
76 204 76
76 204 76
76 204 76
76 204 76
76 204 76
76 204 76
76 204 76
76 204 76
76 204 76
76 204 76
76 204 76
76 204 76
76 204 76
76 204 76
76 204 76
76 204 76
76 204 76
76 204 76
76 204 76
76 204 76
76 204 76
76 204 76
76 204 76
76 204 76
76 204 76
76 204 76
76 204 76
76 204 76
76 204 76
76 204 76
76 204 76
76 204 76
76 204 76
76 204 76
76 204 76
76 204 76
76 204 76
76 204 76
76 204 76
76 204 76
76 204 76
76 204 76
76 204 76
76 204 76
76 204 76
76 204 76
76 204 76
76 204 76
76 204 76
76 204 76
76 204 76
76 204 76
76 204 76
76 204 76
76 204 76
76 204 76
76 204 76
76 204 76
76 204 76
76 204 76
76 204 76
76 204 76
76 204 76
76 204 76
76 204 76
76 204 76
76 204 76
76 204 76
76 204 76
76 204 76
76 204 76
76 204 76
76 204 76
76 204 76
76 204 76
76 204 76
76 204 76
76 204 76
76 204 76
76 204 76
76 204 76
76 204 76
76 204 76
76 204 76
76 204 76
76 204 76
76 204 76
76 204 76
76 204 76
76 204 76
76 204 76
76 204 76
76 204 76
76 204 76
76 204 76
76 204 76
76 204 76
76 204 76
76 204 76
76 204 76
76 204 76
76 204 76
76 204 76
76 204 76
76 204 76
76 204 76
76 204 76
76 204 76
76 204 76
76 204 76
76 204 76
76 204 76
76 204 76
76 204 76
76 204 76
76 204 76
76 204 76
76 204 76
76 204 76
76 204 76
76 204 76
76 204 76
76 204 76
76 204 76
76 204 76
76 204 76
76 204 76
76 204 76
76 204 76
76 204 76
76 204 76
76 204 76
76 204 76
76 204 76
76 204 76
76 204 76
76 204 76
76 204 76
76 204 76
76 204 76
76 204 76
76 204 76
76 204 76
76 204 76
76 204 76
76 204 76
76 204 76
76 204 76
76 204 76
76 204 76
76 204 76
76 204 76
76 204 76
76 204 76
76 204 76
76 204 76
76 204 76
76 204 76
76 204 76
76 204 76
76 204 76
76 204 76
76 204 76
76 204 76
76 204 76
76 204 76
76 204 76
76 204 76
76 204 76
76 204 76
76 204 76
76 204 76
76 204 76
76 204 76
76 204 76
76 204 76
76 204 76
76 204 76
76 204 76
76 204 76
76 204 76
76 204 76
76 204 76
76 204 76
76 204 76
76 204 76
76 204 76
76 204 76
76 204 76
76 204 76
76 204 76
76 204 76
76 204 76
76 204 76
76 204 76
76 204 76
76 204 76
76 204 76
76 204 76
76 204 76
76 204 76
76 204 76
76 204 76
76 204 76
76 204 76
76 204 76
76 204 76
76 204 76
76 204 76
76 204 76
76 204 76
76 204 76
76 204 76
76 204 76
76 204 76
76 204 76
76 204 76
76 204 76
76 204 76
76 204 76
76 204 76
76 204 76
76 204 76
76 204 76
76 204 76
76 204 76
76 204 76
76 204 76
76 204 76
76 204 76
76 204 76
76 204 76
76 204 76
76 204 76
76 204 76
76 204 76
76 204 76
76 204 76
76 204 76
76 204 76
76 204 76
76 204 76
76 204 76
76 204 76
76 204 76
76 204 76
76 204 76
76 204 76
76 204 76
76 204 76
76 204 76
76 204 76
76 204 76
76 204 76
76 204 76
76 204 76
76 204 76
76 204 76
76 204 76
76 204 76
76 204 76
76 204 76
76 204 76
76 204 76
76 204 76
76 204 76
76 204 76
76 204 76
76 204 76
76 204 76
76 204 76
76 204 76
76 204 76
76 204 76
76 204 76
76 204 76
76 204 76
76 204 76
76 204 76
76 204 76
76 204 76
76 204 76
76 204 76
76 204 76
76 204 76
76 204 76
76 204 76
76 204 76
76 204 76
76 204 76
76 204 76
76 204 76
76 204 76
76 204 76
76 204 76
76 204 76
76 204 76
76 204 76
76 204 76
76 204 76
76 204 76
76 204 76
76 204 76
76 204 76
76 204 76
76 204 76
76 204 76
76 204 76
76 204 76
76 204 76
76 204 76
76 204 76
76 204 76
76 204 76
76 204 76
76 204 76
76 204 76
76 204 76
76 204 76
76 204 76
76 204 76
76 204 76
76 204 76
76 204 76
76 204 76
76 204 76
76 204 76
76 204 76
76 204 76
76 204 76
76 204 76
76 204 76
76 204 76
76 204 76
76 204 76
76 204 76
76 204 76
76 204 76
76 204 76
76 204 76
76 204 76
76 204 76
76 204 76
76 204 76
76 204 76
76 204 76
76 204 76
76 204 76
76 204 76
76 204 76
76 204 76
76 204 76
76 204 76
76 204 76
76 204 76
76 204 76
76 204 76
76 204 76
76 204 76
76 204 76
76 204 76
76 204 76
76 204 76
76 204 76
76 204 76
76 204 76
76 204 76
76 204 76
76 204 76
76 204 76
76 204 76
76 204 76
76 204 76
76 204 76
76 204 76
76 204 76
76 204 76
76 204 76
76 204 76
76 204 76
76 204 76
76 204 76
76 204 76
76 204 76
76 204 76
76 204 76
76 204 76
76 204 76
76 204 76
76 204 76
76 204 76
76 204 76
76 204 76
76 204 76
76 204 76
76 204 76
76 204 76
76 204 76
76 204 76
76 204 76
76 204 76
76 204 76
76 204 76
76 204 76
76 204 76
76 204 76
76 204 76
76 204 76
76 204 76
76 204 76
76 204 76
76 204 76
76 204 76
76 204 76
76 204 76
76 204 76
76 204 76
76 204 76
76 204 76
76 204 76
76 204 76
76 204 76
76 204 76
76 204 76
76 204 76
76 204 76
76 204 76
76 204 76
76 204 76
76 204 76
76 204 76
76 204 76
76 204 76
76 204 76
76 204 76
76 204 76
76 204 76
76 204 76
76 204 76
76 204 76
76 204 76
76 204 76
76 204 76
76 204 76
76 204 76
76 204 76
76 204 76
76 204 76
76 204 76
76 204 76
76 204 76
76 204 76
76 204 76
76 204 76
76 204 76
76 204 76
76 204 76
76 204 76
76 204 76
76 204 76
76 204 76
76 204 76
76 204 76
76 204 76
76 204 76
76 204 76
76 204 76
76 204 76
76 204 76
76 204 76
76 204 76
76 204 76
76 204 76
76 204 76
76 204 76
76 204 76
76 204 76
76 204 76
76 204 76
76 204 76
76 204 76
76 204 76
76 204 76
76 204 76
76 204 76
76 204 76
76 204 76
76 204 76
76 204 76
76 204 76
76 204 76
76 204 76
76 204 76
76 204 76
76 204 76
76 204 76
76 204 76
76 204 76
76 204 76
76 204 76
76 204 76
76 204 76
76 204 76
76 204 76
76 204 76
76 204 76
76 204 76
76 204 76
76 204 76
76 204 76
76 204 76
76 204 76
76 204 76
76 204 76
76 204 76
76 204 76
76 204 76
76 204 76
76 204 76
76 204 76
76 204 76
76 204 76
76 204 76
76 204 76
76 204 76
76 204 76
76 204 76
76 204 76
76 204 76
76 204 76
76 204 76
76 204 76
76 204 76
76 204 76
76 204 76
76 204 76
76 204 76
76 204 76
76 204 76
76 204 76
76 204 76
76 204 76
76 204 76
76 204 76
76 204 76
76 204 76
76 204 76
76 204 76
76 204 76
76 204 76
76 204 76
76 204 76
76 204 76
76 204 76
76 204 76
76 204 76
76 204 76
76 204 76
76 204 76
76 204 76
76 204 76
76 204 76
76 204 76
76 204 76
76 204 76
76 204 76
76 204 76
76 204 76
76 204 76
76 204 76
76 204 76
76 204 76
76 204 76
76 204 76
76 204 76
76 204 76
76 204 76
76 204 76
76 204 76
76 204 76
76 204 76
76 204 76
76 204 76
76 204 76
76 204 76
76 204 76
76 204 76
76 204 76
76 204 76
76 204 76
76 204 76
76 204 76
76 204 76
76 204 76
76 204 76
76 204 76
76 204 76
76 204 76
76 204 76
76 204 76
76 204 76
76 204 76
76 204 76
76 204 76
76 204 76
76 204 76
76 204 76
76 204 76
76 204 76
76 204 76
76 204 76
76 204 76
76 204 76
76 204 76
76 204 76
76 204 76
76 204 76
76 204 76
76 204 76
76 204 76
76 204 76
76 204 76
76 204 76
76 204 76
76 204 76
76 204 76
76 204 76
76 204 76
76 204 76
76 204 76
76 204 76
76 204 76
76 204 76
76 204 76
76 204 76
76 204 76
76 204 76
76 204 76
76 204 76
76 204 76
76 204 76
76 204 76
76 204 76
76 204 76
76 204 76
76 204 76
76 204 76
76 204 76
76 204 76
76 204 76
76 204 76
76 204 76
76 204 76
76 204 76
76 204 76
76 204 76
76 204 76
76 204 76
76 204 76
76 204 76
76 204 76
76 204 76
76 204 76
76 204 76
76 204 76
76 204 76
76 204 76
76 204 76
76 204 76
76 204 76
76 204 76
76 204 76
76 204 76
76 204 76
76 204 76
76 204 76
76 204 76
76 204 76
76 204 76
76 204 76
76 204 76
76 204 76
76 204 76
76 204 76
76 204 76
76 204 76
76 204 76
76 204 76
76 204 76
76 204 76
76 204 76
76 204 76
76 204 76
76 204 76
76 204 76
76 204 76
76 204 76
76 204 76
76 204 76
76 204 76
76 204 76
76 204 76
76 204 76
76 204 76
76 204 76
76 204 76
76 204 76
76 204 76
76 204 76
76 204 76
76 204 76
76 204 76
76 204 76
76 204 76
76 204 76
76 204 76
76 204 76
76 204 76
76 204 76
76 204 76
76 204 76
76 204 76
76 204 76
76 204 76
76 204 76
76 204 76
76 204 76
76 204 76
76 204 76
76 204 76
76 204 76
76 204 76
76 204 76
76 204 76
76 204 76
76 204 76
76 204 76
76 204 76
76 204 76
76 204 76
76 204 76
76 204 76
76 204 76
76 204 76
76 204 76
76 204 76
76 204 76
76 204 76
76 204 76
76 204 76
76 204 76
76 204 76
76 204 76
76 204 76
76 204 76
76 204 76
76 204 76
76 204 76
76 204 76
76 204 76
76 204 76
76 204 76
76 204 76
76 204 76
76 204 76
76 204 76
76 204 76
76 204 76
76 204 76
76 204 76
76 204 76
76 204 76
76 204 76
76 204 76
76 204 76
76 204 76
76 204 76
76 204 76
76 204 76
76 204 76
76 204 76
76 204 76
76 204 76
76 204 76
76 204 76
76 204 76
76 204 76
76 204 76
76 204 76
76 204 76
76 204 76
76 204 76
76 204 76
76 204 76
76 204 76
76 204 76
76 204 76
76 204 76
76 204 76
76 204 76
76 204 76
76 204 76
76 204 76
76 204 76
76 204 76
76 204 76
76 204 76
76 204 76
76 204 76
76 204 76
76 204 76
76 204 76
76 204 76
76 204 76
76 204 76
76 204 76
76 204 76
76 204 76
76 204 76
76 204 76
76 204 76
76 204 76
76 204 76
76 204 76
76 204 76
76 204 76
76 204 76
76 204 76
76 204 76
76 204 76
76 204 76
76 204 76
76 204 76
76 204 76
76 204 76
76 204 76
76 204 76
76 204 76
76 204 76
76 204 76
76 204 76
76 204 76
76 204 76
76 204 76
76 204 76
76 204 76
76 204 76
76 204 76
76 204 76
76 204 76
76 204 76
76 204 76
76 204 76
76 204 76
76 204 76
76 204 76
76 204 76
76 204 76
76 204 76
76 204 76
76 204 76
76 204 76
76 204 76
76 204 76
76 204 76
76 204 76
76 204 76
76 204 76
76 204 76
76 204 76
76 204 76
76 204 76
76 204 76
76 204 76
76 204 76
76 204 76
76 204 76
76 204 76
76 204 76
76 204 76
76 204 76
76 204 76
76 204 76
76 204 76
76 204 76
76 204 76
76 204 76
76 204 76
76 204 76
76 204 76
76 204 76
76 204 76
76 204 76
76 204 76
76 204 76
76 204 76
76 204 76
76 204 76
76 204 76
76 204 76
76 204 76
76 204 76
76 204 76
76 204 76
76 204 76
76 204 76
76 204 76
76 204 76
76 204 76
76 204 76
76 204 76
76 204 76
76 204 76
76 204 76
76 204 76
76 204 76
76 204 76
76 204 76
76 204 76
76 204 76
76 204 76
76 204 76
76 204 76
76 204 76
76 204 76
76 204 76
76 204 76
76 204 76
76 204 76
76 204 76
76 204 76
76 204 76
76 204 76
76 204 76
76 204 76
76 204 76
76 204 76
76 204 76
76 204 76
76 204 76
76 204 76
76 204 76
76 204 76
76 204 76
76 204 76
76 204 76
76 204 76
76 204 76
76 204 76
76 204 76
76 204 76
76 204 76
76 204 76
76 204 76
76 204 76
76 204 76
76 204 76
76 204 76
76 204 76
76 204 76
76 204 76
76 204 76
76 204 76
76 204 76
76 204 76
76 204 76
76 204 76
76 204 76
76 204 76
76 204 76
76 204 76
76 204 76
76 204 76
76 204 76
76 204 76
76 204 76
76 204 76
76 204 76
76 204 76
76 204 76
76 204 76
76 204 76
76 204 76
76 204 76
76 204 76
76 204 76
76 204 76
76 204 76
76 204 76
76 204 76
76 204 76
76 204 76
76 204 76
76 204 76
76 204 76
76 204 76
76 204 76
76 204 76
76 204 76
76 204 76
76 204 76
76 204 76
76 204 76
76 204 76
76 204 76
76 204 76
76 204 76
76 204 76
76 204 76
76 204 76
76 204 76
76 204 76
76 204 76
76 204 76
76 204 76
76 204 76
76 204 76
76 204 76
76 204 76
76 204 76
76 204 76
76 204 76
76 204 76
76 204 76
76 204 76
76 204 76
76 204 76
76 204 76
76 204 76
76 204 76
76 204 76
76 204 76
76 204 76
76 204 76
76 204 76
76 204 76
76 204 76
76 204 76
76 204 76
76 204 76
76 204 76
76 204 76
76 204 76
76 204 76
76 204 76
76 204 76
76 204 76
76 204 76
76 204 76
76 204 76
76 204 76
76 204 76
76 204 76
76 204 76
76 204 76
76 204 76
76 204 76
76 204 76
76 204 76
76 204 76
76 204 76
76 204 76
76 204 76
76 204 76
76 204 76
76 204 76
76 204 76
76 204 76
76 204 76
76 204 76
76 204 76
76 204 76
76 204 76
76 204 76
76 204 76
76 204 76
76 204 76
76 204 76
76 204 76
76 204 76
76 204 76
76 204 76
76 204 76
76 204 76
76 204 76
76 204 76
76 204 76
76 204 76
76 204 76
76 204 76
76 204 76
76 204 76
76 204 76
76 204 76
76 204 76
76 204 76
76 204 76
76 204 76
76 204 76
76 204 76
76 204 76
76 204 76
76 204 76
76 204 76
76 204 76
76 204 76
76 204 76
76 204 76
76 204 76
76 204 76
76 204 76
76 204 76
76 204 76
76 204 76
76 204 76
76 204 76
76 204 76
76 204 76
76 204 76
76 204 76
76 204 76
76 204 76
76 204 76
76 204 76
76 204 76
76 204 76
76 204 76
76 204 76
76 204 76
76 204 76
76 204 76
76 204 76
76 204 76
76 204 76
76 204 76
76 204 76
76 204 76
76 204 76
76 204 76
76 204 76
76 204 76
76 204 76
76 204 76
76 204 76
76 204 76
76 204 76
76 204 76
76 204 76
76 204 76
76 204 76
76 204 76
76 204 76
76 204 76
76 204 76
76 204 76
76 204 76
76 204 76
76 204 76
76 204 76
76 204 76
76 204 76
76 204 76
76 204 76
76 204 76
76 204 76
76 204 76
76 204 76
76 204 76
76 204 76
76 204 76
76 204 76
76 204 76
76 204 76
76 204 76
76 204 76
76 204 76
76 204 76
76 204 76
76 204 76
76 204 76
76 204 76
76 204 76
76 204 76
76 204 76
76 204 76
76 204 76
76 204 76
76 204 76
76 204 76
76 204 76
76 204 76
76 204 76
76 204 76
76 204 76
76 204 76
76 204 76
76 204 76
76 204 76
76 204 76
76 204 76
76 204 76
76 204 76
76 204 76
76 204 76
76 204 76
76 204 76
76 204 76
76 204 76
76 204 76
76 204 76
76 204 76
76 204 76
76 204 76
76 204 76
76 204 76
76 204 76
76 204 76
76 204 76
76 204 76
76 204 76
76 204 76
76 204 76
76 204 76
76 204 76
76 204 76
76 204 76
76 204 76
76 204 76
76 204 76
76 204 76
76 204 76
76 204 76
76 204 76
76 204 76
76 204 76
76 204 76
76 204 76
76 204 76
76 204 76
76 204 76
76 204 76
76 204 76
76 204 76
76 204 76
76 204 76
76 204 76
76 204 76
76 204 76
76 204 76
76 204 76
76 204 76
76 204 76
76 204 76
76 204 76
76 204 76
76 204 76
76 204 76
76 204 76
76 204 76
76 204 76
76 204 76
76 204 76
76 204 76
76 204 76
76 204 76
76 204 76
76 204 76
76 204 76
76 204 76
76 204 76
76 204 76
76 204 76
76 204 76
76 204 76
76 204 76
76 204 76
76 204 76
76 204 76
76 204 76
76 204 76
76 204 76
76 204 76
76 204 76
76 204 76
76 204 76
76 204 76
76 204 76
76 204 76
76 204 76
76 204 76
76 204 76
76 204 76
76 204 76
76 204 76
76 204 76
76 204 76
76 204 76
76 204 76
76 204 76
76 204 76
76 204 76
76 204 76
76 204 76
76 204 76
76 204 76
76 204 76
76 204 76
76 204 76
76 204 76
76 204 76
76 204 76
76 204 76
76 204 76
76 204 76
76 204 76
76 204 76
76 204 76
76 204 76
76 204 76
76 204 76
76 204 76
76 204 76
76 204 76
76 204 76
76 204 76
76 204 76
76 204 76
76 204 76
76 204 76
76 204 76
76 204 76
76 204 76
76 204 76
76 204 76
76 204 76
76 204 76
76 204 76
76 204 76
76 204 76
76 204 76
76 204 76
76 204 76
76 204 76
76 204 76
76 204 76
76 204 76
76 204 76
76 204 76
76 204 76
76 204 76
76 204 76
76 204 76
76 204 76
76 204 76
76 204 76
76 204 76
76 204 76
76 204 76
76 204 76
76 204 76
76 204 76
76 204 76
76 204 76
76 204 76
76 204 76
76 204 76
76 204 76
76 204 76
76 204 76
76 204 76
76 204 76
76 204 76
76 204 76
76 204 76
76 204 76
76 204 76
76 204 76
76 204 76
76 204 76
76 204 76
76 204 76
76 204 76
76 204 76
76 204 76
76 204 76
76 204 76
76 204 76
76 204 76
76 204 76
76 204 76
76 204 76
76 204 76
76 204 76
76 204 76
76 204 76
76 204 76
76 204 76
76 204 76
76 204 76
76 204 76
76 204 76
76 204 76
76 204 76
76 204 76
76 204 76
76 204 76
76 204 76
76 204 76
76 204 76
76 204 76
76 204 76
76 204 76
76 204 76
76 204 76
76 204 76
76 204 76
76 204 76
76 204 76
76 204 76
76 204 76
76 204 76
76 204 76
76 204 76
76 204 76
76 204 76
76 204 76
76 204 76
76 204 76
76 204 76
76 204 76
76 204 76
76 204 76
76 204 76
76 204 76
76 204 76
76 204 76
76 204 76
76 204 76
76 204 76
76 204 76
76 204 76
76 204 76
76 204 76
76 204 76
76 204 76
76 204 76
76 204 76
76 204 76
76 204 76
76 204 76
76 204 76
76 204 76
76 204 76
76 204 76
76 204 76
76 204 76
76 204 76
76 204 76
76 204 76
76 204 76
76 204 76
76 204 76
76 204 76
76 204 76
76 204 76
76 204 76
76 204 76
76 204 76
76 204 76
76 204 76
76 204 76
76 204 76
76 204 76
76 204 76
76 204 76
76 204 76
76 204 76
76 204 76
76 204 76
76 204 76
76 204 76
76 204 76
76 204 76
76 204 76
76 204 76
76 204 76
76 204 76
76 204 76
76 204 76
76 204 76
76 204 76
76 204 76
76 204 76
76 204 76
76 204 76
76 204 76
76 204 76
76 204 76
76 204 76
76 204 76
76 204 76
76 204 76
76 204 76
76 204 76
76 204 76
76 204 76
76 204 76
76 204 76
76 204 76
76 204 76
76 204 76
76 204 76
76 204 76
76 204 76
76 204 76
76 204 76
76 204 76
76 204 76
76 204 76
76 204 76
76 204 76
76 204 76
76 204 76
76 204 76
76 204 76
76 204 76
76 204 76
76 204 76
76 204 76
76 204 76
76 204 76
76 204 76
76 204 76
76 204 76
76 204 76
76 204 76
76 204 76
76 204 76
76 204 76
76 204 76
76 204 76
76 204 76
76 204 76
76 204 76
76 204 76
76 204 76
76 204 76
76 204 76
76 204 76
76 204 76
76 204 76
76 204 76
76 204 76
76 204 76
76 204 76
76 204 76
76 204 76
76 204 76
76 204 76
76 204 76
76 204 76
76 204 76
76 204 76
76 204 76
76 204 76
76 204 76
76 204 76
76 204 76
76 204 76
76 204 76
76 204 76
76 204 76
76 204 76
76 204 76
76 204 76
76 204 76
76 204 76
76 204 76
76 204 76
76 204 76
76 204 76
76 204 76
76 204 76
76 204 76
76 204 76
76 204 76
76 204 76
76 204 76
76 204 76
76 204 76
76 204 76
76 204 76
76 204 76
76 204 76
76 204 76
76 204 76
76 204 76
76 204 76
76 204 76
76 204 76
76 204 76
76 204 76
76 204 76
76 204 76
76 204 76
76 204 76
76 204 76
76 204 76
76 204 76
76 204 76
76 204 76
76 204 76
76 204 76
76 204 76
76 204 76
76 204 76
76 204 76
76 204 76
76 204 76
76 204 76
76 204 76
76 204 76
76 204 76
76 204 76
76 204 76
76 204 76
76 204 76
76 204 76
76 204 76
76 204 76
76 204 76
76 204 76
76 204 76
76 204 76
76 204 76
76 204 76
76 204 76
76 204 76
76 204 76
76 204 76
76 204 76
76 204 76
76 204 76
76 204 76
76 204 76
76 204 76
76 204 76
76 204 76
76 204 76
76 204 76
76 204 76
